!!!!SEGMENT: pl-sa--190-a-v-20--001-008_pych-leopold--missa-in-d-agnus-dei.krn
!!!cenid: 17xx:1580
!!!COM: Pych, Leopold
!!!COM-rismID: pe30018039
!!!CDT: <1758->1774
!!!CNT:
!!!OPR: Missa in D
!!!OTL: Agnus Dei
!!!OMV: 008
!!!PDT:
!!!AGN: Sacred; Mass
!!!YEC: Copyright 2022 Narodowy Instytut Fryderyka Chopina (https://polishscores.org)
!!!YEM: License CC-BY-4.0 (https://creativecommons.org/licenses/by/4.0)
!!!SMS-siglum: PL-SA
!!!SMS-shelfmark: 190/A V 20
!!!SMS-shelfwork: 001-008 M
!!!SMS-variant:
!!!SMS-altvar:
!!!NIFC-rismSourceID: 1001035913
!!!NIFC-rismChildID: 1001035913
!!!NIFC-islandoraID: none
!!!URL-pdf-islandora:
!!!URL-scan: https://bc.bdsandomierz.pl/dlibra/publication/1527/edition/1495/content @EN{Scan in the Sandomierz Diocese Digital Library} @PL{Skany w portalu Cyfrowa Biblioteka Diecezjalna w Sandomierzu}
!!!IIIF:
!!!ONB-nifc: UWAGA: części Mszy: 1. Sinfonia, 2. Kyrie, 3. Gloria, 4. Credo, 5. Sanctus, 6. Osanna, 7. Benedictus, 8. Agnus Dei, 9. Dona nobis
!!!AIN: 1 alto 1 bass 2 cor 1 organ 1 soprn 1 tenor 2 violn
!!!OMD:
!!!OMD-mod: Adagio
!!!key: D
**kern	**fba	**dynam	**kern	**dynam	**kern	**dynam	**kern	**text	**mod-text	**kern	**text	**mod-text	**kern	**text	**mod-text	**kern	**kern	**dynam	**kern	**dynam
*	*	*	*group3	*	*group3	*	*group2	*	*	*group2	*	*	*group2	*	*	*group2	*group1	*	*group1	*
*part9	*part9	*part9	*part8	*part8	*part7	*part7	*part6	*part6	*part6	*part5	*part5	*part5	*part4	*part4	*part4	*part3	*part2	*part2	*part1	*part1
*staff9	*staff9	*staff9	*staff8	*staff8	*staff7	*staff7	*staff6	*staff6	*staff6	*staff5	*staff5	*staff5	*staff4	*staff4	*staff4	*staff3	*staff2	*staff2	*staff1	*staff1
*I"Fundamento	*	*	*I"Violino 2do:	*	*I"Violino Primo:	*	*I"Baſso	*	*	*I"Tenore.	*	*	*I"Alto	*	*	*I"Canto	*I"Cornu 2do ex D:	*	*I"Cornu Primo ex D#	*
*mI"Organo	*	*	*mI"Violino II	*	*mI"Violino I	*	*mI"Basso	*	*	*mI"Tenore	*	*	*	*	*	*mI"Soprano	*mI"Corno II in D	*	*mI"Corno I in D	*
*I'bc	*	*	*I'vl 2	*	*I'vl 1	*	*I'B	*	*	*I'T	*	*	*I'A	*	*	*I'S	*I'cor 2	*	*I'cor 1	*
*Iorgan	*	*	*Ivioln	*	*Ivioln	*	*Ibass	*	*	*Itenor	*	*	*Ialto	*	*	*Isoprn	*Icor	*	*Icor	*
*ICklav	*	*	*ICstr	*	*ICstr	*	*ICvox	*	*	*ICvox	*	*	*ICvox	*	*	*ICvox	*ICbras	*	*ICbras	*
*IGcont	*	*	*	*	*	*	*IGcoro	*	*	*IGcoro	*	*	*IGcoro	*	*	*IGcoro	*	*	*	*
*clefF4	*	*	*clefG2	*	*clefG2	*	*clefF4	*	*	*clefC4	*	*	*clefC3	*	*	*clefC1	*clefG2	*	*clefG2	*
*	*	*	*	*	*	*	*	*	*	*mclefGv2	*	*	*mclefG2	*	*	*mclefG2	*	*	*	*
*	*	*	*	*	*	*	*	*	*	*	*	*	*	*	*	*tacet	*ITrd6c10	*	*ITrd6c10	*
*k[f#c#]	*	*	*k[f#c#]	*	*k[f#c#]	*	*k[f#c#]	*	*	*k[c#f#]	*	*	*k[f#c#]	*	*	*k[f#c#]	*k[f#c#]	*	*k[f#c#]	*
*	*	*	*	*	*	*	*	*	*	*mk[f#c#]	*	*	*	*	*	*	*	*	*	*
*D:	*	*	*D:	*	*D:	*	*D:	*	*	*D:	*	*	*D:	*	*	*D:	*	*	*	*
*M4/4	*	*	*M4/4	*	*M4/4	*	*M4/4	*	*	*M4/4	*	*	*M4/4	*	*	*M4/4	*M4/4	*	*M4/4	*
*met(c)	*	*	*met(c)	*	*met(c)	*	*met(c)	*	*	*met(c)	*	*	*met(c)	*	*	*met(c)	*met(c)	*	*met(c)	*
*mmet(c)	*	*	*mmet(c)	*	*mmet(c)	*	*mmet(c)	*	*	*mmet(c)	*	*	*mmet(c)	*	*	*mmet(c)	*mmet(c)	*	*mmet(c)	*
=1	=1	=1	=1	=1	=1	=1	=1	=1	=1	=1	=1	=1	=1	=1	=1	=1	=1	=1	=1	=1
*all\right	*	*	*all\right	*below	*	*	*all\right	*	*	*all\right	*	*	*all\right	*	*	*	*all\right	*	*all\right	*
!	!	!	!	!	!	!	!	!	!	!	!	!	!	!	!	!	!	!	!LO:TX:t=P:problem=partia in D	!
!	!	!	!	!	!LO:TX:t=P:problem=mixed beam	!	!	!	!	!LO:TX:t=P:problem=znaki [c# F#]	!	!	!	!	!	!LO:TX:t=P:problem=zgodnie z RISM "S part missing"	!LO:TX:t=P:problem=na stronie tytułowej jako "clarini"	!	!LO:TX:t=P:problem=na stronie tytułowej jako "clarini"	!
!LO:TX:a:t=Agnus Dei:mod=	!	!	!LO:TX:t=P:problem=mixed beam	!	!LO:TX:a:t=Agnus:mod=	!	!	!	!	!	!	!	!	!	!	!	!LO:TX:a:t=adagio:mod=	!	!LO:TX:a:t=adagio:mod=	!
!LO:TX:a:t=adagio:mod=	!	!	!LO:TX:a:t=Agnus \nDei:mod=	!	!LO:TX:a:t=adagi:mod=	!	!LO:TX:a:t=adagio:mod=	!	!	!	!	!	!LO:TX:a:t=adagio:mod=	!	!	!	!LO:TX:a:t=Agnus Dei:mod=	!	!LO:TX:a:t=Agnus Dei:mod=	!
8r	.	.	16.d/LL	.	16.d/LL	.	0r	.	.	0r	.	.	0r	.	.	1ryy	0r	.	0r	.
.	.	.	32dd\JJk	.	32dd\JJk	.	.	.	.	.	.	.	.	.	.	.	.	.	.	.
8D\L	6	.	16.ff#\LL	.	16.ff#\LL	.	.	.	.	.	.	.	.	.	.	.	.	.	.	.
.	.	.	32aa\JJk	.	32aa\JJk	.	.	.	.	.	.	.	.	.	.	.	.	.	.	.
8G\	.	.	16.bb\LL	.	16.bb\LL	.	.	.	.	.	.	.	.	.	.	.	.	.	.	.
.	.	.	32gg\JJk	.	32gg\JJk	.	.	.	.	.	.	.	.	.	.	.	.	.	.	.
!	!	!	!LO:SIC:o=(16.ee\LL	!	!	!	!	!	!	!	!	!	!	!	!	!	!	!	!	!
8A\J	.	.	16.eeLL	.	16.ee\LL	.	.	.	.	.	.	.	.	.	.	.	.	.	.	.
!	!	!	!LO:SIC:o=32cc#\JJk)	!	!	!	!	!	!	!	!	!	!	!	!	!	!	!	!	!
.	.	.	32cc#JJk	.	32cc#\JJk	.	.	.	.	.	.	.	.	.	.	.	.	.	.	.
!	!	!	!LO:TX:t=P:problem=mixed beam	!	!LO:TX:t=P:problem=mixed beam	!	!	!	!	!	!	!	!	!	!	!	!	!	!	!
8D\L	.	.	16.dd\LL	.	16.dd\LL	.	.	.	.	.	.	.	.	.	.	.	.	.	.	.
.	.	.	32d/JJk	.	32d/JJk	.	.	.	.	.	.	.	.	.	.	.	.	.	.	.
8d\	.	.	16.f#/LL	.	16.f#/LL	.	.	.	.	.	.	.	.	.	.	.	.	.	.	.
.	.	.	32a/JJk	.	32a/JJk	.	.	.	.	.	.	.	.	.	.	.	.	.	.	.
8G\	.	.	16.b/LL	.	16.b/LL	.	.	.	.	.	.	.	.	.	.	.	.	.	.	.
.	.	.	32g/JJk	.	32g/JJk	.	.	.	.	.	.	.	.	.	.	.	.	.	.	.
8A\J	.	.	16.e/LL	.	16.e/LL	.	.	.	.	.	.	.	.	.	.	.	.	.	.	.
.	.	.	32c#/JJk	.	32c#/JJk	.	.	.	.	.	.	.	.	.	.	.	.	.	.	.
=2	=2	=2	=2	=2	=2	=2	=2	=2	=2	=2	=2	=2	=2	=2	=2	=2	=2	=2	=2	=2
!	!	!	!	!	!LO:TX:t=P:problem=mixed beam	!	!	!	!	!	!	!	!	!	!	!	!	!	!	!
4D\	.	.	16.d/LL	.	16.d/LL	.	.	.	.	.	.	.	.	.	.	1ryy	.	.	.	.
.	.	.	32a/JJk	.	32dd\JJk	.	.	.	.	.	.	.	.	.	.	.	.	.	.	.
.	.	.	16.dd\LL	.	16.ff#\LL	.	.	.	.	.	.	.	.	.	.	.	.	.	.	.
.	.	.	32ff#\JJk	.	32aa\JJk	.	.	.	.	.	.	.	.	.	.	.	.	.	.	.
!	!	!	!LO:SIC:o=8qqff#/	!	!	!	!	!	!	!	!	!	!	!	!	!	!	!	!	!
.	.	.	(8qqff#	.	(<8qqaa/	.	.	.	.	.	.	.	.	.	.	.	.	.	.	.
!	!	!	!LO:SIC:o=8ee\L	!	!	!	!	!	!	!	!	!	!	!	!	!	!	!	!	!
8r	.	.	8eeL)	.	8gg\L)	.	.	.	.	.	.	.	.	.	.	.	.	.	.	.
4d\	.	.	8dd\J	.	8ff#\J	.	.	.	.	.	.	.	.	.	.	.	.	.	.	.
.	.	.	16.r	.	16.r	.	.	.	.	.	.	.	.	.	.	.	.	.	.	.
!	!	!	!	!	!	!LO:MO:null:mod=!LO&colon;DY&colon;ed=brack	!	!	!	!	!	!	!	!	!	!	!	!	!	!
!	!	!	!	!	!	!null	!	!	!	!	!	!	!	!	!	!	!	!	!	!
!	!	!	!	!LO:DY:a:t=pia	!	!LO:MO:null:mod=p	!	!	!	!	!	!	!	!	!	!	!	!	!	!
.	.	.	32a\KLL	p	32dd\KLL	.	.	.	.	.	.	.	.	.	.	.	.	.	.	.
8D\	.	.	16.dd\	.	16.ff#\	.	.	.	.	.	.	.	.	.	.	.	.	.	.	.
.	.	.	32ff#\JJk	.	32aa\JJk	.	.	.	.	.	.	.	.	.	.	.	.	.	.	.
!	!	!	!	!	!LO:SIC:o=8qqaa/	!	!	!	!	!	!	!	!	!	!	!	!	!	!	!
.	.	.	(<8qqff#/	.	(8qqaa	.	.	.	.	.	.	.	.	.	.	.	.	.	.	.
!	!	!	!	!	!LO:SIC:o=8gg\L	!	!	!	!	!	!	!	!	!	!	!	!	!	!	!
8r	.	.	8ee\L)	.	8ggL)	.	.	.	.	.	.	.	.	.	.	.	.	.	.	.
8d\	.	.	8dd\J	.	8ff#\J	.	.	.	.	.	.	.	.	.	.	.	.	.	.	.
!	!	!	!	!	!LO:LB:g=original	!	!	!	!	!	!	!	!	!	!	!	!	!	!	!
=3	=3	=3	=3	=3	=3	=3	=3	=3	=3	=3	=3	=3	=3	=3	=3	=3	=3	=3	=3	=3
!	!	!	!	!	!	!LO:MO:null:mod=!LO&colon;DY&colon;ed=brack	!	!	!	!	!	!	!	!	!	!	!	!	!	!
!	!	!	!	!	!	!null	!	!	!	!	!	!	!	!	!	!	!	!	!	!
!	!	!	!	!LO:DY:b:t=for	!	!LO:MO:null:mod=f	!	!	!	!	!	!	!	!	!	!	!	!	!	!
8F#\L	.	.	(32ddd\KLL	f	(32ddd\KLL	.	1r	.	.	1r	.	.	1r	.	.	1ryy	1r	.	1r	.
.	.	.	16.ccc#\JJ)	.	16.ccc#\JJ)	.	.	.	.	.	.	.	.	.	.	.	.	.	.	.
8F#\	.	.	(32bb\KLL	.	(32bb\KLL	.	.	.	.	.	.	.	.	.	.	.	.	.	.	.
.	.	.	16.aa\JJ)	.	16.aa\JJ)	.	.	.	.	.	.	.	.	.	.	.	.	.	.	.
!	!	!	!LO:LB:g=original	!	!	!	!	!	!	!	!	!	!	!	!	!	!	!	!	!
8G\	.	.	(32bb\KLL	.	(32bb\KLL	.	.	.	.	.	.	.	.	.	.	.	.	.	.	.
.	.	.	16.gg\JJ)	.	16.gg\JJ)	.	.	.	.	.	.	.	.	.	.	.	.	.	.	.
8G\J	.	.	(32ee\KLL	.	(32ee\KLL	.	.	.	.	.	.	.	.	.	.	.	.	.	.	.
.	.	.	16.dd\JJ)	.	16.dd\JJ)	.	.	.	.	.	.	.	.	.	.	.	.	.	.	.
!	!	!	!LO:MO:null:mod=(8qqb	!	!	!	!	!	!	!	!	!	!	!	!	!	!	!	!	!
.	.	.	.	.	(<8qqdd/	.	.	.	.	.	.	.	.	.	.	.	.	.	.	.
!LO:TX:t=P:problem=mixed beam	!	!	!LO:SIC:o=16.a/LL	!	!	!	!	!	!	!	!	!	!	!	!	!	!	!	!	!
8.A\L	.	.	16.aLL)	.	16.cc#\LL)	.	.	.	.	.	.	.	.	.	.	.	.	.	.	.
.	.	.	32b/JK	.	32dd\JK	.	.	.	.	.	.	.	.	.	.	.	.	.	.	.
.	.	.	8cc#/J	.	8ee\J	.	.	.	.	.	.	.	.	.	.	.	.	.	.	.
16AA/Jk	.	.	.	.	.	.	.	.	.	.	.	.	.	.	.	.	.	.	.	.
16A\LL	.	.	4r;;	.	4r;;	.	.	.	.	.	.	.	.	.	.	.	.	.	.	.
16G\	.	.	.	.	.	.	.	.	.	.	.	.	.	.	.	.	.	.	.	.
16F#\	.	.	.	.	.	.	.	.	.	.	.	.	.	.	.	.	.	.	.	.
16E\JJ	.	.	.	.	.	.	.	.	.	.	.	.	.	.	.	.	.	.	.	.
!LO:LB:g=original	!	!	!	!	!	!	!	!	!	!	!	!	!	!	!	!	!	!	!	!
=4	=4	=4	=4	=4	=4	=4	=4	=4	=4	=4	=4	=4	=4	=4	=4	=4	=4	=4	=4	=4
!LO:MO:mod=!LO&colon;TX&colon;a&colon;i&colon;t=Tutti	!	!	!	!	!	!	!	!	!	!	!	!	!	!	!	!	!	!	!	!
!LO:TX:a:i:t=Tut	!	!	!LO:TX:t=P:problem=mixed beam	!	!LO:TX:t=P:problem=mixed beam	!	!	!	!	!	!	!	!	!	!	!	!LO:SIC:o=8f#\L	!	!	!
8D\L	.	.	16.d/LL	.	16.d/LL	.	8D\	A-	A-	8d\	A-	A-	8f#\	A-	A-	1ryy	8f#~L	.	8a~\L	.
.	.	.	32dd\JJk	.	32dd\JJk	.	.	.	.	.	.	.	.	.	.	.	.	.	.	.
!	!	!	!	!	!	!	!	!	!	!	!	!	!	!	!	!	!LO:SIC:o=8f#\	!	!	!
8D\	.	.	16.ff#\LL	.	16.ff#\LL	.	8D\	-gnus	-gnus	8d\	-gnus	-gnus	8f#\	-gnus	-gnus	.	8f#~	.	8a~\	.
.	.	.	32aa\JJk	.	32aa\JJk	.	.	.	.	.	.	.	.	.	.	.	.	.	.	.
!	!	!	!LO:SIC:o=(32bb\KLL	!	!LO:SIC:o=(32bb\KLL	!	!	!	!	!LO:SIC:o=8B\L	!	!	!LO:SIC:o=8g\L	!	!	!	!LO:SIC:o=8g\	!	!	!
8G\	.	.	32bbKLL	.	32bbKLL	.	(8G\L	De-	De-	(8BL	De-	De-	(8gL	De-	De-	.	8g~	.	8b~\	.
!	!	!	!LO:SIC:o=16.gg\JJ)	!	!LO:SIC:o=16.gg\JJ)	!	!	!	!	!	!	!	!	!	!	!	!	!	!	!
.	.	.	16.ggJJ	.	16.ggJJ	.	.	.	.	.	.	.	.	.	.	.	.	.	.	.
!	!	!	!	!	!LO:SIC:o=(32ee\KLL	!	!	!	!	!LO:SIC:o=8A\J	!	!	!LO:SIC:o=8e\J	!	!	!	!LO:SIC:o=8e\J	!	!	!
8A\J	.	.	32ee\KLL	.	32eeKLL	.	8A\J)	.	.	8AJ)	.	.	8eJ)	.	.	.	8e~J	.	8cc#~\J	.
!	!	!	!	!	!LO:SIC:o=16.cc#\JJ)	!	!	!	!	!	!	!	!	!	!	!	!	!	!	!
.	.	.	16.cc#\JJ	.	16.cc#JJ	.	.	.	.	.	.	.	.	.	.	.	.	.	.	.
!	!	!	!LO:TX:t=P:problem=mixed beam	!	!LO:TX:t=P:problem=mixed beam	!	!	!	!	!	!	!	!	!	!	!	!LO:SIC:o=8f#\L	!	!	!
8D\L	.	.	16.dd\LL	.	16.dd\LL	.	8D\	-i	-i	8A\	-i	-i	8f#\	-i	-i	.	8f#~L	.	8dd~\L	.
.	.	.	32d/JJk	.	32d/JJk	.	.	.	.	.	.	.	.	.	.	.	.	.	.	.
!	!	!	!	!	!	!	!	!	!	!	!	!	!	!	!	!	!LO:SIC:o=8f#\	!	!	!
8D\	.	.	16.f#/LL	.	16.f#/LL	.	8D\	qui	qui	8d\	qui	qui	8f#\	qui	qui	.	8f#~	.	8a~\	.
.	.	.	32a/JJk	.	32a/JJk	.	.	.	.	.	.	.	.	.	.	.	.	.	.	.
!	!	!	!	!	!LO:MO:mod=32bKLL	!	!	!	!	!LO:SIC:o=8B\L	!	!	!LO:SIC:o=8g\L	!	!	!	!LO:SIC:o=8e\	!	!	!
8G\	.	.	32b/KLL	.	16.b/LL	.	(8G\L	tol-	tol-	(8BL	tol-	tol-	(8gL	tol-	tol-	.	8e~	.	8g~\	.
!	!	!	!	!	!LO:MO:null:mod=16.gJJ	!	!	!	!	!	!	!	!	!	!	!	!	!	!	!
.	.	.	16.g/JJ	.	.	.	.	.	.	.	.	.	.	.	.	.	.	.	.	.
!	!	!	!	!	!LO:MO:mod=.	!	!	!	!	!	!	!	!	!	!	!	!	!	!	!
.	.	.	.	.	32g/JJk	.	.	.	.	.	.	.	.	.	.	.	.	.	.	.
!	!	!	!	!	!	!	!	!	!	!	!	!	!	!	!	!	!LO:MO:null:mod=(8qqB	!	!LO:SIC:o=8qqf#/	!
.	.	.	.	.	.	.	.	.	.	.	.	.	.	.	.	.	.	.	(8qqf#	.
!	!	!	!	!	!	!	!	!	!	!LO:SIC:o=8A\J	!	!	!LO:SIC:o=8e\J	!	!	!	!LO:SIC:o=8A\J	!	!LO:SIC:o=8e~\J	!
8A\J	.	.	32e/KLL	.	32e/KLL	.	8A\J)	.	.	8AJ)	.	.	8eJ)	.	.	.	8A~J)	.	8e~J)	.
.	.	.	16.c#/JJ	.	16.c#/JJ	.	.	.	.	.	.	.	.	.	.	.	.	.	.	.
=5	=5	=5	=5	=5	=5	=5	=5	=5	=5	=5	=5	=5	=5	=5	=5	=5	=5	=5	=5	=5
!	!	!	!LO:TX:t=P:problem=mixed beam	!	!LO:TX:t=P:problem=mixed beam	!	!	!	!	!	!	!	!	!	!	!	!	!	!	!
8D\L	.	.	16.d/LL	.	16.d/LL	.	8D\	-lis	-lis	8A\	-lis	-lis	8f#\	-lis	-lis	1ryy	8d\L	.	8f#\L	.
.	.	.	32a/JJk	.	32dd\JJk	.	.	.	.	.	.	.	.	.	.	.	.	.	.	.
!	!	!	!	!	!LO:MO:mod=16.ff#LL	!	!	!	!	!	!	!	!	!	!	!	!	!	!LO:SIC:o=8a\	!
8D\	.	.	16.dd\LL	.	32ff#\KLL	.	8D\	pec-	pec-	8f#\	pec-	pec-	8a\	pec-	pec-	.	(8f#\	.	(8a	.
!	!	!	!	!	!LO:MO:mod=.	!	!	!	!	!	!	!	!	!	!	!	!	!	!	!
.	.	.	.	.	16.aa\JJ	.	.	.	.	.	.	.	.	.	.	.	.	.	.	.
!	!	!	!	!	!LO:MO:null:mod=32aaJJk	!	!	!	!	!	!	!	!	!	!	!	!	!	!	!
.	.	.	32ff#\JJk	.	.	.	.	.	.	.	.	.	.	.	.	.	.	.	.	.
!	!	!	!LO:SIC:o=8qqff#/	!	!LO:MO:null:mod=(8qqaa	!	!	!	!	!	!	!	!	!	!	!	!LO:MO:null:mod=(8qqf#	!	!LO:SIC:o=8qqa/	!
.	.	.	(8qqff#	.	.	.	.	.	.	.	.	.	.	.	.	.	.	.	(8qqa	.
!	!	!	!LO:SIC:o=8ee\L	!	!LO:SIC:o=8gg\L	!	!	!	!	!	!	!	!	!	!	!	!LO:SIC:o=8e\	!	!LO:SIC:o=8g\	!
8A\	.	.	8eeL)	.	8ggL)	.	8A\	-ca-	-ca-	8e\	-ca-	-ca-	8g\	-ca-	-ca-	.	8e)	.	8g)	.
!	!	!	!	!	!	!	!	!	!	!	!	!	!	!	!	!	!	!	!LO:SIC:o=8f#\J	!
8D\J	.	.	8dd\J	.	8ff#\J	.	8D\	-ta	-ta	8d\	-ta	-ta	8f#\	-ta	-ta	.	8d\J)	.	8f#J)	.
!	!	!	!	!	!LO:TX:t=P:problem=znak łamania systemu	!	!	!	!	!	!	!	!	!	!	!	!	!	!	!
8d\L	.	.	16.r	.	16.r	.	8r	.	.	8r	.	.	8r	.	.	.	8r	.	8r	.
!	!	!	!	!	!LO:LB:g=original	!	!	!	!	!	!	!	!	!	!	!	!	!	!	!
.	.	.	32a\KLL	.	32dd\KLL	.	.	.	.	.	.	.	.	.	.	.	.	.	.	.
!	!	!	!	!	!	!	!	!	!	!	!	!	!	!	!	!	!	!	!	!LO:MO:null:mod=!LO&colon;DY&colon;ed=brack
!	!	!	!	!	!	!	!	!	!	!	!	!	!	!	!	!	!	!	!	!null
!	!	!	!	!	!	!	!	!	!	!	!	!	!	!	!	!	!	!LO:DY:b:t=pia	!LO:SIC:o=8a\L	!LO:MO:null:mod=p
8D\	.	.	16.dd\	.	16.ff#\	.	8D\	qui	qui	8f#\	qui	qui	8a\	qui	qui	.	(8f#\L	p	(8aL	.
.	.	.	32ff#\JJk	.	32aa\JJk	.	.	.	.	.	.	.	.	.	.	.	.	.	.	.
!	!	!	!LO:SIC:o=8qqff#/	!	!	!	!	!	!	!	!	!	!	!	!	!	!LO:MO:null:mod=(8qqf#	!	!LO:SIC:o=8qqa/	!
.	.	.	(8qqff#	.	(<8qqaa/	.	.	.	.	.	.	.	.	.	.	.	.	.	(8qqa	.
!	!	!	!LO:SIC:o=8ee\L	!	!	!	!	!	!	!	!	!	!	!	!	!	!LO:SIC:o=8e\	!	!LO:SIC:o=8g\	!
8A\	.	.	8eeL)	.	8gg\L)	.	8A\	tol-	tol-	8e\	tol-	tol-	8g\	tol-	tol-	.	8e)	.	8g)	.
!	!	!	!	!	!	!	!	!	!	!	!	!	!	!	!	!	!	!	!LO:SIC:o=8f#\J	!
8D\J	.	.	8dd\J	.	8ff#\J	.	8D\	-lis	-lis	8d\	-lis	-lis	8f#\	-lis	-lis	.	8d\J)	.	8f#J)	.
!	!	!	!LO:LB:g=original	!	!	!	!LO:LB:g=original	!	!	!LO:LB:g=original	!	!	!	!	!	!	!	!	!	!
=6	=6	=6	=6	=6	=6	=6	=6	=6	=6	=6	=6	=6	=6	=6	=6	=6	=6	=6	=6	=6
8F#\L	.	.	(32ddd\KLL	.	(32ddd\KLL	.	8r	.	.	8r	.	.	8r	.	.	1ryy	8r	.	8r	.
.	.	.	16.ccc#\JJ)	.	16.ccc#\JJ)	.	.	.	.	.	.	.	.	.	.	.	.	.	.	.
8F#\	.	.	(32bb\KLL	.	(32bb\KLL	.	8F#\	pec-	pec-	8f#\	pec-	pec-	8a\	pec-	pec-	.	8d\	.	8a\	.
.	.	.	16.aa\JJ)	.	16.aa\JJ)	.	.	.	.	.	.	.	.	.	.	.	.	.	.	.
8G\	.	.	(32bb\KLL	.	(32bb\KLL	.	8G\	-ca-	-ca-	8d\	-ca-	-ca-	8b\	-ca-	-ca-	.	8r	.	8r	.
.	.	.	16.gg\JJ)	.	16.gg\JJ)	.	.	.	.	.	.	.	.	.	.	.	.	.	.	.
8G\J	.	.	(32ee\KLL	.	(32ee\KLL	.	8G\	-ta	-ta	8e\	-ta	-ta	8b\	-ta	-ta	.	8d\	.	8b\	.
.	.	.	16.dd\JJ)	.	16.dd\JJ)	.	.	.	.	.	.	.	.	.	.	.	.	.	.	.
.	.	.	(8qqb/	.	(<8qqdd/	.	.	.	.	.	.	.	.	.	.	.	.	.	.	.
!LO:TX:t=P:problem=mixed beam	!	!	!LO:MO:mod=16.aLL)	!	!	!	!	!	!	!	!	!	!LO:LB:g=original	!	!	!	!	!	!	!
8A\L	.	.	16a/KL)	.	16.cc#\LL)	.	8A\	mun-	mun-	8e\	mun-	mun-	8a\	mun-	mun-	.	8r	.	8r	.
!	!	!	!LO:MO:mod=.	!	!	!	!	!	!	!	!	!	!	!	!	!	!	!	!	!
.	.	.	8b/	.	.	.	.	.	.	.	.	.	.	.	.	.	.	.	.	.
!	!	!	!LO:MO:null:mod=32bJK	!	!	!	!	!	!	!	!	!	!	!	!	!	!	!	!	!
.	.	.	.	.	32dd\JK	.	.	.	.	.	.	.	.	.	.	.	.	.	.	.
!	!	!	!LO:MO:null:mod=8cc#J	!	!	!	!	!	!	!	!	!	!	!	!	!	!	!	!	!
8AA/J	.	.	.	.	8ee\J	.	8AA/	-di	-di	8e\	-di	-di	8a\	-di	-di	.	16.A/LL	.	16.e\LL	.
!	!	!	!LO:MO:mod=.	!	!	!	!	!	!	!	!	!	!	!	!	!	!	!	!	!
.	.	.	16cc#/Jk	.	.	.	.	.	.	.	.	.	.	.	.	.	.	.	.	.
!	!	!	!	!	!	!	!	!	!	!	!	!	!	!	!	!	!	!	!LO:SIC:o=(32e\JJk	!
.	.	.	.	.	.	.	.	.	.	.	.	.	.	.	.	.	32A/JJk	.	32eJJk	.
!	!	!	!	!LO:MO:null:mod=p	!	!LO:DY:b:t=pia	!	!	!	!	!	!	!	!	!	!	!LO:MO:mod=4AM	!	!LO:SIC:o=4e\M)	!
4r	.	.	16.A/LL	.	8.c#m</L	p	4r	.	.	4r	.	.	4r	.	.	.	8A/	.	4eM	.
!	!	!	!	!LO:DY:a:t=pia	!	!	!	!	!	!	!	!	!	!	!	!	!	!	!	!
!	!	!	!	!LO:MO:mod=.	!	!	!	!	!	!	!	!	!	!	!	!	!	!	!	!
.	.	.	32B/JK	p	.	.	.	.	.	.	.	.	.	.	.	.	.	.	.	.
!	!	!	!	!	!	!	!	!	!	!	!	!	!	!	!	!	!LO:MO:mod=.	!	!	!
.	.	.	8c#/J	.	.	.	.	.	.	.	.	.	.	.	.	.	8r	.	.	.
.	.	.	.	.	(32d/LL	.	.	.	.	.	.	.	.	.	.	.	.	.	.	.
.	.	.	.	.	32e/JJJ)	.	.	.	.	.	.	.	.	.	.	.	.	.	.	.
!	!	!	!	!	!	!	!	!	!	!	!	!	!	!	!	!	!LO:LB:g=original	!	!LO:LB:g=original	!
=7	=7	=7	=7	=7	=7	=7	=7	=7	=7	=7	=7	=7	=7	=7	=7	=7	=7	=7	=7	=7
!	!	!	!	!LO:DY:b:t=for	!	!LO:MO:null:mod=f	!	!	!	!	!	!	!	!	!	!	!	!	!	!
8C#/L	.	.	(32A/KLL	f	(32A/KLL	.	8C#/	Mi-	Mi-	8e\	mi-	mi-	8a\	mi-	mi-	1ryy	8r	.	8r	.
!	!	!	!	!	!	!LO:DY:b:t=for	!	!	!	!	!	!	!	!	!	!	!	!	!	!
!	!	!	!	!	!	!LO:MO:mod=.	!	!	!	!	!	!	!	!	!	!	!	!	!	!
.	.	.	16.e/JJ)	.	16.a/JJ)	f	.	.	.	.	.	.	.	.	.	.	.	.	.	.
8C#/	.	.	(32a/KLL	.	(32cc#\KLL	.	8C#/	-se-	-se-	8e\	-se-	-se-	8a\	-se-	-se-	.	16A/LL	.	16e\LL	.
.	.	.	16.cc#/JJ)	.	16.ee\JJ)	.	.	.	.	.	.	.	.	.	.	.	.	.	.	.
!	!	!	!	!	!	!	!	!	!	!	!	!	!	!	!	!	!	!	!LO:SIC:o=16e\JJ	!
.	.	.	.	.	.	.	.	.	.	.	.	.	.	.	.	.	16A/J	.	16eJ	.
!	!	!	!LO:SIC:o=32ee\KLL	!	!	!	!	!	!	!	!	!	!	!	!	!	!	!	!LO:SIC:o=8e\L	!
8C#/	.	.	(32eeKLL	.	(32aa\KLL	.	8C#/	-re-	-re-	8e\	-re-	-re-	8a\	-re-	-re-	.	8A/	.	8e	.
!	!	!	!LO:SIC:o=16.a\JJ	!	!	!	!	!	!	!	!	!	!	!	!	!	!	!	!	!
.	.	.	16.aJJ)	.	16.ccc#\JJ)	.	.	.	.	.	.	.	.	.	.	.	.	.	.	.
!	!	!	!LO:SIC:o=32cc#\KLL	!	!	!	!	!	!	!	!	!	!	!	!	!	!	!	!	!
8C#/J	.	.	(32cc#KLL	.	(32ee\KLL	.	8C#/	-re	-re	8e\	-re	-re	8a\	-re	-re	.	8A/J	.	8e\J	.
!	!	!	!LO:SIC:o=16.ee\JJ	!	!	!	!	!	!	!	!	!	!	!	!	!	!	!	!	!
.	.	.	16.eeJJ)	.	16.ggn\JJ)	.	.	.	.	.	.	.	.	.	.	.	.	.	.	.
!	!	!	!LO:TX:t=P:problem=mixed beam	!	!LO:TX:t=P:problem=mixed beam	!	!	!	!	!	!	!	!	!	!	!	!	!	!	!
8D/L	.	.	16.dd\LL	.	16.ff#\LL	.	4D/	no-	no-	4d\	no-	no-	4a\	no-	no-	.	8.d\L	.	8.f#\L	.
.	.	.	32d/JJk	.	32d/JJk	.	.	.	.	.	.	.	.	.	.	.	.	.	.	.
!	!	!	!	!	!LO:MO:mod=16.f#LL	!	!	!	!	!	!	!	!	!	!	!	!	!	!	!
8D/	.	.	16.f#/LL	.	32f#/KLL	.	.	.	.	.	.	.	.	.	.	.	.	.	.	.
!	!	!	!	!	!LO:MO:mod=.	!	!	!	!	!	!	!	!	!	!	!	!	!	!	!
.	.	.	.	.	16.a/JJ	.	.	.	.	.	.	.	.	.	.	.	.	.	.	.
.	.	.	.	.	.	.	.	.	.	.	.	.	.	.	.	.	16d\Jk	.	16f#\Jk	.
!	!	!	!	!	!LO:MO:null:mod=32aJJk	!	!	!	!	!	!	!	!	!	!	!	!	!	!	!
.	.	.	32a/JJk	.	.	.	.	.	.	.	.	.	.	.	.	.	.	.	.	.
!	!	!	!	!	!LO:MO:mod=16.ddLL	!	!	!	!	!	!	!	!	!	!	!	!	!	!	!
8D/	.	.	16.dd\LL	.	32dd\KLL	.	4D/	-bis	-bis	4d\	-bis	-bis	4a\	-bis	-bis	.	4dM\	.	4f#m\	.
!	!	!	!	!	!LO:MO:mod=.	!	!	!	!	!	!	!	!	!	!	!	!	!	!	!
.	.	.	.	.	16.ff#\JJ	.	.	.	.	.	.	.	.	.	.	.	.	.	.	.
!	!	!	!	!	!LO:MO:null:mod=32ff#JJk	!	!	!	!	!	!	!	!	!	!	!	!	!	!	!
.	.	.	32ff#\JJk	.	.	.	.	.	.	.	.	.	.	.	.	.	.	.	.	.
!	!	!	!	!	!LO:MO:mod=16.aaLL	!	!	!	!	!	!	!	!	!	!	!	!	!	!	!
8D/J	.	.	16.aa\LL	.	32aa\KLL	.	.	.	.	.	.	.	.	.	.	.	.	.	.	.
!	!	!	!	!	!LO:MO:mod=.	!	!	!	!	!	!	!	!	!	!	!	!	!	!	!
.	.	.	.	.	16.ddd\JJ	.	.	.	.	.	.	.	.	.	.	.	.	.	.	.
!	!	!	!	!	!LO:MO:null:mod=32dddJJk	!	!	!	!	!	!	!	!	!	!	!	!	!	!	!
.	.	.	32ddd\JJk	.	.	.	.	.	.	.	.	.	.	.	.	.	.	.	.	.
!	!	!	!	!	!LO:PB:g=original	!	!	!	!	!	!	!	!	!	!	!	!	!	!	!
=8	=8	=8	=8	=8	=8	=8	=8	=8	=8	=8	=8	=8	=8	=8	=8	=8	=8	=8	=8	=8
*	*	*	*	*	*	*	*	*ij	*	*	*ij	*	*	*ij	*	*	*	*	*	*
8D\L	6	.	16.r	.	16.r	.	8D\	mi-	mi-	8f#\	mi-	mi-	8b\	mi-	mi-	1ryy	8r	.	8r	.
.	.	.	32f#\KLL	.	32b\KLL	.	.	.	.	.	.	.	.	.	.	.	.	.	.	.
8D\	.	.	16.b\	.	16.dd\	.	8D\	-se-	-se-	8f#\	-se-	-se-	8b\	-se-	-se-	.	16.d\LL	.	16.f#\LL	.
.	.	.	32dd\JJk	.	32ff#\JJk	.	.	.	.	.	.	.	.	.	.	.	32d\JJk	.	32f#\JJk	.
8D\	.	.	16.ff#\LL	.	16.bb\LL	.	8D\	-re-	-re-	8f#\	-re-	-re-	8b\	-re-	-re-	.	16d\LL	.	16.f#\LL	.
.	.	.	.	.	.	.	.	.	.	.	.	.	.	.	.	.	16d\J	.	.	.
.	.	.	32b\JJk	.	32dddn\JJk	.	.	.	.	.	.	.	.	.	.	.	.	.	32dd\JJk	.
8D\J	.	.	16.dd\LL	.	16.ff#\LL	.	8D\	-re	-re	8f#\	-re	-re	8b\	-re	-re	.	8f#\J	.	16.b\LL	.
*	*	*	*	*	*	*	*	*Xij	*	*	*	*	*	*	*	*	*	*	*	*
.	.	.	32ff#\JJk	.	32aa\JJk	.	.	.	.	.	.	.	.	.	.	.	.	.	32f#\JJk	.
!	!	!	!	!	!LO:TX:t=P:problem=mixed beam	!	!	!	!	!	!	!	!	!	!	!	!	!	!	!
8E\L	#	.	16.ee\LL	.	16.gg#X\LL	.	4E\	no-	no-	4B\	no-	no-	4g#X\	no-	no-	.	8.e\L	.	8.g#X\L	.
!	!	!	!LO:TX:t=P:problem=znak łamania systemu	!	!	!	!	!	!	!	!	!	!	!	!	!	!	!	!	!
.	.	.	32e/JJk	.	32e/JJk	.	.	.	.	.	.	.	.	.	.	.	.	.	.	.
!	!	!	!LO:LB:g=original	!	!	!	!	!	!	!	!	!	!	!	!	!	!	!	!	!
8E\	.	.	16.g#X/LL	.	16.g#X/LL	.	.	.	.	.	.	.	.	.	.	.	.	.	.	.
.	.	.	.	.	.	.	.	.	.	.	.	.	.	.	.	.	16e\Jk	.	16g#\Jk	.
.	.	.	32b/JJk	.	32b/JJk	.	.	.	.	.	.	.	.	.	.	.	.	.	.	.
!	!	!	!	!	!	!	!	!	!	!	!	!	!	!	!	!	!LO:SIC:o=4e\	!	!	!
8E\	.	.	16.ee\LL	.	16.ee\LL	.	4E\	-bis	-bis	4B\	-bis	-bis	4g#\	-bis	-bis	.	4eM	.	4g#m\	.
*	*	*	*	*	*	*	*	*	*	*	*Xij	*	*	*	*	*	*	*	*	*
.	.	.	32gg#X\JJk	.	32gg#X\JJk	.	.	.	.	.	.	.	.	.	.	.	.	.	.	.
8E\J	.	.	16.bb\LL	.	16.bb\LL	.	.	.	.	.	.	.	.	.	.	.	.	.	.	.
.	.	.	32eee\JJk	.	32eee\JJk	.	.	.	.	.	.	.	.	.	.	.	.	.	.	.
!LO:LB:g=original	!	!	!	!	!	!	!LO:LB:g=original	!	!	!LO:LB:g=original	!	!	!	!	!	!	!	!	!	!
=9	=9	=9	=9	=9	=9	=9	=9	=9	=9	=9	=9	=9	=9	=9	=9	=9	=9	=9	=9	=9
!LO:TX:t=P:problem=mixed beam	!	!	!	!	!LO:TX:t=P:problem=mixed beam	!	!	!	!	!	!	!	!	!	!	!	!	!	!	!
8AA/L	.	.	16.c#/LL	.	16.A/L	.	4A\	mi-	mi-	4c#\	mi-	mi-	4a\	mi-	mi-	1ryy	8r	.	8r	.
.	.	.	32a/JJk	.	32ee\J	.	.	.	.	.	.	.	.	.	.	.	.	.	.	.
8A\	.	.	16.cc#\LL	.	16.aa\LL	.	.	.	.	.	.	.	.	.	.	.	16e\LL	.	16e\LL	.
!	!	!	!	!	!	!	!	!	!	!	!	!	!	!	!	!	!LO:SIC:o=16e\JJ	!	!	!
.	5	.	.	.	.	.	.	.	.	.	.	.	.	.	.	.	16eJ	.	16e\J	.
.	.	.	32ee\JJk	.	32ccc#\JJk	.	.	.	.	.	.	.	.	.	.	.	.	.	.	.
!	!	!	!	!	!	!	!LO:SIC:o=8G#X\L	!	!	!LO:SIC:o=8B\L	!	!	!	!	!	!	!LO:SIC:o=8e\L	!	!	!
8G#X\	.	.	16.b\LL	.	16.dd\LL	.	(8G#L	-se-	-se-	(8BL	-se-	-se-	4e\	-se-	-se-	.	8e	.	8e\	.
.	.	.	32dd\JJk	.	32bb\JJk	.	.	.	.	.	.	.	.	.	.	.	.	.	.	.
!	!	!	!	!	!	!	!LO:SIC:o=8A\J	!	!	!LO:SIC:o=8A\J	!	!	!	!	!	!	!	!	!	!
8A\J	.	.	16.a\LL	.	16.cc#\LL	.	8AJ)	.	.	8AJ)	.	.	.	.	.	.	8e\J	.	8e\J	.
.	.	.	32cc#\JJk	.	32aa\JJk	.	.	.	.	.	.	.	.	.	.	.	.	.	.	.
!	!	!	!	!	!	!	!LO:SIC:o=8E\L	!	!	!	!	!	!	!	!	!	!	!	!	!
8E\L	#_	.	16g#X\LL	.	16.b\LL	.	(8EL	-re-	-re-	(8.G#X/L	-re-	-re-	4.e\	-re-	-re-	.	4e\	.	4e\	.
.	X	.	16b\J	.	.	.	.	.	.	.	.	.	.	.	.	.	.	.	.	.
.	.	.	.	.	32gg#X\JJk	.	.	.	.	.	.	.	.	.	.	.	.	.	.	.
.	.	.	.	.	(<8qqaa/	.	.	.	.	.	.	.	.	.	.	.	.	.	.	.
!	!	!	!	!	!	!	!LO:SIC:o=8D\J	!	!	!	!	!	!	!	!	!	!	!	!	!
8D\	6	.	8b\J	.	8.gg#m\L)	.	8DJ)	.	.	.	.	.	.	.	.	.	.	.	.	.
.	.	.	.	.	.	.	.	.	.	32A/LL	.	.	.	.	.	.	.	.	.	.
!	!	!	!	!	!	!	!	!	!	!LO:SIC:o=32B/JJJ)	!	!	!	!	!	!	!	!	!	!
.	.	.	.	.	.	.	.	.	.	32BJJJ	.	.	.	.	.	.	.	.	.	.
!	!	!	!	!	!	!	!LO:SIC:o=8C#/L	!	!	!LO:SIC:o=8A\	!	!	!	!	!	!	!	!	!	!
8C#\	.	.	8cc#\L	.	.	.	(8C#L	-re	-re	8A)	.	.	.	.	.	.	8r	.	8r	.
.	.	.	.	.	(32ff#\LL	.	.	.	.	.	.	.	.	.	.	.	.	.	.	.
.	.	.	.	.	32gg#\JJJ)	.	.	.	.	.	.	.	.	.	.	.	.	.	.	.
!	!	!	!	!	!LO:SIC:o=16aa\LL|	!	!LO:SIC:o=8D/J	!	!	!	!	!	!	!	!	!	!	!	!	!
8D\J	.	.	8b\J	.	16aaLL	.	8DJ)	.	.	8B\	-re	-re	8f#\	-re	-re	.	8f#\	.	8a\	.
*	*	*	*	*	*	*	*	*	*	*	*	*	*	*Xij	*	*	*	*	*	*
.	.	.	.	.	16ddn\JJ	.	.	.	.	.	.	.	.	.	.	.	.	.	.	.
=10	=10	=10	=10	=10	=10	=10	=10	=10	=10	=10	=10	=10	=10	=10	=10	=10	=10	=10	=10	=10
*	*	*	*	*	*	*	*	*	*	*	*	*	*2\right	*	*	*	*	*	*	*
!	!	!	!LO:SIC:o=4a/	!	!	!	!	!	!	!LO:SIC:o=4A/	!	!	!	!	!	!	!	!	!	!
4E\	6 4	.	4aM	.	4cc#m\	.	(<4E\	no-	no-	(4A	no-	no-	2e\	no-	no-	1ryy	4e\	.	4a\	.
!	!	!	!LO:SIC:o=4g#Xm/	!	!	!	!	!	!	!LO:SIC:o=4G#X/	!	!	!	!	!	!	!	!	!	!
4EE/	5 #	.	4g#	.	4b\	.	4EE/)	.	.	4G#)	.	.	.	.	.	.	4eM\	.	4g#Xm\	.
!LO:TX:t=P:problem=mixed beam	!	!	!	!	!	!	!	!	!	!	!	!	!	!	!	!	!	!	!	!
8AA/L	.	.	16.a\LL	.	16.a\LL	.	4AA/	-bis	-bis	4A/	-bis	-bis	4e\	-bis	-bis	.	4e\	.	4a\	.
.	.	.	32a\JJk	.	32a\JJk	.	.	.	.	.	.	.	.	.	.	.	.	.	.	.
8A\	.	.	16.cc#\LL	.	16.cc#\LL	.	.	.	.	.	.	.	.	.	.	.	.	.	.	.
!	!	!	!	!	!LO:TX:t=P:problem=znak łamania systemu	!	!	!	!	!	!	!	!	!	!	!	!	!	!	!
.	.	.	32ee\JJk	.	32ee\JJk	.	.	.	.	.	.	.	.	.	.	.	.	.	.	.
!	!	!	!	!	!LO:LB:g=original	!	!	!	!	!	!	!	!	!	!	!	!	!	!	!
8D\	6	.	16.ff#\LL	.	16.ff#\LL	.	4r	.	.	4r	.	.	4r	.	.	.	4r	.	4r	.
.	.	.	32dd\JJk	.	32dd\JJk	.	.	.	.	.	.	.	.	.	.	.	.	.	.	.
8E\J	#	.	16.b\LL	.	16.b/LL	.	.	.	.	.	.	.	.	.	.	.	.	.	.	.
.	.	.	32g#X\JJk	.	32g#X/JJk	.	.	.	.	.	.	.	.	.	.	.	.	.	.	.
!	!	!	!	!	!	!	!	!	!	!	!	!	!LO:LB:g=originalUJ	!	!	!	!	!	!	!
=11	=11	=11	=11	=11	=11	=11	=11	=11	=11	=11	=11	=11	=11	=11	=11	=11	=11	=11	=11	=11
!LO:TX:t=P:problem=mixed beam	!	!	!	!	!	!	!	!	!	!	!	!	!	!	!	!	!	!	!	!
8AA/L	.	.	16.a/LL	.	16.a/LL	.	8AA/	A-	A-	8c#\	a-	A-	8a\	a-	A-	1ryy	8A/L	.	8e\L	.
.	.	.	32A/JJk	.	32A/JJk	.	.	.	.	.	.	.	.	.	.	.	.	.	.	.
8A\	.	.	16.c#/LL	.	16.c#/LL	.	8A\	-gnus	-gnus	8c#\	-gn(us)	-gnus	8a\	-gn(us)	-gnus	.	8A/	.	8e\	.
.	.	.	32e/JJk	.	32e/JJk	.	.	.	.	.	.	.	.	.	.	.	.	.	.	.
!	!	!	!	!	!	!	!LO:SIC:o=8D\L	!	!	!LO:SIC:o=8B\L	!	!	!LO:SIC:o=8f#\L	!	!	!	!	!	!	!
8D\	.	.	16.f#/LL	.	16.f#/LL	.	(8DL	De-	De-	(8BL	De-	De-	(8f#L	De-	De-	.	8d/	.	8f#\	.
.	.	.	32d/JJk	.	32d/JJk	.	.	.	.	.	.	.	.	.	.	.	.	.	.	.
!	!	!	!	!	!	!	!LO:SIC:o=8E\J	!	!	!LO:SIC:o=8G#X\J	!	!	!LO:SIC:o=8d\J	!	!	!	!	!	!LO:TX:t=P:problem=znak łamania systemu	!
8E\J	#	.	16.B/LL	.	16.B/LL	.	8EJ)	.	.	8G#J)	.	.	8dJ)	.	.	.	8d/J	.	8g#X\J	.
!	!	!	!LO:TX:t=P:problem=znak łamania systemu	!	!LO:SIC:v:o=32G/JJk	!	!	!	!	!	!	!	!	!	!	!	!	!	!	!
.	.	.	32G#X/JJk	.	32G#/JJk	.	.	.	.	.	.	.	.	.	.	.	.	.	.	.
!LO:TX:t=P:problem=mixed beam	!	!	!LO:LB:g=original	!	!	!	!	!	!	!	!	!	!	!	!	!	!	!	!LO:LB:g=original	!
8AA/L	.	.	16.A/LL	.	16.A/LL	.	8AA/	-i	-i	8A\	-i	-i	8e\	-i	-i	.	4A/	.	4a\	.
.	.	.	32e/JJk	.	32a/JJk	.	.	.	.	.	.	.	.	.	.	.	.	.	.	.
8A\	.	.	16.a/LL	.	16.cc#\LL	.	8A\	qui	qui	8c#\	qui	qui	8a\	qui	qui	.	.	.	.	.
.	.	.	32cc#/JJk	.	32ee\JJk	.	.	.	.	.	.	.	.	.	.	.	.	.	.	.
!	!	!	!LO:MO:null:mod=(8qqcc#	!	!LO:SIC:o=8qqee/	!	!	!	!	!	!	!	!	!	!	!	!	!	!	!
.	.	.	.	.	(8qqee	.	.	.	.	.	.	.	.	.	.	.	.	.	.	.
!	!	!	!LO:SIC:o=8b/L	!	!LO:SIC:o=8dd\L	!	!	!	!	!	!	!	!	!	!	!	!	!	!	!
8E\	7 #	.	8bL)	.	8ddL)	.	8E\	tol-	tol-	8B\	tol-	tol-	8g#X\	tol-	tol-	.	4r	.	4r	.
8AA/J	.	.	8a/J	.	8cc#\J	.	8AA/	-lis	-lis	8A\	-lis	-lis	8e\	-lis	-lis	.	.	.	.	.
!	!	!	!	!	!	!	!	!	!	!LO:LB:g=original	!	!	!	!	!	!	!LO:LB:g=original	!	!	!
=12	=12	=12	=12	=12	=12	=12	=12	=12	=12	=12	=12	=12	=12	=12	=12	=12	=12	=12	=12	=12
!LO:TX:t=P:problem=mixed beam	!	!	!	!	!	!	!	!	!	!	!	!	!	!	!	!	!	!	!	!
8A\L	.	.	16.r	.	16.r	.	8r	.	.	8r	.	.	8r	.	.	1ryy	8A/L	.	8e\L	.
.	.	.	32e/KLL	.	32a\KLL	.	.	.	.	.	.	.	.	.	.	.	.	.	.	.
*	*	*	*	*	*	*	*	*	*	*	*ij	*	*	*ij	*	*	*	*	*	*
8AA/	.	.	16.a/	.	16.cc#\	.	8AA/	pec-	qui	8c#\	qui	qui	8a\	qui	qui	.	8A/J	.	8e\J	.
.	.	.	32cc#/JJk	.	32ee\JJk	.	.	.	.	.	.	.	.	.	.	.	.	.	.	.
!	!	!	!LO:SIC:o=8ee\L	!	!	!	!	!	!	!	!	!	!	!	!	!	!	!	!	!
8C#/	6 5n	.	(8eeL	.	(8ggn\L	.	8C#/	-ca-	tol-	8e\	tol-	tol-	8a\	tol-	tol-	.	8A\L	.	8e\L	.
!	!	!	!LO:SIC:o=8ddM\J	!	!	!	!LO:TX:t=P:problem=znak łamania systemu	!	!	!	!	!	!	!	!	!	!	!	!	!
8D/J	.	.	8ddJ)	.	8ff#\J)	.	8D/	-ta	-lis	8d\	-lis	-lis	8a\	-lis	-lis	.	16.d\L	.	16.f#\L	.
*	*	*	*	*	*	*	*	*ij	*	*	*Xij	*	*	*Xij	*	*	*	*	*	*
.	.	.	.	.	.	.	.	.	.	.	.	.	.	.	.	.	32e\JJk	.	32gn\JJk	.
!	!	!	!	!	!	!	!LO:LB:g=original	!	!	!	!	!	!	!	!	!	!	!	!	!
8F#\L	6	.	(16.ddd\LL	.	(16.ddd\LL	.	8r	.	.	8r	.	.	8r	.	.	.	8d\	.	8a\	.
.	.	.	32ccc#\JJk)	.	32ccc#\JJk)	.	.	.	.	.	.	.	.	.	.	.	.	.	.	.
!	!	!	!	!	!	!	!LO:SIC:v:o=8E\	!	!	!	!	!	!	!	!	!	!	!	!	!
8F#\	.	.	(16.bb\LL	.	(16.bb\LL	.	8F#\	pec-	pec-	8d\	pec-	pec-	8a\	pec-	pec-	.	8r	.	8r	.
.	.	.	32aa\JJk)	.	32aa\JJk)	.	.	.	.	.	.	.	.	.	.	.	.	.	.	.
!	!	!	!	!	!	!	!	!	!	!	!	!	!LO:SIC:v:o=8a\	!	!	!	!	!	!	!
8G\	.	.	(32bb\KLL	.	(32bb\KLL	.	8G\	-ca-	-ca-	8B\	-ca-	-ca-	8b\	-ca-	-ca-	.	8d\	.	8b\	.
.	.	.	16.gg\JJ)	.	16.gg\JJ)	.	.	.	.	.	.	.	.	.	.	.	.	.	.	.
8G\J	.	.	(32ee\KLL	.	(32ee\KLL	.	8G\	-ta	-ta	8e\	-ta	-ta	8b\	-ta	-ta	.	8r	.	8r	.
*	*	*	*	*	*	*	*	*Xij	*	*	*	*	*	*	*	*	*	*	*	*
.	.	.	16.dd\JJ)	.	16.dd\JJ)	.	.	.	.	.	.	.	.	.	.	.	.	.	.	.
=13	=13	=13	=13	=13	=13	=13	=13	=13	=13	=13	=13	=13	=13	=13	=13	=13	=13	=13	=13	=13
!LO:TX:t=P:problem=mixed beam	!	!	!LO:TUP:problem=klamra łukowa	!	!LO:TUP:problem=klamra łukowa	!	!	!	!	!	!	!	!	!	!	!	!	!	!	!
8.A\L	.	.	24cc#\LL	.	24cc#\LL	.	8A\	mun-	mun-	8e\	mun-	mun-	8a\	mun-	mun-	1ryy	8A/L	.	8e\L	.
.	.	.	24dd\	.	24dd\	.	.	.	.	.	.	.	.	.	.	.	.	.	.	.
.	.	.	24ee\JJ	.	24ee\JJ	.	.	.	.	.	.	.	.	.	.	.	.	.	.	.
.	.	.	8a/	.	8a/	.	8A\	-di	-di	8e\	-di	-di	8a\	-di	-di	.	8A/J	.	8e\J	.
16AA/Jk	.	.	.	.	.	.	.	.	.	.	.	.	.	.	.	.	.	.	.	.
!	!	!	!	!	!LO:TX:t=P:problem=znak łamania systemu	!	!	!	!	!	!	!	!	!	!	!	!	!	!	!
16A\LL	.	.	4r	.	4r	.	4r	.	.	4r	.	.	4r	.	.	.	4r	.	4r	.
16G\	.	.	.	.	.	.	.	.	.	.	.	.	.	.	.	.	.	.	.	.
16F#\	.	.	.	.	.	.	.	.	.	.	.	.	.	.	.	.	.	.	.	.
!LO:TX:t=P:problem=znak łamania systemu	!	!	!	!	!	!	!	!	!	!	!	!	!	!	!	!	!	!	!	!
16E\JJ	.	.	.	.	.	.	.	.	.	.	.	.	.	.	.	.	.	.	.	.
!LO:LB:g=original	!	!	!	!	!LO:LB:g=original	!	!	!	!	!	!	!	!	!	!	!	!	!	!	!
!	!	!	!LO:TX:t=P:problem=mixed beam	!	!LO:TX:t=P:problem=mixed beam	!	!	!	!	!	!	!	!	!	!	!	!	!	!	!
8D\L	.	.	16.d/LL	.	16.d/LL	.	8D\	a-	A-	8d\	a-	A-	8f#\	a-	A-	.	8f#\L	.	8a\L	.
.	.	.	32dd\JJk	.	32dd\JJk	.	.	.	.	.	.	.	.	.	.	.	.	.	.	.
8D\	.	.	16.ff#\LL	.	16.ff#\LL	.	8D\	-gnus	-gnus	8d\	-gnus	-gnus	8f#\	-gn(us)	-gnus	.	8f#\	.	8a\	.
.	.	.	32aa\JJk	.	32aa\JJk	.	.	.	.	.	.	.	.	.	.	.	.	.	.	.
!	!	!	!LO:MO:mod=16.bbLL	!	!	!	!LO:SIC:o=8G\L	!	!	!	!	!	!LO:SIC:o=8gn\L	!	!	!	!	!	!	!
8G\	.	.	(32bb\KLL	.	16.bb\LL	.	(8GL	De-	De-	(8B\L	De-	De-	(8gL	De-	De-	.	8g\	.	8b\	.
!	!	!	!LO:MO:mod=.	!	!	!	!	!	!	!	!	!	!	!	!	!	!	!	!	!
.	.	.	16.gg\JJ)	.	.	.	.	.	.	.	.	.	.	.	.	.	.	.	.	.
!	!	!	!LO:MO:null:mod=32ggJJk	!	!	!	!	!	!	!	!	!	!	!	!	!	!	!	!	!
.	.	.	.	.	32gg\JJk	.	.	.	.	.	.	.	.	.	.	.	.	.	.	.
!	!	!	!LO:MO:mod=16.eeLL	!	!	!	!LO:SIC:o=8A\J	!	!	!	!	!	!LO:SIC:o=8e\J	!	!	!	!	!	!	!
8A\J	.	.	(32ee\KLL	.	16.ee\LL	.	8AJ)	.	.	8A\J)	.	.	8eJ)	.	.	.	8e\J	.	8cc#\J	.
!	!	!	!LO:MO:mod=.	!	!	!	!	!	!	!	!	!	!	!	!	!	!	!	!	!
.	.	.	16.cc#\JJ)	.	.	.	.	.	.	.	.	.	.	.	.	.	.	.	.	.
!	!	!	!LO:MO:null:mod=32cc#JJk	!	!	!	!	!	!	!	!	!	!	!	!	!	!	!	!	!
.	.	.	.	.	32cc#\JJk	.	.	.	.	.	.	.	.	.	.	.	.	.	.	.
!	!	!	!	!	!	!	!	!	!	!	!	!	!LO:LB:g=original	!	!	!	!	!	!	!
=14	=14	=14	=14	=14	=14	=14	=14	=14	=14	=14	=14	=14	=14	=14	=14	=14	=14	=14	=14	=14
!	!	!	!LO:TX:t=P:problem=mixed beam	!	!LO:TX:t=P:problem=mixed beam	!	!	!	!	!	!	!	!	!	!	!	!	!	!LO:TX:t=P:problem=takty 14-15 niejasne harmonicznie	!
8D\L	.	.	16.dd\LL	.	16.dd\LL	.	8D\	-i	-i	8A\	-i	-i	8f#\	-i	-i	1ryy	8f#\L	.	8dd\L	.
.	.	.	32d/JJk	.	32d/JJk	.	.	.	.	.	.	.	.	.	.	.	.	.	.	.
8d\	.	.	16.f#/LL	.	16.f#/LL	.	8d\	qui	qui	8d\	qui	qui	8f#\	qui	qui	.	8f#\	.	8a\	.
!	!	!	!LO:TX:t=P:problem=znak łamania systemu	!	!	!	!	!	!	!	!	!	!	!	!	!	!	!	!	!
.	.	.	32a/JJk	.	32a/JJk	.	.	.	.	.	.	.	.	.	.	.	.	.	.	.
!	!	!	!LO:LB:g=original	!	!	!	!LO:SIC:o=8G\L	!	!	!	!	!	!	!	!	!	!	!	!	!
8G\	.	.	16.b/LL	.	16.b/LL	.	(8GL	tol-	tol-	(8B\L	tol-	tol-	(8g\L	tol-	tol-	.	8g\	.	8b\	.
.	.	.	32g/JJk	.	32g/JJk	.	.	.	.	.	.	.	.	.	.	.	.	.	.	.
!	!	!	!	!	!	!	!LO:SIC:o=8A\J	!	!	!	!	!	!	!	!	!	!	!	!	!
8A\J	.	.	16.e/LL	.	16.e/LL	.	8AJ)	.	.	8A\J)	.	.	8e\J)	.	.	.	8e\J	.	8cc#\J	.
.	.	.	32c#/JJk	.	32c#/JJk	.	.	.	.	.	.	.	.	.	.	.	.	.	.	.
!	!	!	!	!	!LO:TX:t=P:problem=mixed beam	!	!	!	!	!	!	!	!	!	!	!	!	!	!	!
8D\L	6	.	8d/L	.	16.d/LL	.	8D\	-lis	-lis	8A\	-lis	-lis	8f#\	-lis	-lis	.	4f#\	.	4dd\	.
.	.	.	.	.	32dd\JJk	.	.	.	.	.	.	.	.	.	.	.	.	.	.	.
8F#\	5n	.	8a/	.	16.ff#\LL	.	8F#\	pec-	pec-	8d\	pec-	pec-	8a\	pec-	pec-	.	.	.	.	.
.	.	.	.	.	32aa\JJk	.	.	.	.	.	.	.	.	.	.	.	.	.	.	.
!	!	!	!	!	!	!	!	!	!	!LO:SIC:o=[4d\	!	!	!	!	!	!	!	!	!	!
8F#\	.	.	8a/	.	(24cc#\LL	.	4EM\	-ca-	-ca-	4dM	-ca-	-ca-	4aM\	-ca-	-ca-	.	8r	.	8r	.
.	.	.	.	.	24ee\)	.	.	.	.	.	.	.	.	.	.	.	.	.	.	.
.	.	.	.	.	24aa\JJ|	.	.	.	.	.	.	.	.	.	.	.	.	.	.	.
8F#\J	.	.	8a/J	.	(24a\LL	.	.	.	.	.	.	.	.	.	.	.	16d\LL	.	16d\LL	.
.	.	.	.	.	24ccn\)	.	.	.	.	.	.	.	.	.	.	.	.	.	.	.
.	.	.	.	.	.	.	.	.	.	.	.	.	.	.	.	.	16d\JJ	.	16d\JJ	.
.	.	.	.	.	24aa\JJ|	.	.	.	.	.	.	.	.	.	.	.	.	.	.	.
!	!	!	!	!	!	!	!	!	!	!LO:LB:g=original	!	!	!	!	!	!	!	!	!	!
=15	=15	=15	=15	=15	=15	=15	=15	=15	=15	=15	=15	=15	=15	=15	=15	=15	=15	=15	=15	=15
!LO:TX:t=P:problem=mixed beam	!	!	!	!LO:SIC:o==16	!	!	!	!	!	!LO:TX:t=P:problem=brak zakończenia ligatury	!	!	!	!	!	!	!	!	!	!
!	!	!	!	!	!	!	!	!	!	!LO:SIC:o=8d\]	!	!	!LO:SIC:o=(8g\	!	!	!	!	!	!	!
8G\L	.	.	8b\L	.	(16.b\LL	.	8G\	-ta	.	8d	.	.	8g	-ta	.	1ryy	8d\	.	8d\	.
!	!	!	!	!	!LO:SIC:o=32ee\JJk)	!	!	!	!	!	!	!	!	!	!	!	!	!	!	!
.	.	.	.	.	32eeJJk	.	.	.	.	.	.	.	.	.	.	.	.	.	.	.
!	!	!	!	!	!LO:SIC:o=(32gg#X\KLL	!	!	!	!	!	!	!	!LO:SIC:o=8g#X\)	!	!	!	!	!	!	!
8E\	#_	.	8b\	.	16.gg#KLL	.	8E\	pec-	-ta	8B\	-ta	-ta	8g#	.	-ta	.	8r	.	8r	.
!	!	!	!	!	!LO:SIC:o=16.bb\JJ)	!	!	!	!	!	!	!	!	!	!	!	!	!	!	!
.	.	.	.	.	32bbJJ	.	.	.	.	.	.	.	.	.	.	.	.	.	.	.
!	!	!	!	!	!	!	!LO:SIC:o=4G#Xm\	!	!	!	!	!	!	!	!	!	!	!	!	!
8G#X\	.	.	8b\	.	(24dd#X\LL	.	4G#	-ca-	mun-	4e\	mun-	mun-	4b\	mun-	mun-	.	8r	.	8r	.
.	.	.	.	.	24ee\)	.	.	.	.	.	.	.	.	.	.	.	.	.	.	.
.	.	.	.	.	24bb\JJ|	.	.	.	.	.	.	.	.	.	.	.	.	.	.	.
8AA/J	X	.	8g#X\J	.	(24b\LL	.	.	.	.	.	.	.	.	.	.	.	16e\LL	.	16e\LL	.
.	.	.	.	.	24ddn\)	.	.	.	.	.	.	.	.	.	.	.	.	.	.	.
.	.	.	.	.	.	.	.	.	.	.	.	.	.	.	.	.	16e\JJ	.	16e\JJ	.
.	.	.	.	.	24bb\JJ|	.	.	.	.	.	.	.	.	.	.	.	.	.	.	.
!	!	!	!	!	!LO:TX:t=P:problem=nie wiadomo czy przednutka, czy krzyżyk	!	!	!	!	!	!	!	!	!	!	!	!	!	!	!
!	!	!	!	!	!LO:SIC:o=8qqdd/	!	!	!	!	!	!	!	!	!	!	!	!	!	!	!
.	.	.	.	.	(8qqdd	.	.	.	.	.	.	.	.	.	.	.	.	.	.	.
!	!	!	!	!	!LO:SIC:o=4cc#\	!	!	!	!	!	!	!	!	!	!	!	!	!	!	!
8A\L	.	.	16.e/LL	.	4cc#)	.	4A\	-ta	-di	4e\	-di	-di	4a\	-di	-di	.	8e\	.	8e\	.
.	.	.	32a/JJk	.	.	.	.	.	.	.	.	.	.	.	.	.	.	.	.	.
8A\	.	.	16.cc#\LL	.	.	.	.	.	.	.	.	.	.	.	.	.	8r	.	8r	.
.	.	.	32ee\JJk	.	.	.	.	.	.	.	.	.	.	.	.	.	.	.	.	.
!	!	!	!	!	!	!	!LO:MO:mod=4d	!	!	!	!	!	!	!	!	!	!	!	!	!
8d\	.	.	8ffn\L	.	16.r	.	8d\	.	qui	4d\	qui	qui	4a\	qui	qui	.	4r	.	4r	.
!	!	!	!	!	!LO:LB:g=original	!LO:DY:b:t=pianiſsimo	!	!	!	!	!	!	!	!	!	!	!	!	!	!
.	.	.	.	.	32dd\KLL	pp	.	.	.	.	.	.	.	.	.	.	.	.	.	.
!	!	!	!	!LO:MO:null:mod=!LO&colon;DY&colon;ed=brack	!	!	!	!	!	!	!	!	!	!	!	!	!	!	!	!
!	!	!	!	!null	!	!	!	!	!	!	!	!	!	!	!	!	!	!	!	!
!	!	!	!	!LO:MO:null:mod=pp	!	!	!LO:MO:mod=.	!	!	!	!	!	!	!	!	!	!	!	!	!
8d\J	.	.	8ff\J	.	16.ffn\	.	8d\	qui	.	.	.	.	.	.	.	.	.	.	.	.
.	.	.	.	.	32aa\JJk	.	.	.	.	.	.	.	.	.	.	.	.	.	.	.
!	!	!	!	!	!	!	!LO:LB:g=original	!	!	!	!	!	!	!	!	!	!LO:LB:g=original	!	!	!
=16	=16	=16	=16	16.bLL	=16	=16	=16	=16	=16	=16	=16	=16	=16	=16	=16	=16	=16	=16	=16	=16
!	!	!	!	!	!	!	!	!	!	!	!	!	!	!	!	!	!LO:TX:a:t=2:mod=	!	!LO:TX:a:t=2:mod=	!
8G\L	7n 6	.	16.ff#\LL	.	8bb\L	.	4G\	tol-	tol-	4d\	tol-	tol-	4b\	tol-	tol-	1ryy	0r	.	0r	.
.	.	.	32b\JJk	.	.	.	.	.	.	.	.	.	.	.	.	.	.	.	.	.
8G\	.	.	16.dd\LL	.	8bb\J	.	.	.	.	.	.	.	.	.	.	.	.	.	.	.
.	.	.	32ff#\JJk	.	.	.	.	.	.	.	.	.	.	.	.	.	.	.	.	.
!	!	!	!	!	!LO:SIC:o=16bb\LL	!	!	!	!	!	!	!	!	!	!	!	!	!	!	!
8cn\	-7	.	8ee\L	.	16.bbLL	.	8cn\	-lis	-lis	8cn\	-lis	-lis	8b\	-lis	-lis	.	.	.	.	.
!	!	!	!	!	!LO:SIC:o=16ee\	!	!	!	!	!	!	!	!	!	!	!	!	!	!	!
.	.	.	.	.	32eeJJk	.	.	.	.	.	.	.	.	.	.	.	.	.	.	.
!	!	!	!	!	!LO:SIC:o=32gg\K	!	!	!	!	!	!	!	!	!	!	!	!	!	!	!
8c\J	.	.	8ee\J	.	16.ggLL	.	8c\	pec-	pec-	8c\	pec-	pec-	8b\	pec-	pec-	.	.	.	.	.
!	!	!	!	!	!LO:SIC:o=16.bb\JJ	!	!	!	!	!	!	!	!	!	!	!	!	!	!	!
.	.	.	.	.	32bbJJk	.	.	.	.	.	.	.	.	.	.	.	.	.	.	.
8Fn\L	7	.	16.ee\LL	.	8aa\L	.	4Fn\	-ca-	-ca-	4c\	-ca-	-ca-	4a\	-ca-	-ca-	.	.	.	.	.
.	.	.	32a\JJk	.	.	.	.	.	.	.	.	.	.	.	.	.	.	.	.	.
8F\	.	.	16.ccn\LL	.	8aa\J	.	.	.	.	.	.	.	.	.	.	.	.	.	.	.
.	.	.	32ee\JJk	.	.	.	.	.	.	.	.	.	.	.	.	.	.	.	.	.
!LO:SIC:v:o=8c-X\	!	!	!	!	!	!	!	!	!	!	!	!	!	!	!	!	!	!	!	!
8B-\	7-	.	8dd\L	.	16.aa\LL	.	4B-X\	-ta	-ta	4B-X\	-ta	-ta	4a\	-ta	-ta	.	.	.	.	.
.	.	.	.	.	32dd\JJk	.	.	.	.	.	.	.	.	.	.	.	.	.	.	.
!LO:SIC:v:o=8B\J	!	!	!	!	!	!	!	!	!	!	!	!	!	!	!	!	!	!	!	!
8B-J	.	.	8dd\J	.	16.ffn\LL	.	.	.	.	.	.	.	.	.	.	.	.	.	.	.
.	.	.	.	.	32aa\JJk	.	.	.	.	.	.	.	.	.	.	.	.	.	.	.
=17	=17	=17	=17	=17	=17	=17	=17	=17	=17	=17	=17	=17	=17	=17	=17	=17	=17	=17	=17	=17
8E\L	7	.	16.dd\LL	.	8gg\L	.	4E\	mun-	mun-	4B-X\	mun-	mun-	4g\	mun-	mun-	1ryy	.	.	.	.
.	.	.	32g\JJk	.	.	.	.	.	.	.	.	.	.	.	.	.	.	.	.	.
8E\	.	.	16.b\LL	.	8gg\J	.	.	.	.	.	.	.	.	.	.	.	.	.	.	.
.	.	.	32dd\JJk	.	.	.	.	.	.	.	.	.	.	.	.	.	.	.	.	.
8A\	7 #	.	8cc#X\L	.	16.gg\LL	.	4A\	-di	-di	4A\	-di	-di	4g\	-di	-di	.	.	.	.	.
.	.	.	.	.	32dd#X\JJk	.	.	.	.	.	.	.	.	.	.	.	.	.	.	.
8A\J	.	.	8cc#\J	.	16.ee\LL	.	.	.	.	.	.	.	.	.	.	.	.	.	.	.
.	.	.	.	.	32gg\JJk	.	.	.	.	.	.	.	.	.	.	.	.	.	.	.
!	!	!	!	!	!LO:SIC:o=(32ffn\KLL	!	!	!	!	!	!	!	!	!	!	!	!	!	!	!
8D\L	-	.	16.dd\LL	.	16.ffKLL	.	4D\	mi-	mi-	4A\	mi-	mi-	4fn\	mi-	mi-	.	.	.	.	.
!	!	!	!	!	!LO:SIC:v:o=16.dd#\JJ)	!	!	!	!	!	!	!	!	!	!	!	!	!	!	!
!	!	!	!	!	!LO:SIC:o=16.ddnJJ)	!	!	!	!	!	!	!	!	!	!	!	!	!	!	!
.	.	.	.	.	32dd#JJ	.	.	.	.	.	.	.	.	.	.	.	.	.	.	.
.	.	.	32a\JJk	.	.	.	.	.	.	.	.	.	.	.	.	.	.	.	.	.
8D\	.	.	16.dd\LL	.	16.ff\LL	.	.	.	.	.	.	.	.	.	.	.	.	.	.	.
!	!	!	!LO:SIC:v:o=32ff#\JJk	!	!	!	!	!	!	!	!	!	!	!	!	!	!	!	!	!
.	.	.	32ffnJJk	.	32aa\JJk	.	.	.	.	.	.	.	.	.	.	.	.	.	.	.
!	!	!	!LO:SIC:v:o=8f#/L	!	!LO:TX:t=P:problem=mixed beam	!	!	!	!	!	!	!	!	!	!	!	!	!	!	!
8G#X\	4n	.	8fn/L	.	16.ddd\LL	.	4G#X\	-se-	-se-	4Bn\	-se-	-se-	4f\	-se-	-se-	.	.	.	.	.
.	.	.	.	.	32d/JJk	.	.	.	.	.	.	.	.	.	.	.	.	.	.	.
!	!	!	!LO:SIC:v:o=8f#/J	!	!	!	!	!	!	!	!	!	!	!	!	!	!	!	!	!
8G#\J	.	.	8f/J	.	16.bn\LL	.	.	.	.	.	.	.	.	.	.	.	.	.	.	.
!	!	!	!	!	!LO:SIC:v:o=32dd#\JJk	!	!	!	!	!	!	!	!	!	!	!	!	!	!	!
.	.	.	.	.	32ddJJk	.	.	.	.	.	.	.	.	.	.	.	.	.	.	.
!LO:LB:g=original	!	!	!LO:LB:g=original	!	!	!	!	!	!	!	!	!	!LO:LB:g=original	!	!	!	!	!	!LO:PB:g=original	!
=18	=18	=18	=18	=18	=18	=18	=18	=18	=18	=18	=18	=18	=18	=18	=18	=18	=18	=18	=18	=18
!	!	!	!	!	!	!	!LO:SIC:o=8A\L	!	!	!	!	!	!	!	!	!	!	!	!	!
8A\L	3	.	16.e/LL	.	16.cc#X\LL	.	(8AL	-re-	-re-	4A\	-re-	-re-	4e\	-re-	-re-	1ryy	8r	.	8r	.
.	.	.	32a/JJk	.	32a\JJk	.	.	.	.	.	.	.	.	.	.	.	.	.	.	.
!	!	!	!	!	!	!	!LO:SIC:o=8Gn\J	!	!	!	!	!	!	!	!	!	!	!	!	!
8Gn\	.	.	16.cc#\LL	.	16.aa\LL	.	8GJ)	.	.	.	.	.	.	.	.	.	16.A/LL	.	16.e\LL	.
.	.	.	32ee\JJk	.	32cc#\JJk	.	.	.	.	.	.	.	.	.	.	.	32A/JJk	.	32e\JJk	.
!	!	!	!LO:TX:t=P:problem=mixed beam	!	!LO:TX:t=P:problem=mixed beam	!	!LO:SIC:o=8F#\L	!	!	!LO:SIC:o=8A\L	!	!	!	!	!	!	!	!	!	!
8F#\	6	.	16dd\KL	.	16.dd\LL	.	(8F#L	-re	-re	(8AL	-re	-re	(8a\L	-re	-re	.	8A/L	.	16f#\KL	.
.	.	.	8d/	.	.	.	.	.	.	.	.	.	.	.	.	.	.	.	8d\	.
.	.	.	.	.	32d/JJk	.	.	.	.	.	.	.	.	.	.	.	.	.	.	.
!	!	!	!	!	!	!	!LO:SIC:o=8G\J	!	!	!LO:SIC:o=8Bn\J	!	!	!	!	!	!	!	!	!	!
8G\J	.	.	.	.	16.bn/LL	.	8GJ)	.	.	8BJ)	.	.	8g\J)	.	.	.	8d/J	.	.	.
.	.	.	16e/Jk	.	.	.	.	.	.	.	.	.	.	.	.	.	.	.	16g\Jk	.
.	.	.	.	.	32g/JJk	.	.	.	.	.	.	.	.	.	.	.	.	.	.	.
*	*	*	*	*	*	*	*2\right	*	*	*	*	*	*	*	*	*	*	*	*	*
!LO:TX:t=P:problem=mixed beam	!	!	!	!	!LO:LB:g=original	!	!	!	!	!LO:SIC:o=2A/	!	!	!	!	!	!	!	!	!	!
8A\L	6 4	.	4d/	.	4f#/	.	2AM\	no-	no-	2AM	no-	no-	(4f#\	no-	no-	.	4d\	.	4f#\	.
8A\	.	.	.	.	.	.	.	.	.	.	.	.	.	.	.	.	.	.	.	.
!	!	!	!	!	!	!	!	!	!	!	!	!	!	!	!	!	!LO:SIC:o=4A/	!	!	!
8AA/	5 3	.	4c#m/	.	4eM/	.	.	.	.	.	.	.	4e\)	.	.	.	4AM	.	4eM\	.
8AA/J	.	.	.	.	.	.	.	.	.	.	.	.	.	.	.	.	.	.	.	.
=19	=19	=19	=19	=19	=19	=19	=19	=19	=19	=19	=19	=19	=19	=19	=19	=19	=19	=19	=19	=19
4D\	.	.	4d/	.	4d/	.	4D/	-bis	-bis	4A/	-bis	-bis	4f#\	-bis	-bis	1ryy	4F#/	.	4d\	.
8d\L	.	.	16.r	.	16.r	.	4r	.	.	4r	.	.	4r	.	.	.	8r	.	8r	.
.	.	.	32a\KLL	.	32dd\KLL	.	.	.	.	.	.	.	.	.	.	.	.	.	.	.
!	!	!	!	!	!	!	!	!	!	!	!	!	!	!	!	!	!	!	!	!LO:MO:null:mod=!LO&colon;DY&colon;ed=brack
!	!	!	!	!	!	!	!	!	!	!	!	!	!	!	!	!	!	!	!	!null
!	!	!	!	!	!	!	!	!	!	!	!	!	!	!	!	!	!	!	!	!LO:MO:null:mod=p
8D\J	.	.	16.dd\	.	16.ff#\	.	.	.	.	.	.	.	.	.	.	.	8f#\	p	8a\	.
.	.	.	32ff#\JJk	.	32aa\JJk	.	.	.	.	.	.	.	.	.	.	.	.	.	.	.
!	!	!	!LO:SIC:o=(<16qqff#/	!	!LO:SIC:o=8qqaa/	!	!	!	!	!	!	!	!	!	!	!	!LO:SIC:o=(<16qqf#/	!	!LO:SIC:o=8qqa/	!
.	.	.	(8qqff#	.	(8qqaa	.	.	.	.	.	.	.	.	.	.	.	(8qqf#	.	(8qqa	.
!	!	!	!	!	!LO:SIC:o=8gg\L	!	!	!	!	!	!	!	!	!	!	!	!	!	!LO:SIC:o=(8g\L	!
8A\L	7	.	8ee\L)	.	8ggL)	.	2r	.	.	2r	.	.	2r	.	.	.	()8e\L	.	(8gL)	.
8D\J	.	.	8dd\J	.	8ff#\J	.	.	.	.	.	.	.	.	.	.	.	8d\J)	.	8f#\J)	.
!LO:TX:t=P:problem=mixed beam	!	!LO:DY:a:t=pp&colon;	!	!	!	!	!	!	!	!	!	!	!	!	!	!	!	!LO:MO:mod=.	!	!
8D\L	.	pp	16.r	.	16.r	.	.	.	.	.	.	.	.	.	.	.	8r	pp	8r	.
!	!	!	!	!LO:MO:null:mod=!LO&colon;DY&colon;ed=brack	!	!LO:MO:null:mod=!LO&colon;DY&colon;ed=brack	!	!	!	!	!	!	!	!	!	!	!	!	!	!
!	!	!	!	!null	!	!null	!	!	!	!	!	!	!	!	!	!	!	!	!	!
!	!	!	!	!LO:MO:null:mod=pp	!	!LO:MO:null:mod=pp	!	!	!	!	!	!	!	!	!	!	!	!	!	!
.	.	.	32A/KLL	.	32d/KLL	.	.	.	.	.	.	.	.	.	.	.	.	.	.	.
!	!	!	!	!	!	!	!	!	!	!	!	!	!	!	!	!	!	!	!	!LO:MO:null:mod=!LO&colon;DY&colon;ed=brack
!	!	!	!	!	!	!	!	!	!	!	!	!	!	!	!	!	!	!	!	!null
!	!	!	!	!	!	!	!	!	!	!	!	!	!	!	!	!	!	!LO:MO:null:mod=pp	!	!LO:MO:null:mod=pp
8DD/J	.	.	16.d/	.	16.f#/	.	.	.	.	.	.	.	.	.	.	.	8f#\	.	8dd\	.
.	.	.	32f#/JJk	.	32a/JJk	.	.	.	.	.	.	.	.	.	.	.	.	.	.	.
=20	=20	=20	=20	=20	=20	=20	=20	=20	=20	=20	=20	=20	=20	=20	=20	=20	=20	=20	=20	=20
!	!	!	!LO:SIC:o=8qqf#/	!	!LO:SIC:o=8qqa/	!	!	!	!	!	!	!	!	!	!	!	!LO:SIC:o=(<16qqf#/	!	!	!
.	.	.	(8qqf#	.	(8qqa	.	.	.	.	.	.	.	.	.	.	.	(8qqf#	.	(<8qqdd/	.
!	!	!	!LO:SIC:o=8eM/L	!	!LO:SIC:o=8gM/L	!	!	!	!	!LO:TX:a:t=1:mod=	!	!	!	!	!	!	!	!	!	!
8AA/L	7	.	8eML)	.	8gML)	.	1r	.	.	1r	.	.	1r	.	.	1ryy	8e\L)	.	8cc#\L)	.
8DD/J	.	.	8d/J	.	8f#/J	.	.	.	.	.	.	.	.	.	.	.	8f#\J	.	8dd\J	.
4r	.	.	4r	.	4r	.	.	.	.	.	.	.	.	.	.	.	4r	.	4r	.
2r	.	.	2r	.	2r	.	.	.	.	.	.	.	.	.	.	.	2r	.	2r	.
!LO:LB:g=original	!	!	!LO:LB:g=original	!	!LO:LB:g=original	!	!	!	!	!LO:LB:g=original	!	!	!	!	!	!	!	!	!	!
=21||	=21||	=21||	=21||	=21||	=21||	=21||	=21||	=21||	=21||	=21||	=21||	=21||	=21||	=21||	=21||	=21||	=21||	=21||	=21||	=21||
!!!OMD:
!!!OMD-mod: Allegretto
*M2/4	*	*	*M2/4	*	*M2/4	*	*M2/4	*	*	*M2/4	*	*	*M2/4	*	*	*	*M2/4	*	*M2/4	*
!LO:TX:b:t=Agnus\n2dum:mod=	!	!	!	!	!	!	!	!	!	!	!	!	!	!	!	!	!	!	!	!
!LO:TX:a:i:t=Solo:mod=	!	!	!	!	!	!	!	!	!	!	!	!	!	!	!	!	!	!	!	!
!LO:TX:a:i:t=allegretto:mod=	!	!	!LO:TX:a:t=Solo:mod=	!	!LO:TX:a:t=Solo Lente:mod=	!	!LO:TX:a:t=Agnus \nTacet:mod=	!	!	!LO:TX:a:t=Agnus 2dum\nTacet:mod=	!	!	!LO:TX:a:t=Solo:mod=	!	!	!	!LO:TX:a:t=Agnus Dei \nTacet:mod=	!	!LO:TX:a:t=Tacet \nagnus:mod=	!
8BB/L	.	.	4b\	.	4b\	.	2ryy	.	.	2ryy	.	.	0r	.	.	2ryy	2ryy	.	2ryy	.
8D/	.	.	.	.	.	.	.	.	.	.	.	.	.	.	.	.	.	.	.	.
8E/	.	.	(32dd\KLL	.	(32dd\KLL	.	.	.	.	.	.	.	.	.	.	.	.	.	.	.
.	.	.	16.cc#\JJ)	.	16.cc#\JJ)	.	.	.	.	.	.	.	.	.	.	.	.	.	.	.
8F#/J	.	.	(32b\KLL	.	(32b\KLL	.	.	.	.	.	.	.	.	.	.	.	.	.	.	.
.	.	.	16.a#X\JJ)	.	16.a#X\JJ)	.	.	.	.	.	.	.	.	.	.	.	.	.	.	.
=22	=22	=22	=22	=22	=22	=22	=22	=22	=22	=22	=22	=22	=22	=22	=22	=22	=22	=22	=22	=22
8G\L	.	.	8b\L	.	8b\L	.	2ryy	.	.	2ryy	.	.	.	.	.	2ryy	2ryy	.	2ryy	.
8E\	5	.	(32bb\KL	.	(32bb\KL	.	.	.	.	.	.	.	.	.	.	.	.	.	.	.
.	.	.	16.gg\JJ)	.	16.gg\JJ)	.	.	.	.	.	.	.	.	.	.	.	.	.	.	.
8D\	6	.	8ff#\L	.	8ff#\L	.	.	.	.	.	.	.	.	.	.	.	.	.	.	.
8C#\J	7	.	(32bb\KL	.	(32bb\KL	.	.	.	.	.	.	.	.	.	.	.	.	.	.	.
.	.	.	16.ee\JJ)	.	16.ee\JJ)	.	.	.	.	.	.	.	.	.	.	.	.	.	.	.
=23	=23	=23	=23	=23	=23	=23	=23	=23	=23	=23	=23	=23	=23	=23	=23	=23	=23	=23	=23	=23
8BB/L	.	.	(32ee\KLL	.	(32ee\KLL	.	2ryy	.	.	2ryy	.	.	.	.	.	2ryy	2ryy	.	2ryy	.
.	.	.	16.dd\JJ)	.	16.dd\JJ)	.	.	.	.	.	.	.	.	.	.	.	.	.	.	.
8D/	.	.	(32ff#\KLL	.	(32ff#\KLL	.	.	.	.	.	.	.	.	.	.	.	.	.	.	.
.	.	.	16.b\JJ)	.	16.b\JJ)	.	.	.	.	.	.	.	.	.	.	.	.	.	.	.
8E/	.	.	(32dd\KLL	.	(32dd\KLL	.	.	.	.	.	.	.	.	.	.	.	.	.	.	.
.	.	.	16.cc#\JJ)	.	16.cc#\JJ)	.	.	.	.	.	.	.	.	.	.	.	.	.	.	.
8F#/J	.	.	(32ee\KLL	.	(32ee\KLL	.	.	.	.	.	.	.	.	.	.	.	.	.	.	.
.	.	.	16.a#X\JJ)	.	16.a#X\JJ)	.	.	.	.	.	.	.	.	.	.	.	.	.	.	.
=24	=24	=24	=24	=24	=24	=24	=24	=24	=24	=24	=24	=24	=24	=24	=24	=24	=24	=24	=24	=24
!LO:TX:t=P:problem=mixed beam	!	!	!	!	!	!	!	!	!	!	!	!	!	!	!	!	!	!	!	!
8BB/L	.	.	8b/	.	8b/	.	2ryy	.	.	2ryy	.	.	.	.	.	2ryy	2ryy	.	2ryy	.
8B\	.	.	4f#/	.	4f#/	.	.	.	.	.	.	.	.	.	.	.	.	.	.	.
8d\	.	.	.	.	.	.	.	.	.	.	.	.	.	.	.	.	.	.	.	.
8B\J	.	.	(32dd\KLL	.	(32dd\KLL	.	.	.	.	.	.	.	.	.	.	.	.	.	.	.
.	.	.	16.b\JJ)	.	16.b\JJ)	.	.	.	.	.	.	.	.	.	.	.	.	.	.	.
=25	=25	=25	=25	=25	=25	=25	=25	=25	=25	=25	=25	=25	=25	=25	=25	=25	=25	=25	=25	=25
8r	.	.	8cc#\	.	8cc#\	.	2ryy	.	.	2ryy	.	.	0r	.	.	2ryy	2ryy	.	2ryy	.
8A#X\L	.	.	4f#/	.	4f#/	.	.	.	.	.	.	.	.	.	.	.	.	.	.	.
8F#\	.	.	.	.	.	.	.	.	.	.	.	.	.	.	.	.	.	.	.	.
8A#\J	.	.	(32ee\KLL	.	(32ee\KLL	.	.	.	.	.	.	.	.	.	.	.	.	.	.	.
.	.	.	16.cc#\JJ)	.	16.cc#\JJ)	.	.	.	.	.	.	.	.	.	.	.	.	.	.	.
!LO:LB:g=original	!	!	!	!	!	!	!	!	!	!	!	!	!	!	!	!	!	!	!	!
=26	=26	=26	=26	=26	=26	=26	=26	=26	=26	=26	=26	=26	=26	=26	=26	=26	=26	=26	=26	=26
!	!	!	!	!	!LO:SIC:o=16.dd\LL	!	!	!	!	!	!	!	!	!	!	!	!	!	!	!
8B\L	.	.	(16.dd\LL	.	(16.ddLL	.	2ryy	.	.	2ryy	.	.	.	.	.	2ryy	2ryy	.	2ryy	.
!	!	!	!	!	!LO:SIC:o=32ff#\JK	!	!	!	!	!	!	!	!	!	!	!	!	!	!	!
.	.	.	32ff#\JK)	.	32ff#JK)	.	.	.	.	.	.	.	.	.	.	.	.	.	.	.
8D\	6	.	8ff#m\J	.	8ff#m\J	.	.	.	.	.	.	.	.	.	.	.	.	.	.	.
!	!	!	!LO:MO:null:mod=*null	!	!LO:MO:null:mod=*null	!	!	!	!	!	!	!	!	!	!	!	!	!	!	!
*	*	*	*Xtuplet	*	*Xtuplet	*	*	*	*	*	*	*	*	*	*	*	*	*	*	*
!	!	!	!LO:TUP:problem=klamra łukowa	!	!	!	!	!	!	!	!	!	!	!	!	!	!	!	!	!
8E\	.	.	24gg\LL	.	24gg\LL	.	.	.	.	.	.	.	.	.	.	.	.	.	.	.
.	.	.	24ff#\	.	24ff#\	.	.	.	.	.	.	.	.	.	.	.	.	.	.	.
.	.	.	24ee\JJ	.	24ee\JJ	.	.	.	.	.	.	.	.	.	.	.	.	.	.	.
!	!	!	!	!	!LO:TUP:problem=klamra łukowa	!	!	!	!	!	!	!	!	!	!	!	!	!	!	!
8E#X\J	7	.	24dd\LL	.	24dd\LL	.	.	.	.	.	.	.	.	.	.	.	.	.	.	.
.	.	.	24cc#\	.	24cc#\	.	.	.	.	.	.	.	.	.	.	.	.	.	.	.
.	.	.	24b\JJ	.	24b\JJ	.	.	.	.	.	.	.	.	.	.	.	.	.	.	.
!	!	!	!LO:PB:g=original	!	!LO:LB:g=original	!	!	!	!	!	!	!	!	!	!	!	!	!	!	!
=27	=27	=27	=27	=27	=27	=27	=27	=27	=27	=27	=27	=27	=27	=27	=27	=27	=27	=27	=27	=27
.	.	.	(<8qqb/	.	(<8qqb/	.	.	.	.	.	.	.	.	.	.	.	.	.	.	.
8F#\L	#	.	4a#X/)	.	4a#X/)	.	2ryy	.	.	2ryy	.	.	.	.	.	2ryy	2ryy	.	2ryy	.
16F#\L	.	.	.	.	.	.	.	.	.	.	.	.	.	.	.	.	.	.	.	.
16Gn\JJ	.	.	.	.	.	.	.	.	.	.	.	.	.	.	.	.	.	.	.	.
16F#\LL	.	.	4r	.	8r	.	.	.	.	.	.	.	.	.	.	.	.	.	.	.
16E\	.	.	.	.	.	.	.	.	.	.	.	.	.	.	.	.	.	.	.	.
16D\	.	.	.	.	8ff#\	.	.	.	.	.	.	.	.	.	.	.	.	.	.	.
16C#\JJ	.	.	.	.	.	.	.	.	.	.	.	.	.	.	.	.	.	.	.	.
=28	=28	=28	=28	=28	=28	=28	=28	=28	=28	=28	=28	=28	=28	=28	=28	=28	=28	=28	=28	=28
8BB/L	.	.	4r	.	(32ff#\KLL	.	2ryy	.	.	2ryy	.	.	.	.	.	2ryy	2ryy	.	2ryy	.
.	.	.	.	.	16.dd\JJ)	.	.	.	.	.	.	.	.	.	.	.	.	.	.	.
8BB/	.	.	.	.	(32cc#\KLL	.	.	.	.	.	.	.	.	.	.	.	.	.	.	.
.	.	.	.	.	16.b\JJ)	.	.	.	.	.	.	.	.	.	.	.	.	.	.	.
8D#X/	6	.	8r	.	8aa\L	.	.	.	.	.	.	.	.	.	.	.	.	.	.	.
8D#/J	.	.	8b/	.	8aa\J	.	.	.	.	.	.	.	.	.	.	.	.	.	.	.
=29	=29	=29	=29	=29	=29	=29	=29	=29	=29	=29	=29	=29	=29	=29	=29	=29	=29	=29	=29	=29
!	!	!	!	!	!LO:SIC:o=8qqaa/	!	!	!	!	!	!	!	!	!	!	!	!	!	!	!
.	.	.	.	.	(8qqaa	.	.	.	.	.	.	.	.	.	.	.	.	.	.	.
!	!	!	!	!	!LO:SIC:o=4gg\	!	!	!	!	!	!	!	!	!	!	!	!	!	!	!
8E\L	.	.	(32b/KLL	.	4gg)	.	2ryy	.	.	2ryy	.	.	0r	.	.	2ryy	2ryy	.	2ryy	.
.	.	.	16.g/JJ)	.	.	.	.	.	.	.	.	.	.	.	.	.	.	.	.	.
8E\	.	.	(32f#/KLL	.	.	.	.	.	.	.	.	.	.	.	.	.	.	.	.	.
.	.	.	16.e/JJ)	.	.	.	.	.	.	.	.	.	.	.	.	.	.	.	.	.
!	!	!	!LO:SIC:o=8ddM\L	!	!	!	!	!	!	!	!	!	!	!	!	!	!	!	!	!
8G\	6 5	.	8ddL	.	8r	.	.	.	.	.	.	.	.	.	.	.	.	.	.	.
8G\J	.	.	8dd\J	.	8ee\	.	.	.	.	.	.	.	.	.	.	.	.	.	.	.
=30	=30	=30	=30	=30	=30	=30	=30	=30	=30	=30	=30	=30	=30	=30	=30	=30	=30	=30	=30	=30
!	!	!	!LO:SIC:o=8qqdd/	!	!	!	!	!	!	!	!	!	!	!	!	!	!	!	!	!
.	.	.	(8qqdd	.	.	.	.	.	.	.	.	.	.	.	.	.	.	.	.	.
!LO:TX:t=P:problem=mixed beam	!	!	!LO:SIC:o=4cc#\	!	!	!	!	!	!	!	!	!	!	!	!	!	!	!	!	!
8A\L	.	.	4cc)	.	(32ee\KLL	.	2ryy	.	.	2ryy	.	.	.	.	.	2ryy	2ryy	.	2ryy	.
.	.	.	.	.	16.cc#\JJ)	.	.	.	.	.	.	.	.	.	.	.	.	.	.	.
8A\	.	.	.	.	(32b\KLL	.	.	.	.	.	.	.	.	.	.	.	.	.	.	.
.	.	.	.	.	16.a\JJ)	.	.	.	.	.	.	.	.	.	.	.	.	.	.	.
8C#/	6 5	.	8r	.	8gg\L	.	.	.	.	.	.	.	.	.	.	.	.	.	.	.
8C#/J	.	.	8ee\	.	8gg\J	.	.	.	.	.	.	.	.	.	.	.	.	.	.	.
=31	=31	=31	=31	=31	=31	=31	=31	=31	=31	=31	=31	=31	=31	=31	=31	=31	=31	=31	=31	=31
!	!	!	!	!	!LO:TX:t=P:problem=niezgodność pionów rytmicznych pomiędzy vn1 a vn2	!	!	!	!	!	!	!	!	!	!	!	!	!	!	!
!	!	!	!	!	!LO:MO:mod=8ff#L	!	!	!	!	!	!	!	!	!	!	!	!	!	!	!
8D\L	.	.	8ff#\L	.	8.ff#m\L	.	2ryy	.	.	2ryy	.	.	.	.	.	2ryy	2ryy	.	2ryy	.
!	!	!	!	!	!LO:MO:null:mod=(16gg'L	!	!	!	!	!	!	!	!	!	!	!	!	!	!	!
16E\L	.	.	(16gg'\L	.	.	.	.	.	.	.	.	.	.	.	.	.	.	.	.	.
!	!	!	!	!	!LO:MO:mod=16ff#'JJ	!	!	!	!	!	!	!	!	!	!	!	!	!	!	!
16F#\JJ	.	.	16ff#'\JJ	.	(32ee\LL	.	.	.	.	.	.	.	.	.	.	.	.	.	.	.
!	!	!	!	!	!LO:MO:mod=.	!	!	!	!	!	!	!	!	!	!	!	!	!	!	!
.	.	.	.	.	32ff#\JJJ)	.	.	.	.	.	.	.	.	.	.	.	.	.	.	.
!	!	!	!	!	!LO:MO:mod=16ee'LL	!	!	!	!	!	!	!	!	!	!	!	!	!	!	!
8G\L	.	.	16ee'\LL	.	(16gg\LL	.	.	.	.	.	.	.	.	.	.	.	.	.	.	.
!	!	!	!	!	!LO:MO:mod=16dd'	!	!	!	!	!	!	!	!	!	!	!	!	!	!	!
.	.	.	16dd'\	.	16ff#\JJ	.	.	.	.	.	.	.	.	.	.	.	.	.	.	.
!	!	!	!LO:N:vis=16	!	!LO:N:vis=16	!	!	!	!	!	!	!	!	!	!	!	!	!	!	!
!	!	!	!	!	!LO:MO:mod=16cc#'	!	!	!	!	!	!	!	!	!	!	!	!	!	!	!
8E\J	.	.	16cc#'\	.	32ee\LLL	.	.	.	.	.	.	.	.	.	.	.	.	.	.	.
!	!	!	!	!	!LO:N:vis=16	!	!	!	!	!	!	!	!	!	!	!	!	!	!	!
!	!	!	!	!	!LO:MO:mod=.	!	!	!	!	!	!	!	!	!	!	!	!	!	!	!
.	.	.	.	.	32dd\	.	.	.	.	.	.	.	.	.	.	.	.	.	.	.
!	!	!	!LO:N:vis=16	!	!LO:N:vis=16	!	!	!	!	!	!	!	!	!	!	!	!	!	!	!
!	!	!	!	!	!LO:MO:mod=16b'JJ)	!	!	!	!	!	!	!	!	!	!	!	!	!	!	!
.	.	.	16b'\JJ)	.	32cc#\	.	.	.	.	.	.	.	.	.	.	.	.	.	.	.
!	!	!	!	!	!LO:N:vis=16	!	!	!	!	!	!	!	!	!	!	!	!	!	!	!
!	!	!	!	!	!LO:MO:mod=.	!	!	!	!	!	!	!	!	!	!	!	!	!	!	!
.	.	.	.	.	32b\JJJ)	.	.	.	.	.	.	.	.	.	.	.	.	.	.	.
!LO:LB:g=original	!	!	!	!	!	!	!	!	!	!	!	!	!	!	!	!	!	!	!	!
=32	=32	=32	=32	=32	=32	=32	=32	=32	=32	=32	=32	=32	=32	=32	=32	=32	=32	=32	=32	=32
!	!	!	!	!	!LO:TX:t=P:problem=mixed beam	!	!	!	!	!	!	!	!	!	!	!	!	!	!	!
8F#\L	#	.	8a#X\L	.	8a#X/L	.	2ryy	.	.	2ryy	.	.	.	.	.	2ryy	2ryy	.	2ryy	.
8A#X\	6 5 #	.	8cc#\J	.	8ee\J	.	.	.	.	.	.	.	.	.	.	.	.	.	.	.
8B\	.	.	8r	.	8r	.	.	.	.	.	.	.	.	.	.	.	.	.	.	.
8E#X\J	7 #	.	8b\	.	8dd\	.	.	.	.	.	.	.	.	.	.	.	.	.	.	.
!	!	!	!	!	!LO:LB:g=original	!	!	!	!	!	!	!	!	!	!	!	!	!	!	!
=33	=33	=33	=33	=33	=33	=33	=33	=33	=33	=33	=33	=33	=33	=33	=33	=33	=33	=33	=33	=33
4F#\	#	.	8r	.	8r	.	2ryy	.	.	2ryy	.	.	0r	.	.	2ryy	2ryy	.	2ryy	.
!	!	!	!	!	!	!LO:MO:null:mod=!LO&colon;DY&colon;ed=brack	!	!	!	!	!	!	!	!	!	!	!	!	!	!
!	!	!	!	!	!	!null	!	!	!	!	!	!	!	!	!	!	!	!	!	!
!	!	!	!LO:SIC:o=8a#X/L	!LO:DY:a:t=pia	!	!LO:MO:null:mod=p	!	!	!	!	!	!	!	!	!	!	!	!	!	!
.	.	.	8a#	p	8cc#\	.	.	.	.	.	.	.	.	.	.	.	.	.	.	.
!	!	!	!LO:SIC:o=(8g#X/	!	!	!	!	!	!	!	!	!	!	!	!	!	!	!	!	!
4r	.	.	(8g#L	.	(8ee#X\L	.	.	.	.	.	.	.	.	.	.	.	.	.	.	.
.	.	.	8a#X/J)	.	8ff#\J)	.	.	.	.	.	.	.	.	.	.	.	.	.	.	.
!	!	!	!LO:LB:g=original	!	!	!	!	!	!	!	!	!	!	!	!	!	!	!	!	!
=34	=34	=34	=34	=34	=34	=34	=34	=34	=34	=34	=34	=34	=34	=34	=34	=34	=34	=34	=34	=34
!	!	!	!	!	!	!LO:MO:null:mod=!LO&colon;DY&colon;ed=brack	!	!	!	!	!	!	!	!	!	!	!	!	!	!
!	!	!	!	!	!	!null	!	!	!	!	!	!	!	!	!	!	!	!	!	!
!	!	!	!LO:TX:t=P:problem=mixed beam	!LO:DY:b:t=for	!LO:TX:t=P:problem=mixed beam	!LO:MO:null:mod=f	!	!	!	!	!	!	!	!	!	!	!	!	!	!
8r	.	.	8f#/L	f	8f#/L	.	2ryy	.	.	2ryy	.	.	.	.	.	2ryy	2ryy	.	2ryy	.
!	!	!LO:MO:null:mod=!LO&colon;DY&colon;ed=brack	!	!	!	!	!	!	!	!	!	!	!	!	!	!	!	!	!	!
!	!	!null	!	!	!	!	!	!	!	!	!	!	!	!	!	!	!	!	!	!
!	!	!LO:MO:null:mod=f	!	!	!	!	!	!	!	!	!	!	!	!	!	!	!	!	!	!
8A#X\L	6 5	.	8cc#\J	.	8ee\J	.	.	.	.	.	.	.	.	.	.	.	.	.	.	.
8B\	3	.	8r	.	8r	.	.	.	.	.	.	.	.	.	.	.	.	.	.	.
8E#X\J	7	.	8b\	.	8dd\	.	.	.	.	.	.	.	.	.	.	.	.	.	.	.
=35	=35	=35	=35	=35	=35	=35	=35	=35	=35	=35	=35	=35	=35	=35	=35	=35	=35	=35	=35	=35
8F#\L	#_	.	16r	.	16.r	.	2ryy	.	.	2ryy	.	.	.	.	.	2ryy	2ryy	.	2ryy	.
!	!	!	!	!LO:DY:b:t=pia	!	!	!	!	!	!	!	!	!	!	!	!	!	!	!	!
.	.	.	16a#X\LL	p	.	.	.	.	.	.	.	.	.	.	.	.	.	.	.	.
!	!	!	!	!	!	!LO:MO:null:mod=!LO&colon;DY&colon;ed=brack	!	!	!	!	!	!	!	!	!	!	!	!	!	!
!	!	!	!	!	!	!null	!	!	!	!	!	!	!	!	!	!	!	!	!	!
!	!	!	!	!	!	!LO:MO:null:mod=p	!	!	!	!	!	!	!	!	!	!	!	!	!	!
.	.	.	.	.	32cc#\KLL	.	.	.	.	.	.	.	.	.	.	.	.	.	.	.
!	!	!LO:MO:null:mod=!LO&colon;DY&colon;ed=brack	!	!	!	!	!	!	!	!	!	!	!	!	!	!	!	!	!	!
!	!	!null	!	!	!	!	!	!	!	!	!	!	!	!	!	!	!	!	!	!
!	!	!LO:MO:null:mod=p	!	!	!	!	!	!	!	!	!	!	!	!	!	!	!	!	!	!
8En\	.	.	16aa#X\	.	16.aa#X\	.	.	.	.	.	.	.	.	.	.	.	.	.	.	.
.	.	.	16aa#\JJ	.	.	.	.	.	.	.	.	.	.	.	.	.	.	.	.	.
.	X	.	.	.	32aa#\JJk	.	.	.	.	.	.	.	.	.	.	.	.	.	.	.
8D\	6	.	8bb\L	.	8bb\L	.	.	.	.	.	.	.	.	.	.	.	.	.	.	.
8C#\J	6|	.	8ee\J	.	8ee\J	.	.	.	.	.	.	.	.	.	.	.	.	.	.	.
=36	=36	=36	=36	=36	=36	=36	=36	=36	=36	=36	=36	=36	=36	=36	=36	=36	=36	=36	=36	=36
!	!	!LO:MO:null:mod=!LO&colon;DY&colon;ed=brack	!	!	!	!LO:MO:null:mod=!LO&colon;DY&colon;ed=brack	!	!	!	!	!	!	!	!	!	!	!	!	!	!
!	!	!null	!	!	!	!null	!	!	!	!	!	!	!	!	!	!	!	!	!	!
!	!	!LO:MO:null:mod=f	!LO:SIC:o=32ddM\LLL	!LO:DY:b:t=for	!	!LO:MO:null:mod=f	!	!	!	!	!	!	!	!	!	!	!	!	!	!
8BB/L	.	.	(32ddLLL	f	(32dd\LLL	.	2ryy	.	.	2ryy	.	.	.	.	.	2ryy	2ryy	.	2ryy	.
!	!	!	!LO:SIC:o=(32cc#\JJ	!	!	!	!	!	!	!	!	!	!	!	!	!	!	!	!	!
.	.	.	32cc#JJ	.	32cc#\JJ	.	.	.	.	.	.	.	.	.	.	.	.	.	.	.
.	.	.	8.b\J)	.	8.b\J)	.	.	.	.	.	.	.	.	.	.	.	.	.	.	.
8D/	.	.	.	.	.	.	.	.	.	.	.	.	.	.	.	.	.	.	.	.
8E/	6	.	4cc#m\	.	4cc#m\	.	.	.	.	.	.	.	.	.	.	.	.	.	.	.
8F#/J	#	.	.	.	.	.	.	.	.	.	.	.	.	.	.	.	.	.	.	.
=37	=37	=37	=37	=37	=37	=37	=37	=37	=37	=37	=37	=37	=37	=37	=37	=37	=37	=37	=37	=37
!LO:TX:t=P:problem=mixed beam	!	!LO:DY:a:t=pia	!	!	!	!	!	!	!	!	!	!	!	!	!	!	!	!	!	!
8FF#/L	.	p	16r	.	16.r	.	2ryy	.	.	2ryy	.	.	1r	.	.	2ryy	2ryy	.	2ryy	.
!	!	!	!	!LO:DY:b:t=pia	!	!	!	!	!	!	!	!	!	!	!	!	!	!	!	!
.	.	.	16a#X\LL	p	.	.	.	.	.	.	.	.	.	.	.	.	.	.	.	.
!	!	!	!	!	!	!LO:MO:null:mod=!LO&colon;DY&colon;ed=brack	!	!	!	!	!	!	!	!	!	!	!	!	!	!
!	!	!	!	!	!	!null	!	!	!	!	!	!	!	!	!	!	!	!	!	!
!	!	!	!	!	!	!LO:MO:null:mod=p	!	!	!	!	!	!	!	!	!	!	!	!	!	!
.	.	.	.	.	32cc#\KLL	.	.	.	.	.	.	.	.	.	.	.	.	.	.	.
(16F#\L	.	.	16aa#X\	.	16.aa#X\	.	.	.	.	.	.	.	.	.	.	.	.	.	.	.
16E\JJ)	.	.	16aa#\JJ	.	.	.	.	.	.	.	.	.	.	.	.	.	.	.	.	.
!	!	!	!	!	!LO:SIC:o=32aa#m\JJk	!	!	!	!	!	!	!	!	!	!	!	!	!	!	!
.	.	.	.	.	32aa#JJk	.	.	.	.	.	.	.	.	.	.	.	.	.	.	.
8D/L	6	.	8bb\L	.	8bb\L	.	.	.	.	.	.	.	.	.	.	.	.	.	.	.
8C#/J	6|	.	8ee\J	.	8ee\J	.	.	.	.	.	.	.	.	.	.	.	.	.	.	.
=38	=38	=38	=38	=38	=38	=38	=38	=38	=38	=38	=38	=38	=38	=38	=38	=38	=38	=38	=38	=38
8BB/L	.	.	(32dd\LLL	.	(32dd\LLL	.	2ryy	.	.	2ryy	.	.	.	.	.	2ryy	2ryy	.	2ryy	.
.	.	.	32cc#\JJ	.	32cc#\JJ	.	.	.	.	.	.	.	.	.	.	.	.	.	.	.
.	.	.	8.b\J)	.	8.b\J)	.	.	.	.	.	.	.	.	.	.	.	.	.	.	.
8D/	6	.	.	.	.	.	.	.	.	.	.	.	.	.	.	.	.	.	.	.
8E/	6	.	4cc#m\	.	4cc#m\	.	.	.	.	.	.	.	.	.	.	.	.	.	.	.
8F#/J	#	.	.	.	.	.	.	.	.	.	.	.	.	.	.	.	.	.	.	.
=39	=39	=39	=39	=39	=39	=39	=39	=39	=39	=39	=39	=39	=39	=39	=39	=39	=39	=39	=39	=39
!	!	!LO:MO:null:mod=!LO&colon;DY&colon;ed=brack	!	!	!	!LO:MO:null:mod=!LO&colon;DY&colon;ed=brack	!	!	!	!	!	!	!	!	!	!	!	!	!	!
!	!	!null	!	!	!	!null	!	!	!	!	!	!	!	!	!	!	!	!	!	!
!	!	!LO:MO:null:mod=f	!	!LO:DY:b:t=for	!	!LO:MO:null:mod=f	!	!	!	!	!	!	!	!	!	!	!	!	!	!
8B\L	.	.	8b/L	f	8b/L	.	2ryy	.	.	2ryy	.	.	2r	.	.	2ryy	2ryy	.	2ryy	.
8F#\J	.	.	8f#/J	.	8f#/J	.	.	.	.	.	.	.	.	.	.	.	.	.	.	.
4BB/	.	.	4B/	.	4B/	.	.	.	.	.	.	.	.	.	.	.	.	.	.	.
!LO:LB:g=original	!	!	!	!	!LO:LB:g=original	!	!	!	!	!	!	!	!	!	!	!	!	!	!	!
=40	=40	=40	=40	=40	=40	=40	=40	=40	=40	=40	=40	=40	=40	=40	=40	=40	=40	=40	=40	=40
!	!	!	!	!	!	!	!	!	!	!	!	!	!LO:MO:null:mod=!LO&colon;TX&colon;a&colon;i&colon;t=Solo	!	!	!	!	!	!	!
!	!	!LO:DY:a:t=pia	!	!LO:DY:a:t=po	!	!LO:DY:b:t=pia	!	!	!	!	!	!	!null	!	!	!	!	!	!	!
8BB/L	.	p	8d/L	p	4b\	p	2ryy	.	.	2ryy	.	.	4b\	A-	A-	2ryy	2ryy	.	2ryy	.
8D/	6	.	8f#/	.	.	.	.	.	.	.	.	.	.	.	.	.	.	.	.	.
8E/	#	.	8g/	.	(32dd\KLL	.	.	.	.	.	.	.	(32dd\KLL	.	.	.	.	.	.	.
.	.	.	.	.	16.cc#\JJ)	.	.	.	.	.	.	.	16.cc#\JJ)	.	.	.	.	.	.	.
8F#/J	7	.	8c#/J	.	(32b\KLL	.	.	.	.	.	.	.	(32b\KLL	-gnus	-gnus	.	.	.	.	.
.	.	.	.	.	16.a#X\JJ)	.	.	.	.	.	.	.	16.a#X\JJ)	.	.	.	.	.	.	.
=41	=41	=41	=41	=41	=41	=41	=41	=41	=41	=41	=41	=41	=41	=41	=41	=41	=41	=41	=41	=41
!	!	!	!LO:TX:t=P:problem=mixed beam	!	!	!	!	!	!	!	!	!	!LO:SIC:o=8b\L	!	!	!	!	!	!	!
8BB/L	.	.	8d/L	.	8b\L	.	2ryy	.	.	2ryy	.	.	(8bL	De-	De-	2ryy	2ryy	.	2ryy	.
!	!	!	!	!	!	!	!	!	!	!	!	!	!LO:SIC:o=8g\J	!	!	!	!	!	!	!
8E/	.	.	[8b\J	.	(32bb\KL	.	.	.	.	.	.	.	8gJ)	.	.	.	.	.	.	.
.	.	.	.	.	16.gg\JJ)	.	.	.	.	.	.	.	.	.	.	.	.	.	.	.
8D/	6	.	8b\L]	.	8ff#\L	.	.	.	.	.	.	.	8f#\	-i	-i	.	.	.	.	.
8C#/J	7	.	(32bb\KL	.	(32bb\KL	.	.	.	.	.	.	.	8ee\	qui	qui	.	.	.	.	.
.	.	.	16.ee\JJ)	.	16.ee\JJ)	.	.	.	.	.	.	.	.	.	.	.	.	.	.	.
!	!	!	!LO:LB:g=original	!	!	!	!	!	!	!	!	!	!LO:LB:g=original	!	!	!	!	!	!	!
=42	=42	=42	=42	=42	=42	=42	=42	=42	=42	=42	=42	=42	=42	=42	=42	=42	=42	=42	=42	=42
!	!	!	!LO:TX:t=P:problem=mixed beam	!	!	!	!	!	!	!	!	!	!	!	!	!	!	!	!	!
8BB/L	.	.	16ee\LL	.	(32ee\KLL	.	2ryy	.	.	2ryy	.	.	8dd\	tol-	tol-	2ryy	2ryy	.	2ryy	.
.	.	.	.	.	16.dd\)	.	.	.	.	.	.	.	.	.	.	.	.	.	.	.
.	.	.	16dd\J	.	.	.	.	.	.	.	.	.	.	.	.	.	.	.	.	.
!	!	!	!	!	!	!	!	!	!	!	!	!	!LO:SIC:o=16cc#\LL	!	!	!	!	!	!	!
8D/	.	.	8f#/J	.	(32ff#\K	.	.	.	.	.	.	.	(16cc#LL	-lis	-lis	.	.	.	.	.
.	.	.	.	.	16.b\JJ)	.	.	.	.	.	.	.	.	.	.	.	.	.	.	.
.	.	.	.	.	.	.	.	.	.	.	.	.	16b\JJ	.	.	.	.	.	.	.
!	!	!	!	!	!	!	!	!	!	!	!	!	!LO:SIC:o=8cc#\	!	!	!	!	!	!	!
8E/	.	.	8g/L	.	(32dd\KLL	.	.	.	.	.	.	.	8cc#)	.	.	.	.	.	.	.
.	.	.	.	.	16.cc#\)	.	.	.	.	.	.	.	.	.	.	.	.	.	.	.
8F#/J	.	.	8c#/J	.	(32ee\K	.	.	.	.	.	.	.	8a#X\	pec-	pec-	.	.	.	.	.
.	.	.	.	.	16.a#X\JJ)	.	.	.	.	.	.	.	.	.	.	.	.	.	.	.
=43	=43	=43	=43	=43	=43	=43	=43	=43	=43	=43	=43	=43	=43	=43	=43	=43	=43	=43	=43	=43
!LO:TX:t=P:problem=mixed beam	!	!	!	!	!	!	!	!	!	!	!	!	!	!	!	!	!	!	!	!
!LO:SIC:o=8BB/L	!	!	!	!	!	!	!	!	!	!	!	!	!	!	!	!	!	!	!	!
8BBL|	.	.	8d/L|	.	8b\	.	2ryy	.	.	2ryy	.	.	8b\	-ca-	-ca-	2ryy	2ryy	.	2ryy	.
!	!	!	!LO:SIC:o=8d/|	!	!	!	!	!	!	!	!	!	!	!	!	!	!	!	!	!
(8B\	.	.	(8d	.	4f#/	.	.	.	.	.	.	.	4f#\	.	.	.	.	.	.	.
!	!	!	!LO:SIC:o=(8c#/	!	!	!	!	!	!	!	!	!	!	!	!	!	!	!	!	!
8A#X\	.	.	8c#	.	.	.	.	.	.	.	.	.	.	.	.	.	.	.	.	.
8B\J)	.	.	8d/J)	.	(32dd\KLL	.	.	.	.	.	.	.	16dd\LL	.	.	.	.	.	.	.
.	.	.	.	.	16.b\JJ)	.	.	.	.	.	.	.	.	.	.	.	.	.	.	.
.	.	.	.	.	.	.	.	.	.	.	.	.	16b\JJ	.	.	.	.	.	.	.
=44	=44	=44	=44	=44	=44	=44	=44	=44	=44	=44	=44	=44	=44	=44	=44	=44	=44	=44	=44	=44
8r	.	.	8r	.	8cc#\	.	2ryy	.	.	2ryy	.	.	8cc#\	.	.	2ryy	2ryy	.	2ryy	.
(8A#X\L	6	.	(8c#/L	.	4f#/	.	.	.	.	.	.	.	4f#\	.	.	.	.	.	.	.
8G#X\	.	.	8B/	.	.	.	.	.	.	.	.	.	.	.	.	.	.	.	.	.
8A#\J)	.	.	8c#/J)	.	(32ee\KLL	.	.	.	.	.	.	.	8e\	.	.	.	.	.	.	.
.	.	.	.	.	16.cc#\JJ)	.	.	.	.	.	.	.	.	.	.	.	.	.	.	.
=45	=45	=45	=45	=45	=45	=45	=45	=45	=45	=45	=45	=45	=45	=45	=45	=45	=45	=45	=45	=45
4B\	.	.	8r	.	16.dd\LL	.	2ryy	.	.	2ryy	.	.	(16d\LL	.	.	2ryy	2ryy	.	2ryy	.
.	.	.	.	.	.	.	.	.	.	.	.	.	16f#\JJ)	.	.	.	.	.	.	.
.	.	.	.	.	32ff#\JK	.	.	.	.	.	.	.	.	.	.	.	.	.	.	.
.	.	.	8d/L	.	8ff#m\J	.	.	.	.	.	.	.	(16b\LL	-ta	-ta	.	.	.	.	.
.	.	.	.	.	.	.	.	.	.	.	.	.	16dd\JJ)	.	.	.	.	.	.	.
!	!	!	!	!	!LO:TUP:problem=klamra łukowa	!	!	!	!	!	!	!	!	!	!	!	!	!	!	!
4E\	6 5	.	8B/	.	24gg\LL	.	.	.	.	.	.	.	8cc#\L	mun-	mun-	.	.	.	.	.
.	.	.	.	.	24ff#\	.	.	.	.	.	.	.	.	.	.	.	.	.	.	.
.	.	.	.	.	24ee\JJ	.	.	.	.	.	.	.	.	.	.	.	.	.	.	.
!	!	!	!	!	!LO:TUP:problem=klamra łukowa	!	!	!	!	!	!	!	!	!	!	!	!	!	!	!
.	.	.	8g/J	.	24dd\LL	.	.	.	.	.	.	.	8b\J	.	.	.	.	.	.	.
.	.	.	.	.	24cc#\	.	.	.	.	.	.	.	.	.	.	.	.	.	.	.
.	.	.	.	.	24b\JJ	.	.	.	.	.	.	.	.	.	.	.	.	.	.	.
=46	=46	=46	=46	=46	=46	=46	=46	=46	=46	=46	=46	=46	=46	=46	=46	=46	=46	=46	=46	=46
.	.	.	.	.	(<8qqb/	.	.	.	.	.	.	.	(<8qqb/	.	.	.	.	.	.	.
8F#\L	#	.	4c#/	.	4a#X/)	.	2ryy	.	.	2ryy	.	.	4a#X\)	-di	-di	2ryy	2ryy	.	2ryy	.
16F#\L	.	.	.	.	.	.	.	.	.	.	.	.	.	.	.	.	.	.	.	.
16Gn\JJ	.	.	.	.	.	.	.	.	.	.	.	.	.	.	.	.	.	.	.	.
8F#\L	.	.	4r	.	4r	.	.	.	.	.	.	.	4r	.	.	.	.	.	.	.
8E\J	.	.	.	.	.	.	.	.	.	.	.	.	.	.	.	.	.	.	.	.
=47	=47	=47	=47	=47	=47	=47	=47	=47	=47	=47	=47	=47	=47	=47	=47	=47	=47	=47	=47	=47
!	!	!	!	!	!LO:MO:mod=.	!	!	!	!	!	!	!	!	!	!	!	!	!	!	!
.	.	.	.	.	(<16qqbb/	.	.	.	.	.	.	.	.	.	.	.	.	.	.	.
!	!	!	!	!	!LO:SIC:o=8.aaM\L)	!	!	!	!	!	!	!	!LO:SIC:o=8.an\	!	!	!	!	!	!	!
4D\	5	.	8.ff#m\L	.	8.aaML	.	2ryy	.	.	2ryy	.	.	8.aML	mi-	mi-	2ryy	2ryy	.	2ryy	.
!	!	!	!	!	!	!	!	!	!	!	!	!	!LO:N:vis=16	!	!	!	!	!	!	!
!	!	!	!	!	!	!	!	!	!	!	!	!	!LO:SIC:o=32g\LLL	!	!	!	!	!	!	!
.	.	.	(32ee\LL	.	(32gg\LL	.	.	.	.	.	.	.	(32gLL	.	.	.	.	.	.	.
!	!	!	!	!	!	!	!	!	!	!	!	!	!LO:N:vis=16	!	!	!	!	!	!	!
!	!	!	!	!	!	!	!	!	!	!	!	!	!LO:SIC:o=32a\JJJ	!	!	!	!	!	!	!
.	.	.	32ff#\JJJ)	.	32aa\JJJ)	.	.	.	.	.	.	.	32aJJJ)	.	.	.	.	.	.	.
4DD/	.	.	8gg\L	.	8bb\L	.	.	.	.	.	.	.	8b\	.	.	.	.	.	.	.
.	.	.	8ff#\J	.	8aa\J	.	.	.	.	.	.	.	8a\	-se-	-se-	.	.	.	.	.
!LO:LB:g=original	!	!	!	!	!	!	!	!	!	!	!	!	!LO:LB:g=original	!	!	!	!	!	!	!
=48	=48	=48	=48	=48	=48	=48	=48	=48	=48	=48	=48	=48	=48	=48	=48	=48	=48	=48	=48	=48
!LO:TX:t=P:problem=mixed beam	!	!	!	!	!	!	!	!	!	!	!	!	!	!	!	!	!	!	!	!
8AA/L	.	.	8ee\	.	8gg\	.	2ryy	.	.	2ryy	.	.	8g\	-re-	-re-	2ryy	2ryy	.	2ryy	.
8A\	.	.	4cc#\	.	4ee\	.	.	.	.	.	.	.	4e\	.	.	.	.	.	.	.
8AA/	5	.	.	.	.	.	.	.	.	.	.	.	.	.	.	.	.	.	.	.
8A\J	4	.	8dd\	.	8ff#\	.	.	.	.	.	.	.	8f#\	.	.	.	.	.	.	.
=49	=49	=49	=49	=49	=49	=49	=49	=49	=49	=49	=49	=49	=49	=49	=49	=49	=49	=49	=49	=49
!LO:TX:t=P:problem=mixed beam	!	!	!	!	!	!	!	!	!	!	!	!	!	!	!	!	!	!	!	!
8AA/L	5	.	8.eeM\L	.	8.ggM\L	.	2ryy	.	.	2ryy	.	.	8.gM\L	.	.	2ryy	2ryy	.	2ryy	.
8A\	.	.	.	.	.	.	.	.	.	.	.	.	.	.	.	.	.	.	.	.
.	.	.	(32dd\LL	.	(32ff#\LL	.	.	.	.	.	.	.	(32f#\LL	.	.	.	.	.	.	.
.	.	.	32ee\JJJ)	.	32gg\JJJ)	.	.	.	.	.	.	.	32g\JJJ)	.	.	.	.	.	.	.
8AA/	.	.	8ff#\L	.	8aa\L	.	.	.	.	.	.	.	8a\L	.	.	.	.	.	.	.
8A\J	.	.	8ee\J	.	8gg\J	.	.	.	.	.	.	.	8g\J	.	.	.	.	.	.	.
=50	=50	=50	=50	=50	=50	=50	=50	=50	=50	=50	=50	=50	=50	=50	=50	=50	=50	=50	=50	=50
!	!	!	!LO:TX:t=P:problem=mixed beam	!	!LO:TX:t=P:problem=mixed beam	!	!	!	!	!	!	!	!	!	!	!	!	!	!	!
4D\	.	.	8dd\L	.	8ff#\L	.	2ryy	.	.	2ryy	.	.	8f#\L	.	.	2ryy	2ryy	.	2ryy	.
.	.	.	8f#/	.	8a/	.	.	.	.	.	.	.	8a\	.	.	.	.	.	.	.
8r	.	.	8g/	.	8b/	.	.	.	.	.	.	.	8b\	.	.	.	.	.	.	.
!LO:SIC:v:o=8G\	!	!	!	!	!	!	!	!	!	!	!	!	!	!	!	!	!	!	!	!
8F#\	5n	.	8a/J	.	8ccn/J	.	.	.	.	.	.	.	8ccn\J	.	.	.	.	.	.	.
=51	=51	=51	=51	=51	=51	=51	=51	=51	=51	=51	=51	=51	=51	=51	=51	=51	=51	=51	=51	=51
8G\L	.	.	8g/	.	8b\	.	2ryy	.	.	2ryy	.	.	8b\	.	.	2ryy	2ryy	.	2ryy	.
8E\	#_	.	4g#X/	.	4b\	.	.	.	.	.	.	.	4b\	.	.	.	.	.	.	.
8G#X\	.	.	.	.	.	.	.	.	.	.	.	.	.	.	.	.	.	.	.	.
8E\J	.	.	16a/LL	.	16cc#X\LL	.	.	.	.	.	.	.	16cc#X\LL	.	.	.	.	.	.	.
.	X	.	16b/JJ	.	16dd\JJ	.	.	.	.	.	.	.	16dd\JJ	.	.	.	.	.	.	.
!	!	!	!LO:LB:g=original	!	!	!	!	!	!	!	!	!	!	!	!	!	!	!	!	!
=52	=52	=52	=52	=52	=52	=52	=52	=52	=52	=52	=52	=52	=52	=52	=52	=52	=52	=52	=52	=52
!	!	!	!LO:SIC:o=8a/L	!	!	!	!	!	!	!	!	!	!	!	!	!	!	!	!	!
4A\	.	.	8aL|	.	8cc#\L|	.	2ryy	.	.	2ryy	.	.	8cc#X\L	.	.	2ryy	2ryy	.	2ryy	.
!	!	!	!LO:SIC:o=8gn/	!	!	!	!	!	!	!	!	!	!	!	!	!	!	!	!	!
.	.	.	8g|	.	8b\|	.	.	.	.	.	.	.	8b\	.	.	.	.	.	.	.
!	!	!	!LO:SIC:o=8f#/	!	!	!	!	!	!	!	!	!	!	!	!	!	!	!	!	!
4r	.	.	8f#|	.	8a\|	.	.	.	.	.	.	.	8a\	.	.	.	.	.	.	.
!	!	!	!LO:SIC:o=8e/J	!	!	!	!	!	!	!	!	!	!	!	!	!	!	!	!	!
.	.	.	8eJ|	.	8g\J|	.	.	.	.	.	.	.	8g\J	.	.	.	.	.	.	.
=53	=53	=53	=53	=53	=53	=53	=53	=53	=53	=53	=53	=53	=53	=53	=53	=53	=53	=53	=53	=53
!	!	!	!	!	!	!	!	!	!	!	!	!	!LO:MO:null:mod=*null	!	!	!	!	!	!	!
*	*	*	*	*	*	*	*	*	*	*	*	*	*Xtuplet	*	*	*	*	*	*	*
!	!	!	!LO:TUP:problem=klamra łukowa	!	!LO:TUP:problem=klamra łukowa	!	!	!	!	!	!	!	!LO:TUP:problem=klamra łukowa	!	!	!	!	!	!	!
8r	.	.	24d/LL	.	24f#/LL	.	2ryy	.	.	2ryy	.	.	24f#\LL	.	.	2ryy	2ryy	.	2ryy	.
.	.	.	24e/	.	24g/	.	.	.	.	.	.	.	24g\	.	.	.	.	.	.	.
.	.	.	24f#/JJ	.	24a/JJ	.	.	.	.	.	.	.	24a\JJ	.	.	.	.	.	.	.
8AA/L	7n	.	4e/	.	4g/	.	.	.	.	.	.	.	4g\	.	.	.	.	.	.	.
8C#/	6 5 3	.	.	.	.	.	.	.	.	.	.	.	.	.	.	.	.	.	.	.
8D/J	.	.	8d/	.	8f#/	.	.	.	.	.	.	.	8f#\	-re	-re	.	.	.	.	.
!	!	!	!	!	!	!	!	!	!	!	!	!	!LO:LB:g=original	!	!	!	!	!	!	!
=54	=54	=54	=54	=54	=54	=54	=54	=54	=54	=54	=54	=54	=54	=54	=54	=54	=54	=54	=54	=54
!	!	!	!LO:SIC:o=8qqe/	!	!	!	!	!	!	!	!	!	!	!	!	!	!	!	!	!
.	.	.	(8qqe	.	(8qqg/	.	.	.	.	.	.	.	(<8qqg/	.	.	.	.	.	.	.
!LO:TX:t=P:problem=mixed beam	!	!	!LO:SIC:o=8d/L	!	!	!	!	!	!	!	!	!	!	!	!	!	!	!	!	!
8AA/L	6 4	.	8dL)	.	8f#/L)	.	2ryy	.	.	2ryy	.	.	8f#\)	no-	no-	2ryy	2ryy	.	2ryy	.
8A\	5 3	.	8c#/J	.	8e/J	.	.	.	.	.	.	.	8e\	-bis	-bis	.	.	.	.	.
8E\	.	.	4r	.	4r	.	.	.	.	.	.	.	4r	.	.	.	.	.	.	.
8C#\J	.	.	.	.	.	.	.	.	.	.	.	.	.	.	.	.	.	.	.	.
!	!	!	!	!	!LO:LB:g=original	!	!	!	!	!	!	!	!	!	!	!	!	!	!	!
=55	=55	=55	=55	=55	=55	=55	=55	=55	=55	=55	=55	=55	=55	=55	=55	=55	=55	=55	=55	=55
!	!	!	!LO:TX:t=P:problem=mixed beam	!	!LO:TX:t=P:problem=nieczytelna nuta (wpisana analogicznie do t. 57)	!	!	!	!	!	!	!	!	!	!	!	!	!	!	!
8AA/L	7	.	8c#/L	.	8a/L	.	2ryy	.	.	2ryy	.	.	4gn\	mi-	mi-	2ryy	2ryy	.	2ryy	.
8C#/	6 5	.	8ee\J	.	8ggn\J	.	.	.	.	.	.	.	.	.	.	.	.	.	.	.
8D/	3	.	8r	.	8r	.	.	.	.	.	.	.	4f#m\	-se-	-se-	.	.	.	.	.
8GG#X/J	7	.	8dd\	.	8ff#\	.	.	.	.	.	.	.	.	.	.	.	.	.	.	.
=56	=56	=56	=56	=56	=56	=56	=56	=56	=56	=56	=56	=56	=56	=56	=56	=56	=56	=56	=56	=56
4AA/	.	.	8r	.	8r	.	2ryy	.	.	2ryy	.	.	(8e\L	-re-	-re-	2ryy	2ryy	.	2ryy	.
!	!	!	!LO:SIC:o=8cc#\L|	!	!	!	!	!	!	!	!	!	!	!	!	!	!	!	!	!
.	.	.	8cc#	.	8ee\	.	.	.	.	.	.	.	8a\J)	.	.	.	.	.	.	.
!	!	!	!LO:SIC:o=(8b\	!	!	!	!	!	!	!	!	!	!	!	!	!	!	!	!	!
4r	.	.	(8bL	.	(8gg#X\L	.	.	.	.	.	.	.	(8g#X\L	-re-	-re-	.	.	.	.	.
.	.	.	8cc#\J)	.	8aa\J)	.	.	.	.	.	.	.	8a\J)	.	.	.	.	.	.	.
!LO:LB:g=original	!	!	!	!	!	!	!	!	!	!	!	!	!	!	!	!	!	!	!	!
=57	=57	=57	=57	=57	=57	=57	=57	=57	=57	=57	=57	=57	=57	=57	=57	=57	=57	=57	=57	=57
8r	.	.	8A/L	.	8A/L	.	2ryy	.	.	2ryy	.	.	4gn\	.	.	2ryy	2ryy	.	2ryy	.
8C#/L	5n	.	8e/J	.	8gn/J	.	.	.	.	.	.	.	.	.	.	.	.	.	.	.
8D/	3	.	8r	.	8r	.	.	.	.	.	.	.	4f#m\	.	.	.	.	.	.	.
8GG#X/J	7	.	8d/	.	8f#/	.	.	.	.	.	.	.	.	.	.	.	.	.	.	.
=58	=58	=58	=58	=58	=58	=58	=58	=58	=58	=58	=58	=58	=58	=58	=58	=58	=58	=58	=58	=58
4AA/	.	.	4c#/	.	8e/L	.	2ryy	.	.	2ryy	.	.	8e\L	.	.	2ryy	2ryy	.	2ryy	.
.	.	.	.	.	8b/J	.	.	.	.	.	.	.	8b\J	.	.	.	.	.	.	.
4C#/	6	.	4eM/	.	(16.a/LL	.	.	.	.	.	.	.	16a\LL	.	.	.	.	.	.	.
.	.	.	.	.	.	.	.	.	.	.	.	.	16g\	.	.	.	.	.	.	.
.	.	.	.	.	32g/JJk	.	.	.	.	.	.	.	.	.	.	.	.	.	.	.
.	.	.	.	.	16.f#/LL	.	.	.	.	.	.	.	16f#\	.	.	.	.	.	.	.
.	.	.	.	.	.	.	.	.	.	.	.	.	16e\JJ	.	.	.	.	.	.	.
.	.	.	.	.	32e/JJk)	.	.	.	.	.	.	.	.	.	.	.	.	.	.	.
=59	=59	=59	=59	=59	=59	=59	=59	=59	=59	=59	=59	=59	=59	=59	=59	=59	=59	=59	=59	=59
!	!	!	!LO:TX:t=P:problem=mixed beam	!	!	!	!	!	!	!	!	!	!	!	!	!	!	!	!	!
8D\L	.	.	8A/L	.	8f#/L	.	2ryy	.	.	2ryy	.	.	8f#\L	.	.	2ryy	2ryy	.	2ryy	.
8F#\	6	.	8a\J	.	(32dd/KL	.	.	.	.	.	.	.	16dd\L	.	.	.	.	.	.	.
.	.	.	.	.	16.a/JJ)	.	.	.	.	.	.	.	.	.	.	.	.	.	.	.
.	.	.	.	.	.	.	.	.	.	.	.	.	16a\JJ	.	.	.	.	.	.	.
!	!	!	!LO:N:vis=16	!	!	!	!	!	!	!	!	!	!	!	!	!	!	!	!	!
8G\	.	.	(32b\KLL	.	(32b\KLL	.	.	.	.	.	.	.	8b\L	.	.	.	.	.	.	.
!	!	!	!LO:N:vis=32.	!	!	!	!	!	!	!	!	!	!	!	!	!	!	!	!	!
.	.	.	16.bb\JJ)	.	16.bb\JJ)	.	.	.	.	.	.	.	.	.	.	.	.	.	.	.
8E\J	.	.	(32gg\KLL	.	(32gg\KLL	.	.	.	.	.	.	.	16g\L	.	.	.	.	.	.	.
.	.	.	16.ee\JJ)	.	16.ee\JJ)	.	.	.	.	.	.	.	.	.	.	.	.	.	.	.
.	.	.	.	.	.	.	.	.	.	.	.	.	16e\JJ	-re	-re	.	.	.	.	.
=60	=60	=60	=60	=60	=60	=60	=60	=60	=60	=60	=60	=60	=60	=60	=60	=60	=60	=60	=60	=60
4A\	6 4	.	4dd\	.	4dd\	.	2ryy	.	.	2ryy	.	.	4d\	no-	no-	2ryy	2ryy	.	2ryy	.
.	5 3	.	.	.	.	.	.	.	.	.	.	.	.	.	.	.	.	.	.	.
4AA/	.	.	4cc#m\	.	4eeM\	.	.	.	.	.	.	.	4eM\	.	.	.	.	.	.	.
!	!	!	!LO:LB:g=original	!	!	!	!	!	!	!	!	!	!	!	!	!	!	!	!	!
=61	=61	=61	=61	=61	=61	=61	=61	=61	=61	=61	=61	=61	=61	=61	=61	=61	=61	=61	=61	=61
!	!	!LO:DY:a:t=for	!	!LO:DY:b:t=for	!	!LO:DY:b:t=for	!	!	!	!	!	!	!	!	!	!	!	!	!	!
8D\L	.	f	4dd\	f	4dd\	f	2ryy	.	.	2ryy	.	.	4d\	-bis	-bis	2ryy	2ryy	.	2ryy	.
8F#\	6	.	.	.	.	.	.	.	.	.	.	.	.	.	.	.	.	.	.	.
8G\	7	.	(32ff#\KLL	.	(32ff#\KLL	.	.	.	.	.	.	.	4r	.	.	.	.	.	.	.
.	.	.	16.ee\JJ)	.	16.ee\JJ)	.	.	.	.	.	.	.	.	.	.	.	.	.	.	.
8A\J	7	.	(32dd\KLL	.	(32dd\KLL	.	.	.	.	.	.	.	.	.	.	.	.	.	.	.
.	.	.	16.cc#\JJ)	.	16.cc#\JJ)	.	.	.	.	.	.	.	.	.	.	.	.	.	.	.
!	!	!	!	!	!LO:LB:g=original	!	!	!	!	!	!	!	!LO:LB:g=original	!	!	!	!	!	!	!
=62	=62	=62	=62	=62	=62	=62	=62	=62	=62	=62	=62	=62	=62	=62	=62	=62	=62	=62	=62	=62
8B\L	.	.	8dd\L	.	8dd\L	.	2ryy	.	.	2ryy	.	.	0r	.	.	2ryy	2ryy	.	2ryy	.
8G\	.	.	(32ddd\KL	.	(32ddd\KL	.	.	.	.	.	.	.	.	.	.	.	.	.	.	.
.	.	.	16.bb\JJ)	.	16.bb\JJ)	.	.	.	.	.	.	.	.	.	.	.	.	.	.	.
8F#\	6	.	8aa\L	.	8aa\L	.	.	.	.	.	.	.	.	.	.	.	.	.	.	.
8E\J	7	.	(32ddd\KL	.	(32ddd\KL	.	.	.	.	.	.	.	.	.	.	.	.	.	.	.
.	.	.	16.gg\JJ)	.	16.gg\JJ)	.	.	.	.	.	.	.	.	.	.	.	.	.	.	.
=63	=63	=63	=63	=63	=63	=63	=63	=63	=63	=63	=63	=63	=63	=63	=63	=63	=63	=63	=63	=63
8D\L	.	.	(32gg\KLL	.	(32gg\KLL	.	2ryy	.	.	2ryy	.	.	.	.	.	2ryy	2ryy	.	2ryy	.
.	.	.	16.ff#\JJ)	.	16.ff#\JJ)	.	.	.	.	.	.	.	.	.	.	.	.	.	.	.
8F#\	.	.	(32aa\KLL	.	(32aa\KLL	.	.	.	.	.	.	.	.	.	.	.	.	.	.	.
.	.	.	16.dd\JJ)	.	16.dd\JJ)	.	.	.	.	.	.	.	.	.	.	.	.	.	.	.
8G\	.	.	(32ff#\KLL	.	(32ff#\KLL	.	.	.	.	.	.	.	.	.	.	.	.	.	.	.
.	.	.	16.ee\JJ)	.	16.ee\JJ)	.	.	.	.	.	.	.	.	.	.	.	.	.	.	.
8A\J	.	.	(32gg\KLL	.	(32gg\KLL	.	.	.	.	.	.	.	.	.	.	.	.	.	.	.
.	.	.	16.cc#\JJ)	.	16.cc#\JJ)	.	.	.	.	.	.	.	.	.	.	.	.	.	.	.
=64	=64	=64	=64	=64	=64	=64	=64	=64	=64	=64	=64	=64	=64	=64	=64	=64	=64	=64	=64	=64
8D\L	.	.	8dd\	.	8dd\	.	2ryy	.	.	2ryy	.	.	.	.	.	2ryy	2ryy	.	2ryy	.
8D\	.	.	4a/	.	4a/	.	.	.	.	.	.	.	.	.	.	.	.	.	.	.
8D\	.	.	.	.	.	.	.	.	.	.	.	.	.	.	.	.	.	.	.	.
8D\J	.	.	(32ff#\KLL	.	(32ff#\KLL	.	.	.	.	.	.	.	.	.	.	.	.	.	.	.
.	.	.	16.dd\JJ)	.	16.dd\JJ)	.	.	.	.	.	.	.	.	.	.	.	.	.	.	.
=65	=65	=65	=65	=65	=65	=65	=65	=65	=65	=65	=65	=65	=65	=65	=65	=65	=65	=65	=65	=65
8C#/L	.	.	8ee\	.	8ee\	.	2ryy	.	.	2ryy	.	.	.	.	.	2ryy	2ryy	.	2ryy	.
8C#/	.	.	4a/	.	4a/	.	.	.	.	.	.	.	.	.	.	.	.	.	.	.
8C#/	.	.	.	.	.	.	.	.	.	.	.	.	.	.	.	.	.	.	.	.
8C#/J	.	.	(32gg\KLL	.	(32gg\KLL	.	.	.	.	.	.	.	.	.	.	.	.	.	.	.
.	.	.	16.ee\JJ)	.	16.ee\JJ)	.	.	.	.	.	.	.	.	.	.	.	.	.	.	.
!LO:LB:g=original	!	!	!	!	!	!	!	!	!	!	!	!	!	!	!	!	!	!	!	!
=66	=66	=66	=66	=66	=66	=66	=66	=66	=66	=66	=66	=66	=66	=66	=66	=66	=66	=66	=66	=66
4D\	.	.	8ff#\L	.	8ff#\L	.	2ryy	.	.	2ryy	.	.	0r	.	.	2ryy	2ryy	.	2ryy	.
.	.	.	8ff#\J	.	8ddd\J	.	.	.	.	.	.	.	.	.	.	.	.	.	.	.
4F#\	5-	.	8r	.	8r	.	.	.	.	.	.	.	.	.	.	.	.	.	.	.
.	.	.	8aa\	.	8cccn\	.	.	.	.	.	.	.	.	.	.	.	.	.	.	.
!	!	!	!LO:LB:g=original	!	!	!	!	!	!	!	!	!	!	!	!	!	!	!	!	!
=67	=67	=67	=67	=67	=67	=67	=67	=67	=67	=67	=67	=67	=67	=67	=67	=67	=67	=67	=67	=67
4G\	.	.	8r	.	8r	.	2ryy	.	.	2ryy	.	.	.	.	.	2ryy	2ryy	.	2ryy	.
.	.	.	8dd\	.	8bb\	.	.	.	.	.	.	.	.	.	.	.	.	.	.	.
4C#/	6	.	(8ee\L	.	16aa\LL	.	.	.	.	.	.	.	.	.	.	.	.	.	.	.
.	.	.	.	.	16gg\	.	.	.	.	.	.	.	.	.	.	.	.	.	.	.
.	.	.	8a\J)	.	16ff#\	.	.	.	.	.	.	.	.	.	.	.	.	.	.	.
.	.	.	.	.	16ee\JJ	.	.	.	.	.	.	.	.	.	.	.	.	.	.	.
=68	=68	=68	=68	=68	=68	=68	=68	=68	=68	=68	=68	=68	=68	=68	=68	=68	=68	=68	=68	=68
!	!	!	!	!LO:DY:b:t=pia	!	!	!	!	!	!	!	!	!	!	!	!	!	!	!	!
4D\	.	.	8a\L	p	8ff#\L	.	2ryy	.	.	2ryy	.	.	.	.	.	2ryy	2ryy	.	2ryy	.
.	.	.	8ff#\J	.	8ddd\J	.	.	.	.	.	.	.	.	.	.	.	.	.	.	.
4F#\	5-	.	8r	.	8r	.	.	.	.	.	.	.	.	.	.	.	.	.	.	.
.	.	.	8aa\	.	8cccn\	.	.	.	.	.	.	.	.	.	.	.	.	.	.	.
!	!	!	!	!	!LO:LB:g=original	!	!	!	!	!	!	!	!	!	!	!	!	!	!	!
=69	=69	=69	=69	=69	=69	=69	=69	=69	=69	=69	=69	=69	=69	=69	=69	=69	=69	=69	=69	=69
4G\	.	.	8r	.	8r	.	2ryy	.	.	2ryy	.	.	.	.	.	2ryy	2ryy	.	2ryy	.
.	.	.	8dd\	.	8bb\	.	.	.	.	.	.	.	.	.	.	.	.	.	.	.
4C#/	6	.	8ee\L	.	16aa\LL	.	.	.	.	.	.	.	.	.	.	.	.	.	.	.
.	.	.	.	.	16gg\	.	.	.	.	.	.	.	.	.	.	.	.	.	.	.
.	.	.	8a\J	.	16ff#\	.	.	.	.	.	.	.	.	.	.	.	.	.	.	.
.	.	.	.	.	16ee\JJ	.	.	.	.	.	.	.	.	.	.	.	.	.	.	.
=70	=70	=70	=70	=70	=70	=70	=70	=70	=70	=70	=70	=70	=70	=70	=70	=70	=70	=70	=70	=70
8D\L	.	.	8r	.	8.dd\L	.	2ryy	.	.	2ryy	.	.	1r	.	.	2ryy	2ryy	.	2ryy	.
!	!	!LO:MO:null:mod=!LO&colon;DY&colon;ed=brack	!	!	!	!	!	!	!	!	!	!	!	!	!	!	!	!	!	!
!	!	!null	!	!	!	!	!	!	!	!	!	!	!	!	!	!	!	!	!	!
!	!	!LO:MO:null:mod=f	!	!LO:DY:a:t=for	!	!	!	!	!	!	!	!	!	!	!	!	!	!	!	!
8F#\	6	.	8a\L	f	.	.	.	.	.	.	.	.	.	.	.	.	.	.	.	.
!	!	!	!	!	!	!LO:MO:null:mod=!LO&colon;DY&colon;ed=brack	!	!	!	!	!	!	!	!	!	!	!	!	!	!
!	!	!	!	!	!	!null	!	!	!	!	!	!	!	!	!	!	!	!	!	!
!	!	!	!	!	!	!LO:MO:null:mod=f	!	!	!	!	!	!	!	!	!	!	!	!	!	!
.	.	.	.	.	16a\Jk	.	.	.	.	.	.	.	.	.	.	.	.	.	.	.
8G\	6 5	.	8b\	.	4eeM\	.	.	.	.	.	.	.	.	.	.	.	.	.	.	.
8A\J	.	.	8cc#\J	.	.	.	.	.	.	.	.	.	.	.	.	.	.	.	.	.
=71	=71	=71	=71	=71	=71	=71	=71	=71	=71	=71	=71	=71	=71	=71	=71	=71	=71	=71	=71	=71
8D/L	.	.	8dd\L	.	8dd\L	.	2ryy	.	.	2ryy	.	.	.	.	.	2ryy	2ryy	.	2ryy	.
8AA/J	.	.	8a\J	.	8a\J	.	.	.	.	.	.	.	.	.	.	.	.	.	.	.
4DD/	.	.	4d/	.	4d/	.	.	.	.	.	.	.	.	.	.	.	.	.	.	.
=72	=72	=72	=72	=72	=72	=72	=72	=72	=72	=72	=72	=72	=72	=72	=72	=72	=72	=72	=72	=72
!	!	!LO:DY:a:t=pia	!LO:SIC:v:o=8dd\L	!LO:DY:b:t=pia	!	!LO:DY:a:t=pia	!	!	!	!	!	!	!	!	!	!	!	!	!	!
8BB/L	.	p	8dd#\L	p	8ff#\L	p	2ryy	.	.	2ryy	.	.	4f#\	A-	A-	2ryy	2ryy	.	2ryy	.
!	!	!	!LO:SIC:v:o=8dd\	!	!	!	!	!	!	!	!	!	!	!	!	!	!	!	!	!
8BB/	.	.	8dd#\	.	8ff#\	.	.	.	.	.	.	.	.	.	.	.	.	.	.	.
!	!	!	!LO:SIC:v:o=8dd\	!	!	!	!	!	!	!	!	!	!	!	!	!	!	!	!	!
8BB/	.	.	8dd#\	.	8ff#\	.	.	.	.	.	.	.	(32a\KLL	.	.	.	.	.	.	.
.	.	.	.	.	.	.	.	.	.	.	.	.	16.g\JJ)	.	.	.	.	.	.	.
!	!	!	!LO:SIC:v:o=8dd\J	!	!	!	!	!	!	!	!	!	!	!	!	!	!	!	!	!
8BB/J	.	.	8dd#\J	.	8ff#\J	.	.	.	.	.	.	.	(32f#\KLL	-gnus	-gnus	.	.	.	.	.
.	.	.	.	.	.	.	.	.	.	.	.	.	16.e\JJ)	.	.	.	.	.	.	.
=73	=73	=73	=73	=73	=73	=73	=73	=73	=73	=73	=73	=73	=73	=73	=73	=73	=73	=73	=73	=73
!	!	!	!LO:SIC:v:o=4dd\	!	!	!	!	!	!	!	!	!	!LO:SIC:o=8d#X\L	!	!	!	!	!	!	!
4BB/	#	.	4dd#\	.	4ff#\	.	2ryy	.	.	2ryy	.	.	(8d#L	de-	De-	2ryy	2ryy	.	2ryy	.
!	!	!	!	!	!	!	!	!	!	!	!	!	!LO:SIC:o=8f#\J	!	!	!	!	!	!	!
.	.	.	.	.	.	.	.	.	.	.	.	.	8f#J)	.	.	.	.	.	.	.
8r	.	.	8r	.	8r	.	.	.	.	.	.	.	8a\	-i	-i	.	.	.	.	.
8E\	5n	.	8gg\	.	8cccn\	.	.	.	.	.	.	.	8bn\	qui	qui	.	.	.	.	.
=74	=74	=74	=74	=74	=74	=74	=74	=74	=74	=74	=74	=74	=74	=74	=74	=74	=74	=74	=74	=74
8D#X\L	6	.	8ff#\L	.	8bb\	.	2ryy	.	.	2ryy	.	.	8b\	tol-	tol-	2ryy	2ryy	.	2ryy	.
8D#\	.	.	8ff#\	.	4bb\	.	.	.	.	.	.	.	16f#\	-lis	-lis	.	.	.	.	.
.	.	.	.	.	.	.	.	.	.	.	.	.	16g\	pec-	pec-	.	.	.	.	.
!	!	!	!	!	!	!	!	!	!	!	!	!	!LO:TX:t=P:problem=przednutka niewyraźna	!	!	!	!	!	!	!
.	.	.	.	.	.	.	.	.	.	.	.	.	(<8qqb/	.	.	.	.	.	.	.
8D#\	.	.	8ff#\	.	.	.	.	.	.	.	.	.	8a\)	-ca-	-ca-	.	.	.	.	.
8D#\J	.	.	8b\J	.	8aa\	.	.	.	.	.	.	.	(16g\LL	-ta	-ta	.	.	.	.	.
.	.	.	.	.	.	.	.	.	.	.	.	.	16f#\JJ)	.	.	.	.	.	.	.
=75	=75	=75	=75	=75	=75	=75	=75	=75	=75	=75	=75	=75	=75	=75	=75	=75	=75	=75	=75	=75
!	!	!	!	!	!LO:SIC:o=16ggn\LL	!	!	!	!	!	!	!	!	!	!	!	!	!	!	!
8E\L	.	.	4b\	.	(16ggLL	.	2ryy	.	.	2ryy	.	.	16g\LL	mun-	mun-	2ryy	2ryy	.	2ryy	.
.	.	.	.	.	16ff#\J	.	.	.	.	.	.	.	16f#\JJ	.	.	.	.	.	.	.
!	!	!	!	!	!LO:SIC:o=8ee\J	!	!	!	!	!	!	!	!	!	!	!	!	!	!	!
16E\L	.	.	.	.	8eeJ)	.	.	.	.	.	.	.	8e\	-di	-di	.	.	.	.	.
16F#\JJ	.	.	.	.	.	.	.	.	.	.	.	.	.	.	.	.	.	.	.	.
8G\L	.	.	4r	.	4r	.	.	.	.	.	.	.	4r	.	.	.	.	.	.	.
8F#\J	.	.	.	.	.	.	.	.	.	.	.	.	.	.	.	.	.	.	.	.
!LO:LB:g=original	!	!	!	!	!	!	!	!	!	!	!	!	!	!	!	!	!	!	!	!
=76	=76	=76	=76	=76	=76	=76	=76	=76	=76	=76	=76	=76	=76	=76	=76	=76	=76	=76	=76	=76
!	!	!	!	!	!	!	!	!	!	!	!	!	!LO:N:vis=8	!	!	!	!	!	!	!
8E#X\L	6|	.	8cc#\L	.	4gg#X\	.	2ryy	.	.	2ryy	.	.	4g#X\	a-	A-	2ryy	2ryy	.	2ryy	.
8C#\J	#	.	8ee#X\J	.	.	.	.	.	.	.	.	.	.	.	.	.	.	.	.	.
!	!	!	!	!	!	!	!	!	!	!	!	!	!LO:SIC:v:o=(32dd\KLL	!	!	!	!	!	!	!
4r	.	.	(32gg#X\KLL	.	(32bb\KLL	.	.	.	.	.	.	.	(32b\KLL	.	.	.	.	.	.	.
!	!	!	!	!	!LO:N:vis=16	!	!	!	!	!	!	!	!	!	!	!	!	!	!	!
.	.	.	16.ff#\JJ)	.	16.aa\JJ)	.	.	.	.	.	.	.	16.a\JJ)	.	.	.	.	.	.	.
.	.	.	(32ee#X\KLL	.	(32gg#\KLL	.	.	.	.	.	.	.	(32g#X\KLL	-gnus	-gnus	.	.	.	.	.
.	.	.	16.dd#X\JJ)	.	16.ff#\JJ)	.	.	.	.	.	.	.	16.f#\JJ)	.	.	.	.	.	.	.
!	!	!	!LO:LB:g=original	!	!	!	!	!	!	!	!	!	!LO:LB:g=original	!	!	!	!	!	!	!
=77	=77	=77	=77	=77	=77	=77	=77	=77	=77	=77	=77	=77	=77	=77	=77	=77	=77	=77	=77	=77
!	!	!	!	!	!	!	!	!	!	!	!	!	!LO:SIC:o=8e#\L	!	!	!	!	!	!	!
4r	.	.	(8cc#\L	.	(8ee#X\L	.	2ryy	.	.	2ryy	.	.	(8e#L	De-	De-	2ryy	2ryy	.	2ryy	.
!	!	!	!	!	!	!	!	!	!	!	!	!	!LO:SIC:o=8g#X\J	!	!	!	!	!	!	!
.	.	.	8ee#X\	.	8gg#X\	.	.	.	.	.	.	.	8g#J)	.	.	.	.	.	.	.
!	!	!	!LO:SIC:o=8gg#X\)	!	!	!	!	!	!	!	!	!	!	!	!	!	!	!	!	!
8r	.	.	8gg#	.	8bb\	.	.	.	.	.	.	.	8b\	-i	-i	.	.	.	.	.
!	!	!	!LO:SIC:o=8aa\J|	!	!	!	!	!	!	!	!	!	!	!	!	!	!	!	!	!
8F#\	6	.	8aaJ)	.	8ddd\J)	.	.	.	.	.	.	.	8dd\	qui	qui	.	.	.	.	.
!	!	!	!	!	!LO:LB:g=original	!	!	!	!	!	!	!	!	!	!	!	!	!	!	!
=78	=78	=78	=78	=78	=78	=78	=78	=78	=78	=78	=78	=78	=78	=78	=78	=78	=78	=78	=78	=78
8E#X\L	6|	.	8gg#X\L	.	8ccc#\	.	2ryy	.	.	2ryy	.	.	8cc#\	tol-	tol-	2ryy	2ryy	.	2ryy	.
8E#\	.	.	8gg#\	.	4ccc#\	.	.	.	.	.	.	.	16g#X\	-lis	-lis	.	.	.	.	.
.	.	.	.	.	.	.	.	.	.	.	.	.	16a\	pec-	pec-	.	.	.	.	.
.	.	.	.	.	.	.	.	.	.	.	.	.	(<8qqcc#/	.	.	.	.	.	.	.
8E#\	.	.	8gg#\	.	.	.	.	.	.	.	.	.	8b\)	-ca-	-ca-	.	.	.	.	.
8E#\J	.	.	8cc#\J	.	8bb\	.	.	.	.	.	.	.	(16a\LL	-ta	-ta	.	.	.	.	.
.	.	.	.	.	.	.	.	.	.	.	.	.	16g#X\JJ)	.	.	.	.	.	.	.
=79	=79	=79	=79	=79	=79	=79	=79	=79	=79	=79	=79	=79	=79	=79	=79	=79	=79	=79	=79	=79
8F#\L	.	.	4cc#\	.	(16aan\LL	.	2ryy	.	.	2ryy	.	.	16a\LL	mun-	mun-	2ryy	2ryy	.	2ryy	.
.	.	.	.	.	16gg#X\J	.	.	.	.	.	.	.	16g#X\JJ	.	.	.	.	.	.	.
16F#\L	.	.	.	.	8ff#\J)	.	.	.	.	.	.	.	8f#\	-di	-di	.	.	.	.	.
16G#X\JJ	.	.	.	.	.	.	.	.	.	.	.	.	.	.	.	.	.	.	.	.
8A#X\L	.	.	4r	.	4r	.	.	.	.	.	.	.	4r	.	.	.	.	.	.	.
8G#\J	.	.	.	.	.	.	.	.	.	.	.	.	.	.	.	.	.	.	.	.
=80	=80	=80	=80	=80	=80	=80	=80	=80	=80	=80	=80	=80	=80	=80	=80	=80	=80	=80	=80	=80
8F#\L	#_	.	8r	.	8aa#X\	.	2ryy	.	.	2ryy	.	.	4.a#X\	mi-	mi-	2ryy	2ryy	.	2ryy	.
8F#\	.	.	8cc#\L	.	4ff#\	.	.	.	.	.	.	.	.	.	.	.	.	.	.	.
8En\	.	.	8a#X\	.	.	.	.	.	.	.	.	.	.	.	.	.	.	.	.	.
8E\J	.	.	[<8f#\J	.	(32ccc#\KLL	.	.	.	.	.	.	.	16cc#\LL	-se-	-se-	.	.	.	.	.
!	!	!	!	!	!LO:N:vis=16	!	!	!	!	!	!	!	!	!	!	!	!	!	!	!
.	.	.	.	.	16.aa#X\JJ)	.	.	.	.	.	.	.	.	.	.	.	.	.	.	.
.	X	.	.	.	.	.	.	.	.	.	.	.	16a#\JJ	.	.	.	.	.	.	.
=81	=81	=81	=81	=81	=81	=81	=81	=81	=81	=81	=81	=81	=81	=81	=81	=81	=81	=81	=81	=81
8D\L	.	.	8f#/L]	.	8bb\	.	2ryy	.	.	2ryy	.	.	4.b\	-re-	-re-	2ryy	2ryy	.	2ryy	.
8D\	.	.	8b/	.	4ff#\	.	.	.	.	.	.	.	.	.	.	.	.	.	.	.
8BB\	.	.	8dd/	.	.	.	.	.	.	.	.	.	.	.	.	.	.	.	.	.
8BB\J	.	.	[8f#/J	.	(32ddd\KLL	.	.	.	.	.	.	.	16dd\LL	.	.	.	.	.	.	.
.	.	.	.	.	16.bb\JJ)	.	.	.	.	.	.	.	.	.	.	.	.	.	.	.
.	.	.	.	.	.	.	.	.	.	.	.	.	16b\JJ	.	.	.	.	.	.	.
=82	=82	=82	=82	=82	=82	=82	=82	=82	=82	=82	=82	=82	=82	=82	=82	=82	=82	=82	=82	=82
8AA#X/L	6 5_	.	8f#/]	.	(32ccc#\KLL	.	2ryy	.	.	2ryy	.	.	8.cc#\L	.	.	2ryy	2ryy	.	2ryy	.
!	!	!	!	!	!LO:N:vis=16	!	!	!	!	!	!	!	!	!	!	!	!	!	!	!
.	.	.	.	.	16.aa#X\JJ)	.	.	.	.	.	.	.	.	.	.	.	.	.	.	.
8FF#/J	.	.	4cc#\	.	4ee\	.	.	.	.	.	.	.	.	.	.	.	.	.	.	.
.	.	.	.	.	.	.	.	.	.	.	.	.	32dd\LL	.	.	.	.	.	.	.
.	.	.	.	.	.	.	.	.	.	.	.	.	32ee\JJJ	.	.	.	.	.	.	.
8AA#/L	x 3	.	.	.	.	.	.	.	.	.	.	.	8f#\	.	.	.	.	.	.	.
8BB/J	.	.	8b\	.	8dd\	.	.	.	.	.	.	.	8dd\	-re	-re	.	.	.	.	.
!	!	!	!	!	!	!	!	!	!	!	!	!	!LO:LB:g=original	!	!	!	!	!	!	!
=83	=83	=83	=83	=83	=83	=83	=83	=83	=83	=83	=83	=83	=83	=83	=83	=83	=83	=83	=83	=83
!LO:TX:t=P:problem=mixed beam	!	!	!	!	!	!	!	!	!	!	!	!	!	!	!	!	!	!	!	!
8F#\L	6 4	.	4b/	.	4dd\	.	2ryy	.	.	2ryy	.	.	4dd\	no-	no-	2ryy	2ryy	.	2ryy	.
8FF#/J	.	.	.	.	.	.	.	.	.	.	.	.	.	.	.	.	.	.	.	.
16F#\LL	#	.	4a#Xm/	.	4cc#m\	.	.	.	.	.	.	.	4cc#\	-bis	-bis	.	.	.	.	.
16E\	.	.	.	.	.	.	.	.	.	.	.	.	.	.	.	.	.	.	.	.
16D\	.	.	.	.	.	.	.	.	.	.	.	.	.	.	.	.	.	.	.	.
16C#\JJ	.	.	.	.	.	.	.	.	.	.	.	.	.	.	.	.	.	.	.	.
=84	=84	=84	=84	=84	=84	=84	=84	=84	=84	=84	=84	=84	=84	=84	=84	=84	=84	=84	=84	=84
!	!	!LO:MO:null:mod=!LO&colon;DY&colon;ed=brack	!	!LO:MO:null:mod=!LO&colon;DY&colon;ed=brack	!	!	!	!	!	!	!	!	!	!	!	!	!	!	!	!
!	!	!null	!	!null	!	!	!	!	!	!	!	!	!	!	!	!	!	!	!	!
!	!	!LO:MO:null:mod=f	!	!LO:MO:null:mod=f	!	!LO:DY:b:rj:t=for	!	!	!	!	!	!	!	!	!	!	!	!	!	!
8BB/L	.	.	8d/L	.	4b\	f	2ryy	.	.	2ryy	.	.	4b\	a-	A-	2ryy	2ryy	.	2ryy	.
8D/	.	.	8f#/	.	.	.	.	.	.	.	.	.	.	.	.	.	.	.	.	.
8E/	.	.	8g/	.	(32dd\KLL	.	.	.	.	.	.	.	(32dd\KLL	.	.	.	.	.	.	.
!	!	!	!	!	!LO:N:vis=16	!	!	!	!	!	!	!	!	!	!	!	!	!	!	!
.	.	.	.	.	16.cc#\JJ)	.	.	.	.	.	.	.	16.cc#\JJ)	.	.	.	.	.	.	.
8F#/J	#	.	8e/J	.	(32b\KLL	.	.	.	.	.	.	.	(32b\KLL	-gnus	-gnus	.	.	.	.	.
.	.	.	.	.	16.a#X\JJ)	.	.	.	.	.	.	.	16.a#X\JJ)	.	.	.	.	.	.	.
!LO:LB:g=original	!	!	!	!	!	!	!	!	!	!	!	!	!	!	!	!	!	!	!	!
=85	=85	=85	=85	=85	=85	=85	=85	=85	=85	=85	=85	=85	=85	=85	=85	=85	=85	=85	=85	=85
!	!	!	!	!	!	!	!	!	!	!	!	!	!LO:SIC:o=8b\L	!	!	!	!	!	!	!
8G\L	3	.	8d/	.	8b\L	.	2ryy	.	.	2ryy	.	.	(8bL	De-	De-	2ryy	2ryy	.	2ryy	.
!	!	!	!	!	!	!	!	!	!	!	!	!	!LO:SIC:o=8g\J	!	!	!	!	!	!	!
8E\	5	.	4b\	.	(32bb\KL	.	.	.	.	.	.	.	8gJ)	.	.	.	.	.	.	.
.	.	.	.	.	16.gg\JJ)	.	.	.	.	.	.	.	.	.	.	.	.	.	.	.
8D\	6	.	.	.	8ff#\L	.	.	.	.	.	.	.	8f#\	-i	-i	.	.	.	.	.
8C#\J	7	.	(32bb\KLL	.	(32bb\KL	.	.	.	.	.	.	.	8ee\	qui	qui	.	.	.	.	.
!	!	!	!LO:SIC:v:o=16.ff#\JJ)	!	!	!	!	!	!	!	!	!	!	!	!	!	!	!	!	!
.	.	.	16.eeJJ)	.	16.ee\JJ)	.	.	.	.	.	.	.	.	.	.	.	.	.	.	.
!	!	!	!	!	!LO:LB:g=original	!	!	!	!	!	!	!	!	!	!	!	!	!	!	!
=86	=86	=86	=86	=86	=86	=86	=86	=86	=86	=86	=86	=86	=86	=86	=86	=86	=86	=86	=86	=86
.	.	.	.	.	.	.	.	.	.	.	.	.	(<8qqee/	.	.	.	.	.	.	.
!	!	!	!LO:SIC:o=32ee\KLL	!	!	!	!	!	!	!	!	!	!	!	!	!	!	!	!	!
8BB/L	.	.	(32eeKLL	.	(32ee\KLL	.	2ryy	.	.	2ryy	.	.	8dd\)	tol-	tol-	2ryy	2ryy	.	2ryy	.
!	!	!	!LO:SIC:o=16.dd\JJ	!	!	!	!	!	!	!	!	!	!	!	!	!	!	!	!	!
.	.	.	16.ddJJ)	.	16.dd\JJ)	.	.	.	.	.	.	.	.	.	.	.	.	.	.	.
8D/	.	.	8f#/L	.	(32ff#\KLL	.	.	.	.	.	.	.	16cc#\	-lis	-lis	.	.	.	.	.
.	.	.	.	.	16.b\JJ)	.	.	.	.	.	.	.	.	.	.	.	.	.	.	.
.	.	.	.	.	.	.	.	.	.	.	.	.	16b\	pec-	pec-	.	.	.	.	.
8E/	.	.	8g/	.	(32dd\KLL	.	.	.	.	.	.	.	8cc#\	-ca-	-ca-	.	.	.	.	.
.	.	.	.	.	16.cc#\JJ)	.	.	.	.	.	.	.	.	.	.	.	.	.	.	.
8F#/J	.	.	8c#/J	.	(32ee\KLL	.	.	.	.	.	.	.	8a#X\	-ta	-ta	.	.	.	.	.
.	.	.	.	.	16.a#X\JJ)	.	.	.	.	.	.	.	.	.	.	.	.	.	.	.
!	!	!	!LO:LB:g=original	!	!	!	!	!	!	!	!	!	!	!	!	!	!	!	!	!
=87	=87	=87	=87	=87	=87	=87	=87	=87	=87	=87	=87	=87	=87	=87	=87	=87	=87	=87	=87	=87
!	!	!	!	!	!	!	!	!	!	!	!	!	!LO:SIC:v:o=8a\	!	!	!	!	!	!	!
8BB/L	.	.	8d/L	.	8b/	.	2ryy	.	.	2ryy	.	.	8b\	mun-	mun-	2ryy	2ryy	.	2ryy	.
8BB/	.	.	8d/	.	4f#/	.	.	.	.	.	.	.	4f#\	-di	-di	.	.	.	.	.
8BB/	.	.	8d/	.	.	.	.	.	.	.	.	.	.	.	.	.	.	.	.	.
8BB/J	.	.	8f#/J	.	(32dd\KLL	.	.	.	.	.	.	.	16dd\	mi-	mi-	.	.	.	.	.
.	.	.	.	.	16.b\JJ)	.	.	.	.	.	.	.	.	.	.	.	.	.	.	.
.	.	.	.	.	.	.	.	.	.	.	.	.	16b\	-se-	-se-	.	.	.	.	.
!	!	!	!	!	!	!	!	!	!	!	!	!	!LO:LB:g=original	!	!	!	!	!	!	!
=88	=88	=88	=88	=88	=88	=88	=88	=88	=88	=88	=88	=88	=88	=88	=88	=88	=88	=88	=88	=88
8AA#X/L	6 5	.	8f#/L	.	8cc#\	.	2ryy	.	.	2ryy	.	.	8cc#\	-re-	-re-	2ryy	2ryy	.	2ryy	.
8AA#/	.	.	8c#/	.	4f#/	.	.	.	.	.	.	.	4f#\	.	.	.	.	.	.	.
8AA#/	.	.	8c#/	.	.	.	.	.	.	.	.	.	.	.	.	.	.	.	.	.
!	!	!	!	!	!	!	!	!	!	!	!	!	!LO:SIC:o=32ee\KLL	!	!	!	!	!	!	!
8AA#/J	.	.	8f#/J	.	(32ee\KLL	.	.	.	.	.	.	.	(32eeKLL	.	.	.	.	.	.	.
!	!	!	!	!	!	!	!	!	!	!	!	!	!LO:SIC:o=16.cc#\JJ	!	!	!	!	!	!	!
.	.	.	.	.	16.cc#\JJ)	.	.	.	.	.	.	.	16.cc#JJ)	.	.	.	.	.	.	.
=89	=89	=89	=89	=89	=89	=89	=89	=89	=89	=89	=89	=89	=89	=89	=89	=89	=89	=89	=89	=89
.	.	.	.	.	.	.	.	.	.	.	.	.	(<8qqee/	.	.	.	.	.	.	.
!LO:TX:t=P:problem=mixed beam	!	!	!	!	!	!	!	!	!	!	!	!	!	!	!	!	!	!	!	!
8BB/L	.	.	4f#/	.	8.ddM\L	.	2ryy	.	.	2ryy	.	.	8.dd\L)	.	.	2ryy	2ryy	.	2ryy	.
8B\	.	.	.	.	.	.	.	.	.	.	.	.	.	.	.	.	.	.	.	.
.	.	.	.	.	(32cc#\LL	.	.	.	.	.	.	.	(32cc#\LL	.	.	.	.	.	.	.
.	.	.	.	.	32dd\JJJ)	.	.	.	.	.	.	.	32dd\JJJ)	.	.	.	.	.	.	.
8G\	.	.	8g/L	.	8ee\L	.	.	.	.	.	.	.	8ee\L	.	.	.	.	.	.	.
!	!	!	!	!	!	!	!	!	!	!	!	!	!LO:SIC:v:o=8qqb/	!	!	!	!	!	!	!
.	.	.	.	.	8qqdd/	.	.	.	.	.	.	.	8qqdd/	.	.	.	.	.	.	.
8E\J	.	.	8g/J	.	8cc#\J	.	.	.	.	.	.	.	8cc#\J	.	.	.	.	.	.	.
=90	=90	=90	=90	=90	=90	=90	=90	=90	=90	=90	=90	=90	=90	=90	=90	=90	=90	=90	=90	=90
.	.	.	.	.	(<8qqb/	.	.	.	.	.	.	.	(<8qqb/	.	.	.	.	.	.	.
8F#\L	#	.	4c#/	.	4a#X/)	.	2ryy	.	.	2ryy	.	.	4a#X\)	.	.	2ryy	2ryy	.	2ryy	.
8E\	.	.	.	.	.	.	.	.	.	.	.	.	.	.	.	.	.	.	.	.
8D\	.	.	8f#/L	.	8b/L	.	.	.	.	.	.	.	16b\LL	.	.	.	.	.	.	.
.	.	.	.	.	.	.	.	.	.	.	.	.	16f#\JJ	.	.	.	.	.	.	.
8E\J	.	.	8g/J	.	8e/J	.	.	.	.	.	.	.	16ee\LL	-re	-re	.	.	.	.	.
.	.	.	.	.	.	.	.	.	.	.	.	.	16cc#\JJ	.	.	.	.	.	.	.
=91	=91	=91	=91	=91	=91	=91	=91	=91	=91	=91	=91	=91	=91	=91	=91	=91	=91	=91	=91	=91
4F#\	.	.	4f#/	.	4f#/	.	2ryy	.	.	2ryy	.	.	4b\	no-	no-	2ryy	2ryy	.	2ryy	.
4FF#/	.	.	4a#Xm/	.	4cc#m\	.	.	.	.	.	.	.	4cc#m\	.	.	.	.	.	.	.
=92	=92	=92	=92	=92	=92	=92	=92	=92	=92	=92	=92	=92	=92	=92	=92	=92	=92	=92	=92	=92
8B\L	.	.	8b/L	.	4b\	.	2ryy	.	.	2ryy	.	.	4b\	-bis	-bis	2ryy	2ryy	.	2ryy	.
8F#\J	.	.	8f#/J	.	.	.	.	.	.	.	.	.	.	.	.	.	.	.	.	.
8BB/	.	.	8B/	.	8r	.	.	.	.	.	.	.	4r	.	.	.	.	.	.	.
!	!	!	!	!	!	!LO:MO:null:mod=!LO&colon;DY&colon;ed=brack	!	!	!	!	!	!	!	!	!	!	!	!	!	!
!	!	!	!	!	!	!null	!	!	!	!	!	!	!	!	!	!	!	!	!	!
!	!	!	!	!	!	!LO:MO:null:mod=f	!	!	!	!	!	!	!	!	!	!	!	!	!	!
8r	.	.	8r	.	8ff#\	.	.	.	.	.	.	.	.	.	.	.	.	.	.	.
=93	=93	=93	=93	=93	=93	=93	=93	=93	=93	=93	=93	=93	=93	=93	=93	=93	=93	=93	=93	=93
!	!	!LO:DY:a:t=for	!	!	!	!	!	!	!	!	!	!	!	!	!	!	!	!	!	!
8BB/L	.	f	4r	.	(32ff#\KLL	.	2ryy	.	.	2ryy	.	.	0r	.	.	2ryy	2ryy	.	2ryy	.
.	.	.	.	.	16.dd\JJ)	.	.	.	.	.	.	.	.	.	.	.	.	.	.	.
8BB/	.	.	.	.	(32cc#\KLL	.	.	.	.	.	.	.	.	.	.	.	.	.	.	.
.	.	.	.	.	16.b\JJ)	.	.	.	.	.	.	.	.	.	.	.	.	.	.	.
8D#X/	.	.	8r	.	8aa\L	.	.	.	.	.	.	.	.	.	.	.	.	.	.	.
!	!	!	!	!LO:MO:null:mod=!LO&colon;DY&colon;ed=brack	!	!	!	!	!	!	!	!	!	!	!	!	!	!	!	!
!	!	!	!	!null	!	!	!	!	!	!	!	!	!	!	!	!	!	!	!	!
!	!	!	!	!LO:MO:null:mod=f	!	!	!	!	!	!	!	!	!	!	!	!	!	!	!	!
8D#/J	.	.	8b\	.	8aa\J	.	.	.	.	.	.	.	.	.	.	.	.	.	.	.
!LO:LB:g=original	!	!	!	!	!	!	!	!	!	!	!	!	!	!	!	!	!	!	!	!
=94	=94	=94	=94	=94	=94	=94	=94	=94	=94	=94	=94	=94	=94	=94	=94	=94	=94	=94	=94	=94
!	!	!	!	!	!LO:SIC:o=8qqaa/	!	!	!	!	!	!	!	!	!	!	!	!	!	!	!
.	.	.	.	.	(8qqaa	.	.	.	.	.	.	.	.	.	.	.	.	.	.	.
!	!	!	!	!	!LO:SIC:o=4gg\	!	!	!	!	!	!	!	!	!	!	!	!	!	!	!
8E\L	.	.	(32b/KLL	.	4gg)	.	2ryy	.	.	2ryy	.	.	.	.	.	2ryy	2ryy	.	2ryy	.
.	.	.	16.g/JJ)	.	.	.	.	.	.	.	.	.	.	.	.	.	.	.	.	.
8E\	.	.	(32f#/KLL	.	.	.	.	.	.	.	.	.	.	.	.	.	.	.	.	.
.	.	.	16.e/JJ)	.	.	.	.	.	.	.	.	.	.	.	.	.	.	.	.	.
!	!	!	!LO:SIC:o=8ddM\L	!	!	!	!	!	!	!	!	!	!	!	!	!	!	!	!	!
8G\	6	.	8ddL	.	8r	.	.	.	.	.	.	.	.	.	.	.	.	.	.	.
8G\J	.	.	8dd\J	.	8ee\	.	.	.	.	.	.	.	.	.	.	.	.	.	.	.
=95	=95	=95	=95	=95	=95	=95	=95	=95	=95	=95	=95	=95	=95	=95	=95	=95	=95	=95	=95	=95
!LO:TX:t=P:problem=mixed beam	!	!	!LO:SIC:o=8qqdd/	!	!	!	!	!	!	!	!	!	!	!	!	!	!	!	!	!
.	.	.	(8qqdd	.	.	.	.	.	.	.	.	.	.	.	.	.	.	.	.	.
!	!	!	!LO:SIC:o=4cc#\	!	!	!	!	!	!	!	!	!	!	!	!	!	!	!	!	!
8A\L	.	.	4cc#)	.	(32ee\KLL	.	2ryy	.	.	2ryy	.	.	.	.	.	2ryy	2ryy	.	2ryy	.
!	!	!	!	!	!LO:SIC:o=16.cc#\JJ	!	!	!	!	!	!	!	!	!	!	!	!	!	!	!
.	.	.	.	.	16.cc#JJ)	.	.	.	.	.	.	.	.	.	.	.	.	.	.	.
!	!	!	!	!	!LO:SIC:o=32b\KLL	!	!	!	!	!	!	!	!	!	!	!	!	!	!	!
8A\	.	.	.	.	(32bKLL	.	.	.	.	.	.	.	.	.	.	.	.	.	.	.
.	.	.	.	.	16.a\JJ)	.	.	.	.	.	.	.	.	.	.	.	.	.	.	.
!	!	!	!	!	!LO:LB:g=original	!	!	!	!	!	!	!	!	!	!	!	!	!	!	!
8C#/	.	.	8r	.	8gg\L	.	.	.	.	.	.	.	.	.	.	.	.	.	.	.
8C#/J	.	.	8ee\	.	8gg\J	.	.	.	.	.	.	.	.	.	.	.	.	.	.	.
!	!	!	!LO:LB:g=original	!	!	!	!	!	!	!	!	!	!	!	!	!	!	!	!	!
=96	=96	=96	=96	=96	=96	=96	=96	=96	=96	=96	=96	=96	=96	=96	=96	=96	=96	=96	=96	=96
8D\L	.	.	8ff#\L	.	8ff#\L	.	2ryy	.	.	2ryy	.	.	.	.	.	2ryy	2ryy	.	2ryy	.
!	!	!	!	!	!LO:SIC:o=(16gg\L	!	!	!	!	!	!	!	!	!	!	!	!	!	!	!
16E\L	.	.	(16gg'\L	.	(16ggL'	.	.	.	.	.	.	.	.	.	.	.	.	.	.	.
!	!	!	!	!	!LO:SIC:o=16ff#\JJ	!	!	!	!	!	!	!	!	!	!	!	!	!	!	!
16F#\JJ	.	.	16ff#'\JJ	.	16ff#JJ'	.	.	.	.	.	.	.	.	.	.	.	.	.	.	.
!	!	!	!	!	!LO:SIC:o=16ee\LL	!	!	!	!	!	!	!	!	!	!	!	!	!	!	!
8G\L	.	.	16ee'\LL	.	16eeLL'	.	.	.	.	.	.	.	.	.	.	.	.	.	.	.
!	!	!	!	!	!LO:SIC:o=16dd\	!	!	!	!	!	!	!	!	!	!	!	!	!	!	!
.	.	.	16dd'\	.	16dd'	.	.	.	.	.	.	.	.	.	.	.	.	.	.	.
!	!	!	!	!	!LO:SIC:o=16cc#\	!	!	!	!	!	!	!	!	!	!	!	!	!	!	!
8E\J	.	.	16cc#'\	.	16cc#'	.	.	.	.	.	.	.	.	.	.	.	.	.	.	.
!	!	!	!	!	!LO:SIC:o=16b\JJ)	!	!	!	!	!	!	!	!	!	!	!	!	!	!	!
.	.	.	16b'\JJ)	.	16bJJ')	.	.	.	.	.	.	.	.	.	.	.	.	.	.	.
=97	=97	=97	=97	=97	=97	=97	=97	=97	=97	=97	=97	=97	=97	=97	=97	=97	=97	=97	=97	=97
8F#\L	6	.	8a#X\L	.	8a#X\L	.	2ryy	.	.	2ryy	.	.	0r	.	.	2ryy	2ryy	.	2ryy	.
8A#X\	5	.	8cc#\J	.	8ee\J	.	.	.	.	.	.	.	.	.	.	.	.	.	.	.
8B\	7	.	8r	.	8r	.	.	.	.	.	.	.	.	.	.	.	.	.	.	.
8E#X\J	7 #	.	8b\	.	8dd\	.	.	.	.	.	.	.	.	.	.	.	.	.	.	.
=98	=98	=98	=98	=98	=98	=98	=98	=98	=98	=98	=98	=98	=98	=98	=98	=98	=98	=98	=98	=98
!	!	!	!	!	!	!LO:DY:b:t=pia	!	!	!	!	!	!	!	!	!	!	!	!	!	!
!	!	!	!	!	!	!LO:MO:mod=.	!	!	!	!	!	!	!	!	!	!	!	!	!	!
4F#\	#	.	8r	.	8r	p	2ryy	.	.	2ryy	.	.	.	.	.	2ryy	2ryy	.	2ryy	.
!	!	!	!	!LO:DY:a:t=pia	!	!LO:MO:null:mod=p	!	!	!	!	!	!	!	!	!	!	!	!	!	!
.	.	.	8a#X/L	p	8cc#\L	.	.	.	.	.	.	.	.	.	.	.	.	.	.	.
4r	.	.	(8g#X/	.	(8ee#X\	.	.	.	.	.	.	.	.	.	.	.	.	.	.	.
.	.	.	8a#X/J)	.	8ff#\J)	.	.	.	.	.	.	.	.	.	.	.	.	.	.	.
=99	=99	=99	=99	=99	=99	=99	=99	=99	=99	=99	=99	=99	=99	=99	=99	=99	=99	=99	=99	=99
!	!	!	!	!	!	!LO:MO:null:mod=!LO&colon;DY&colon;ed=brack	!	!	!	!	!	!	!	!	!	!	!	!	!	!
!	!	!	!	!	!	!null	!	!	!	!	!	!	!	!	!	!	!	!	!	!
!	!	!	!LO:TX:t=P:problem=mixed beam	!LO:DY:b:t=for	!LO:TX:t=P:problem=mixed beam	!LO:MO:null:mod=f	!	!	!	!	!	!	!	!	!	!	!	!	!	!
8r	.	.	8d/L	f	8f#/L	.	2ryy	.	.	2ryy	.	.	.	.	.	2ryy	2ryy	.	2ryy	.
!	!	!LO:MO:null:mod=!LO&colon;DY&colon;ed=brack	!	!	!	!	!	!	!	!	!	!	!	!	!	!	!	!	!	!
!	!	!null	!	!	!	!	!	!	!	!	!	!	!	!	!	!	!	!	!	!
!	!	!LO:MO:null:mod=f	!	!	!	!	!	!	!	!	!	!	!	!	!	!	!	!	!	!
8A#X\L	6 5	.	8cc#\J	.	8een\J	.	.	.	.	.	.	.	.	.	.	.	.	.	.	.
8B\	3	.	8r	.	8r	.	.	.	.	.	.	.	.	.	.	.	.	.	.	.
8E#X\J	7 #	.	8b\	.	8dd\	.	.	.	.	.	.	.	.	.	.	.	.	.	.	.
=100	=100	=100	=100	=100	=100	=100	=100	=100	=100	=100	=100	=100	=100	=100	=100	=100	=100	=100	=100	=100
!LO:SIC:v:o=8G\L	!	!	!	!	!	!	!	!	!	!	!	!	!	!	!	!	!	!	!	!
8F#\L	#_	.	16r	.	16r	.	2ryy	.	.	2ryy	.	.	.	.	.	2ryy	2ryy	.	2ryy	.
!	!	!	!	!	!	!LO:MO:null:mod=!LO&colon;DY&colon;ed=brack	!	!	!	!	!	!	!	!	!	!	!	!	!	!
!	!	!	!	!	!	!null	!	!	!	!	!	!	!	!	!	!	!	!	!	!
!	!	!	!	!LO:MO:null:mod=p	!	!LO:MO:null:mod=p	!	!	!	!	!	!	!	!	!	!	!	!	!	!
.	.	.	16a#X\LL	.	16cc#\LL	.	.	.	.	.	.	.	.	.	.	.	.	.	.	.
!	!	!	!	!LO:DY:b:t=pia	!	!	!	!	!	!	!	!	!	!	!	!	!	!	!	!
!	!	!	!	!LO:MO:mod=.	!	!	!	!	!	!	!	!	!	!	!	!	!	!	!	!
8En\	.	.	16aa#X\	p	16aa#X\	.	.	.	.	.	.	.	.	.	.	.	.	.	.	.
.	X	.	16aa#\JJ	.	16aa#\JJ	.	.	.	.	.	.	.	.	.	.	.	.	.	.	.
!	!	!	!	!	!LO:SIC:o=8bb\L	!	!	!	!	!	!	!	!	!	!	!	!	!	!	!
8D\	5	.	8bbM\L	.	8bbML	.	.	.	.	.	.	.	.	.	.	.	.	.	.	.
8C#\J	#	.	8ee\J	.	8ee\J	.	.	.	.	.	.	.	.	.	.	.	.	.	.	.
=101	=101	=101	=101	=101	=101	=101	=101	=101	=101	=101	=101	=101	=101	=101	=101	=101	=101	=101	=101	=101
!	!	!LO:MO:null:mod=!LO&colon;DY&colon;ed=brack	!	!	!	!LO:MO:null:mod=!LO&colon;DY&colon;ed=brack	!	!	!	!	!	!	!	!	!	!	!	!	!	!
!	!	!null	!	!	!	!null	!	!	!	!	!	!	!	!	!	!	!	!	!	!
!	!	!LO:MO:null:mod=f	!	!LO:DY:b:t=for	!LO:N:vis=16	!LO:MO:null:mod=f	!	!	!	!	!	!	!	!	!	!	!	!	!	!
8BB\L	.	.	(32dd\LLL	f	(32dd\LLL	.	2ryy	.	.	2ryy	.	.	0r	.	.	2ryy	2ryy	.	2ryy	.
!	!	!	!	!	!LO:N:vis=16	!	!	!	!	!	!	!	!	!	!	!	!	!	!	!
.	.	.	32cc#\JJ	.	32cc#\JJ	.	.	.	.	.	.	.	.	.	.	.	.	.	.	.
!	!	!	!	!	!LO:N:vis=16.	!	!	!	!	!	!	!	!	!	!	!	!	!	!	!
.	.	.	8.b\J)	.	8.b\J)	.	.	.	.	.	.	.	.	.	.	.	.	.	.	.
8D\	.	.	.	.	.	.	.	.	.	.	.	.	.	.	.	.	.	.	.	.
!	!	!	!LO:MO:null:mod=(8qqb	!	!	!	!	!	!	!	!	!	!	!	!	!	!	!	!	!
.	.	.	.	.	(8qqb/	.	.	.	.	.	.	.	.	.	.	.	.	.	.	.
!	!	!	!LO:SIC:o=4cc#m\	!	!	!	!	!	!	!	!	!	!	!	!	!	!	!	!	!
8E\	6 5	.	4cc#m)	.	4cc#m\)	.	.	.	.	.	.	.	.	.	.	.	.	.	.	.
8F#\J	#	.	.	.	.	.	.	.	.	.	.	.	.	.	.	.	.	.	.	.
=102	=102	=102	=102	=102	=102	=102	=102	=102	=102	=102	=102	=102	=102	=102	=102	=102	=102	=102	=102	=102
!LO:TX:t=P:problem=mixed beam	!	!LO:DY:a:t=pia	!	!	!	!	!	!	!	!	!	!	!	!	!	!	!	!	!	!
8FF#/L	.	p	16r	.	16r	.	2ryy	.	.	2ryy	.	.	.	.	.	2ryy	2ryy	.	2ryy	.
!	!	!	!	!	!	!LO:MO:null:mod=!LO&colon;DY&colon;ed=brack	!	!	!	!	!	!	!	!	!	!	!	!	!	!
!	!	!	!	!	!	!null	!	!	!	!	!	!	!	!	!	!	!	!	!	!
!	!	!	!	!LO:MO:null:mod=p	!LO:TX:t=P:problem=mixed beam	!LO:MO:null:mod=p	!	!	!	!	!	!	!	!	!	!	!	!	!	!
.	.	.	16a#X\LL	.	16f#/LL	.	.	.	.	.	.	.	.	.	.	.	.	.	.	.
!	!	!	!	!LO:DY:b:t=pia	!	!	!	!	!	!	!	!	!	!	!	!	!	!	!	!
!	!	!	!	!LO:MO:mod=.	!	!	!	!	!	!	!	!	!	!	!	!	!	!	!	!
16F#\L	6	.	16aa#X\	p	16aa#X\	.	.	.	.	.	.	.	.	.	.	.	.	.	.	.
16E\JJ	.	.	16aa#\JJ	.	16aa#\JJ	.	.	.	.	.	.	.	.	.	.	.	.	.	.	.
8D/L	6	.	8bb\L	.	8bb\L	.	.	.	.	.	.	.	.	.	.	.	.	.	.	.
8AA#X/J	5	.	8ee\J	.	8ee\J	.	.	.	.	.	.	.	.	.	.	.	.	.	.	.
!LO:PB:g=original	!	!	!LO:LB:g=original	!	!	!	!	!	!	!	!	!	!	!	!	!	!	!	!	!
=103	=103	=103	=103	=103	=103	=103	=103	=103	=103	=103	=103	=103	=103	=103	=103	=103	=103	=103	=103	=103
!	!	!	!	!LO:MO:null:mod=!LO&colon;DY&colon;ed=brack	!	!LO:MO:null:mod=!LO&colon;DY&colon;ed=brack	!	!	!	!	!	!	!	!	!	!	!	!	!	!
!	!	!	!	!null	!	!null	!	!	!	!	!	!	!	!	!	!	!	!	!	!
!	!	!LO:MO:null:mod=f	!	!LO:MO:null:mod=f	!LO:N:vis=16	!LO:MO:null:mod=f	!	!	!	!	!	!	!	!	!	!	!	!	!	!
8BB\L	.	.	(32dd\LLL	.	(32dd\LLL	.	2ryy	.	.	2ryy	.	.	.	.	.	2ryy	2ryy	.	2ryy	.
!	!	!	!	!	!LO:N:vis=16	!	!	!	!	!	!	!	!	!	!	!	!	!	!	!
.	.	.	32cc#\JJ	.	32cc#\JJ	.	.	.	.	.	.	.	.	.	.	.	.	.	.	.
!	!	!	!	!	!LO:N:vis=16.	!	!	!	!	!	!	!	!	!	!	!	!	!	!	!
.	.	.	8.b\J)	.	8.b\J)	.	.	.	.	.	.	.	.	.	.	.	.	.	.	.
!	!	!LO:DY:a:t=for	!	!	!	!	!	!	!	!	!	!	!	!	!	!	!	!	!	!
!	!	!LO:MO:mod=.	!	!	!	!	!	!	!	!	!	!	!	!	!	!	!	!	!	!
8D\	.	f	.	.	.	.	.	.	.	.	.	.	.	.	.	.	.	.	.	.
8E\	.	.	4cc#m\	.	4cc#m\	.	.	.	.	.	.	.	.	.	.	.	.	.	.	.
8F#\J	.	.	.	.	.	.	.	.	.	.	.	.	.	.	.	.	.	.	.	.
=104	=104	=104	=104	=104	=104	=104	=104	=104	=104	=104	=104	=104	=104	=104	=104	=104	=104	=104	=104	=104
8B\L	.	.	8b/L	.	8b/L	.	2ryy	.	.	2ryy	.	.	.	.	.	2ryy	2ryy	.	2ryy	.
8F#\J	.	.	8f#/J	.	8f#/J	.	.	.	.	.	.	.	.	.	.	.	.	.	.	.
!LO:SIC:o=4BB/	!	!	!	!	!LO:SIC:o=4B/	!	!	!	!	!	!	!	!	!	!	!	!	!	!	!
4BB;	.	.	4B/;	.	4B;	.	.	.	.	.	.	.	.	.	.	.	.	.	.	.
!	!	!	!	!	!LO:PB:g=original	!	!LO:LB:g=original	!	!	!	!	!	!LO:PB:g=original	!	!	!	!LO:LB:g=original	!	!LO:LB:g=original	!
=105||	=105||	=105||	=105||	=105||	=105||	=105||	=105||	=105||	=105||	=105||	=105||	=105||	=105||	=105||	=105||	=105||	=105||	=105||	=105||	=105||
!!!OMD:
!!!OMD-mod: Adagio
*M4/4	*	*	*M4/4	*	*M4/4	*	*M4/4	*	*	*M4/4	*	*	*M4/4	*	*	*	*M4/4	*	*M4/4	*
*met(c)	*	*	*met(c)	*	*met(c)	*	*met(c)	*	*	*met(c)	*	*	*met(c)	*	*	*	*met(c)	*	*met(c)	*
*mmet(c)	*	*	*mmet(c)	*	*mmet(c)	*	*mmet(c)	*	*	*mmet(c)	*	*	*mmet(c)	*	*	*mmet(c)	*mmet(c)	*	*mmet(c)	*
!LO:TX:b:t=Agnus\n3tium:mod=	!	!	!LO:TX:b:t=agnus Dei:mod=	!	!LO:TX:a:t=adagio:mod=	!	!	!	!	!	!	!	!	!	!	!	!	!	!	!
!LO:TX:a:t=adagio:mod=	!	!	!LO:TX:a:t=adagio:mod=	!	!LO:TX:a:t=Agnus \nDei:mod=	!	!LO:TX:a:t=adagio:mod=	!	!	!LO:TX:a:t=adagio:mod=	!	!	!	!	!	!	!LO:TX:a:t=Agnus Dei 3tio \nTacet:mod=	!	!LO:TX:a:t=agnus \nTacet:mod=	!
4B\	.	.	4f#/	.	4dd\	.	4B\	A-	A-	4B\	A-	A-	4f#\	A-	A-	1ryy	1ryy	.	1ryy	.
4A\	.	.	4f#/	.	4dd#X\	.	4A\	-gnus	-gnus	4B\	-gnus	-gnus	4f#\	-gnus	-gnus	.	.	.	.	.
*	*	*	*	*	*	*	*	*	*	*2\right	*	*	*	*	*	*	*	*	*	*
4G\	.	.	4b/	.	4ee\	.	(4G\	De-	De-	2B\	De-	De-	(4g\	De-	De-	.	.	.	.	.
4D#X\	6 5	.	[4b/	.	4ff#\	.	4D#X\)	.	.	.	.	.	4a\)	.	.	.	.	.	.	.
=106	=106	=106	=106	=106	=106	=106	=106	=106	=106	=106	=106	=106	=106	=106	=106	=106	=106	=106	=106	=106
4E\	.	.	4b/]	.	4gg\	.	4E\	-i	-i	4B\	-i	-i	4g\	-i	-i	1ryy	1ryy	.	1ryy	.
4B\	6 4 2	.	4g#X/	.	4ee#X\	.	4B\	qui	qui	4c#\	qui	qui	4g#X\	qui	qui	.	.	.	.	.
4A\	6	.	4cc#\	.	4ff#\	.	(4A\	tol-	tol-	2c#\	tol-	tol-	(4a\	tol-	tol-	.	.	.	.	.
4E#X\	6 5	.	[<4cc#\	.	4gg#X\	.	4E#X\)	.	.	.	.	.	4b\)	.	.	.	.	.	.	.
!LO:LB:g=original	!	!	!	!	!	!	!	!	!	!	!	!	!	!	!	!	!	!	!	!
=107	=107	=107	=107	=107	=107	=107	=107	=107	=107	=107	=107	=107	=107	=107	=107	=107	=107	=107	=107	=107
4F#\	.	.	4cc#\]	.	4aa\	.	4F#\	-lis	-lis	4c#\	-lis	-lis	4a\	-lis	-lis	1ryy	1ryy	.	1ryy	.
!	!	!	!LO:SIC:o=(8cc#\L	!	!	!	!LO:SIC:o=8A#X\L	!	!	!LO:SIC:o=8c#\L	!	!	!	!	!	!	!	!	!	!
8A#X\L	6 3	.	8cc#L	.	4ff#\	.	(8A#L	pec-	pec-	(8c#L	pec-	pec-	(8cc#\L	pec-	pec-	.	.	.	.	.
!	!	!	!LO:SIC:o=8dd\J)	!	!	!	!LO:SIC:o=8B\J	!	!	!LO:SIC:o=8d\J	!	!	!	!	!	!	!	!	!	!
8B\J	.	.	8ddJ	.	.	.	8BJ)	.	.	8dJ)	.	.	8b\J)	.	.	.	.	.	.	.
4c#\	6|	.	4a#X/	.	4ff#\	.	4c#\	-ca-	-ca-	4e\	-ca-	-ca-	4a#X\	-ca-	-ca-	.	.	.	.	.
4d\	6	.	4b/	.	4ff#\	.	4d\	-t	-ta	4d\	-ta	-ta	4b\	-ta	-ta	.	.	.	.	.
!	!	!	!	!	!	!	!	!	!	!LO:LB:g=original	!	!	!	!	!	!	!	!	!	!
=108	=108	=108	=108	=108	=108	=108	=108	=108	=108	=108	=108	=108	=108	=108	=108	=108	=108	=108	=108	=108
*	*	*	*^	*	*	*	*	*	*	*	*	*	*	*	*	*	*	*	*	*
*2\right	*	*	*2\right	*	*	*2\right	*	*	*	*	*	*	*	*	*	*	*	*	*	*	*
2A#X\	7n	.	2ee/	2cc#\	.	2ggn\	.	2A#X\	mun-	mun-	2e\	mun-	mun-	2cc#\	mun-	mun-	1ryy	1ryy	.	1ryy	.
!	!	!	!LO:SIC:o=2ee/	!LO:SIC:o=2cc#\	!	!LO:SIC:o=2gg;;\	!	!	!	!	!	!	!	!LO:SIC:o=2cc#\	!	!	!	!	!	!	!
2A#X;\	.	.	2ee;	2cc#;	.	2gg;	.	2A#;\	-di	-di	2e;\	-di	-di	2cc#;	-di	-di	.	.	.	.	.
*	*	*	*v	*v	*	*	*	*	*	*	*	*	*	*	*	*	*	*	*	*	*
=109	=109	=109	=109	=109	=109	=109	=109	=109	=109	=109	=109	=109	=109	=109	=109	=109	=109	=109	=109	=109
4B\	3	.	4dd\	.	4ff#\	.	4B\	Mi-	mi-	4d\	mi-	mi-	4b\	mi-	mi-	1ryy	1ryy	.	1ryy	.
4B\	6	.	4dd\	.	2ggn\	.	4B\	-se-	-se-	4d\	-se-	-se-	4b\	-se-	-se-	.	.	.	.	.
!	!	!	!	!	!	!	!	!	!	!	!	!	!LO:SIC:o=2cc#\	!	!	!	!	!	!	!
4A#X\	7	.	4cc#\	.	.	.	4A#X\	-re-	-re-	4e\	-re-	-re-	(2cc#	-re-	-re-	.	.	.	.	.
4An\	6	.	4cc#\	.	[<4ff#\	.	4An\	-re	-re	4f#\	-re	-re	.	.	.	.	.	.	.	.
!	!	!	!	!	!	!	!LO:LB:g=original	!	!	!	!	!	!	!	!	!	!	!	!	!
=110	=110	=110	=110	=110	=110	=110	=110	=110	=110	=110	=110	=110	=110	=110	=110	=110	=110	=110	=110	=110
*	*	*	*	*	*	*	*	*ij	*	*	*ij	*	*	*	*	*	*	*	*	*
!	!	!	!	!	!	!	!	!	!	!	!	!	!LO:SIC:o=2b\	!	!	!	!	!	!	!
4G#X\	7	.	2b\	.	4ff#\]	.	4G#X\	Mi-	mi-	4B\	mi-	mi-	2b)	.	.	1ryy	1ryy	.	1ryy	.
4Gn\	6	.	.	.	2ee\	.	4Gn\	-se-	-se-	4e\	-se-	-se-	.	.	.	.	.	.	.	.
!	!	!	!	!	!	!	!	!	!	!	!	!	!LO:SIC:o=4a#X\	!	!	!	!	!	!	!
4F#\	7 #	.	4a#X\	.	.	.	4F#\	-re-	-re-	4c#\	-re-	-re-	(4a#	-re	-re	.	.	.	.	.
!	!	!	!	!	!	!	!	!	!	!	!	!	!LO:SIC:o=4f#\	!	!	!	!	!	!	!
4BB/	.	.	[<4b\	.	4dd\	.	4BB/	-re	-re	4B\	-re	-re	4f#)	.	.	.	.	.	.	.
*	*	*	*	*	*	*	*	*Xij	*	*	*Xij	*	*	*	*	*	*	*	*	*
!	!	!	!	!	!LO:LB:g=original	!	!	!	!	!	!	!	!LO:LB:g=original	!	!	!	!	!	!	!
=111	=111	=111	=111	=111	=111	=111	=111	=111	=111	=111	=111	=111	=111	=111	=111	=111	=111	=111	=111	=111
4F#\	5 4	.	4b\]	.	2cc#m\	.	2F#\	no-	no-	(4B\	no-	no-	2f#\	no-	no-	1ryy	1ryy	.	1ryy	.
4FF#/	#	.	4a#X\	.	.	.	.	.	.	4A#X\)	.	.	.	.	.	.	.	.	.	.
4BB/	.	.	4b\	.	4b\	.	4BB/	-bis	-bis	4B\	-bis	-bis	4f#\	-bis	-bis	.	.	.	.	.
*	*	*	*	*	*	*	*	*	*	*	*ij	*	*	*ij	*	*	*	*	*	*
8B\L	.	.	4f#/	.	4dd\	.	8B\	mi-	mi-	8B\	mi-	mi-	8f#\	mi-	mi-	.	.	.	.	.
8A\J	.	.	.	.	.	.	8A\	-se-	-se-	8B\	-se-	-se-	8f#\	-se-	-se-	.	.	.	.	.
!LO:LB:g=original	!	!	!	!	!	!	!	!	!	!	!	!	!	!	!	!	!	!	!	!
=112	=112	=112	=112	=112	=112	=112	=112	=112	=112	=112	=112	=112	=112	=112	=112	=112	=112	=112	=112	=112
4G\	6	.	4b/	.	4.ee\	.	4G\	-re-	-re-	4B\	-re-	-re-	4g\	-re-	-re-	1ryy	1ryy	.	1ryy	.
4G#X\	6 5	.	4b/	.	.	.	4G#X\	-re	-re	4B\	-re	-re	4e\	-re	-re	.	.	.	.	.
*	*	*	*	*	*	*	*	*	*	*	*	*	*	*Xij	*	*	*	*	*	*
.	.	.	.	.	8dd\	.	.	.	.	.	.	.	.	.	.	.	.	.	.	.
4A\	3	.	4e/	.	4cc#\	.	4A\	mi-	mi-	4An\	mi-	mi-	4e\	mi-	mi-	.	.	.	.	.
4Gn\	4 2	.	4e/	.	4cc#\	.	4Gn\	-se-	-se-	4A\	-se-	-se-	4e\	-se-	-se-	.	.	.	.	.
!	!	!	!	!	!	!	!	!	!	!LO:PB:g=original	!	!	!	!	!	!	!	!	!	!
=113	=113	=113	=113	=113	=113	=113	=113	=113	=113	=113	=113	=113	=113	=113	=113	=113	=113	=113	=113	=113
4F#\	6	.	4a/	.	4dd\	.	4F#\	-re-	-re-	4A\	-re-	-re-	4f#\	-re-	-re-	1ryy	1ryy	.	1ryy	.
4D\	.	.	4f#/	.	4dd\	.	4D\	-re	-re	4A\	-re	-re	4f#\	-re	-re	.	.	.	.	.
*	*	*	*	*	*	*	*	*	*	*	*Xij	*	*	*	*	*	*	*	*	*
2G#X\	6 7-	.	2fnM/	.	2ddM\	.	2G#X\	no-	no-	2B\	no-	no-	2fn\	no-	no-	.	.	.	.	.
=114	=114	=114	=114	=114	=114	=114	=114	=114	=114	=114	=114	=114	=114	=114	=114	=114	=114	=114	=114	=114
!LO:SIC:o=2A\	!	!	!LO:SIC:o=2e/	!	!	!	!LO:SIC:o=2A\	!	!	!LO:SIC:o=2A/	!	!	!	!	!	!	!LO:TX:b:t=Verte Dona nobis:mod=	!	!	!
2A;	#	.	2e;	.	2cc#;\	.	2A;	-bis	-bis	2A;	-bis	-bis	2e;\	-bis	-bis	1ryy	1ryy	.	1ryy	.
!	!	!	!LO:TX:b:t=Dona nobis ut [znak alla breve] allabreve Kirie:mod=	!	!LO:TX:b:t=Donanobis ut Kirie [znak alla breve] allabreve [dopisane 2 takty początku części]:mod=	!	!	!	!	!	!	!	!	!	!	!	!	!	!	!
!!LO:TX:a:t= :mod=Dona nobis ut allabreve Kirie
2r	.	.	2r	.	2r	.	2r	.	.	2r	.	.	2r	.	.	.	.	.	.	.
==	==	==	==	==	==	==	==	==	==	==	==	==	==	==	==	==	==	==	==	==
*-	*-	*-	*-	*-	*-	*-	*-	*-	*-	*-	*-	*-	*-	*-	*-	*-	*-	*-	*-	*-
!!!system-decoration: [(g1)][(g2)][(g3)]<s9>
!!!RDF**kern: | = vertical stroke
!!!RDF**kern: > = above
!!!RDF**kern: < = below
!!!ENC: Andrzej Borzym
!!!END: 2020-12-21
!!!ENC: Andrzej Borzym
!!!END: 2022-01-08
!!!ENC-modern: Marta Lawrence
!!!END-modern: 2023-08-31
!!!filter-modern: sic -sq | tie -s | autostem -r | shed -e "s/yy//" | shed -k -e "s/([^a-gA-Gn#X-])[<>]/$1/g" | shed -e "s/LO:DY:(a|b|rj)/LO:dy:$1/L" | shed -e "s/LO:DY:(a|b|rj)/LO:dy:$1/L" | shed -e "s/^custos:/Xcustos:/I" | shed -e "s/TX(.*):t=P:/tx$1:t=P:/LG" | shed -e "s/LO:N:/LO:n:$1/L" | modori -m
